assets/luts/LUTs by IWLTBAP (3DL)/01 - Standard/C-9730-STD.3dl
# Copyright: (C) Copyright 2010-2020 by IWLTBAP SAS
# Cannot be resold, shared or otherwise redistributed
# Website: https://luts.iwltbap.com
0 128 256 384 512 640 768 896 1023
11 17 0
21 65 12
1 204 400
39 344 901
162 308 1531
213 338 2125
280 455 2740
675 979 3229
1122 1321 3523
7 201 0
25 302 51
4 551 382
0 838 747
17 1029 1164
73 1035 1817
124 1189 2373
524 1552 2929
1086 1758 3501
0 498 11
0 563 223
0 732 516
0 948 860
42 1203 1241
251 1471 1724
362 1734 2290
645 2008 2913
1107 2234 3283
0 817 168
0 873 378
0 944 768
4 1136 1086
221 1454 1431
362 1785 1835
453 2067 2327
763 2385 2790
1190 2638 3065
78 1228 456
41 1261 671
44 1295 1020
212 1491 1338
352 1813 1617
469 2070 1997
615 2299 2462
989 2597 2874
1368 2816 3146
243 1731 857
244 1748 964
302 1832 1208
399 1942 1518
544 2142 1809
676 2307 2188
871 2549 2617
1254 2815 3001
1553 3044 3303
587 2085 1169
602 2106 1240
651 2177 1367
708 2274 1657
769 2396 2023
907 2581 2431
1178 2816 2815
1513 3064 3185
1755 3314 3502
745 2447 1411
762 2459 1466
825 2523 1597
931 2616 1853
1052 2728 2293
1259 2902 2665
1515 3097 3032
1744 3348 3430
2006 3569 3713
1073 2757 1912
1095 2778 1967
1172 2839 2086
1303 2944 2262
1441 3063 2575
1606 3207 2928
1788 3390 3318
2059 3608 3693
2450 3749 3856
225 64 0
235 61 15
220 199 412
194 346 851
321 333 1392
422 337 1979
522 439 2636
986 794 3178
1589 1100 3496
221 215 0
52 324 197
0 487 568
72 534 953
194 434 1640
245 494 2210
435 831 2713
900 1277 3088
1378 1565 3422
2 559 0
0 619 163
0 765 640
0 974 906
22 1151 1312
115 1249 1878
327 1496 2416
874 1796 3017
1361 2018 3408
3 927 1
0 938 289
0 1011 750
14 1183 1099
239 1488 1454
363 1784 1896
478 2047 2404
938 2345 2827
1357 2569 3111
133 1295 278
131 1364 560
111 1448 915
229 1575 1315
365 1856 1623
490 2102 2013
680 2345 2473
1105 2619 2865
1460 2842 3148
319 1788 675
269 1775 912
357 1901 1139
442 2003 1466
573 2167 1815
710 2338 2205
940 2592 2624
1343 2833 2995
1615 3073 3319
628 2124 1063
622 2127 1221
666 2203 1339
741 2326 1554
813 2444 1996
978 2634 2418
1272 2847 2792
1586 3100 3182
1795 3338 3529
802 2463 1470
828 2470 1550
888 2538 1681
1000 2655 1890
1145 2784 2251
1347 2936 2646
1589 3130 3020
1790 3379 3445
2064 3591 3721
1132 2764 1941
1175 2807 2032
1253 2873 2155
1371 2973 2328
1534 3108 2564
1685 3245 2938
1844 3431 3340
2128 3633 3696
2512 3760 3862
525 91 0
581 82 0
424 209 398
483 365 768
503 353 1356
645 342 1809
865 429 2388
1496 845 3056
2115 1138 3521
515 250 0
599 268 2
354 362 617
302 352 1111
443 326 1626
535 373 2173
805 643 2758
1388 1104 3175
1920 1325 3576
519 535 0
444 605 69
78 837 785
163 788 1283
275 725 1805
431 930 2266
733 1243 2641
1283 1557 3124
1713 1769 3608
414 928 0
175 1145 105
4 1100 799
35 1190 1249
219 1424 1653
400 1710 2106
755 1982 2533
1281 2211 2952
1664 2397 3345
508 1319 17
388 1618 173
203 1638 927
283 1700 1376
400 1914 1743
564 2172 2120
884 2407 2544
1345 2632 2898
1646 2865 3228
549 1924 57
386 1889 728
468 1992 1128
577 2114 1429
653 2241 1869
825 2444 2276
1124 2663 2656
1501 2900 3026
1720 3136 3385
777 2344 733
682 2190 1245
705 2257 1376
821 2416 1628
928 2549 2027
1124 2724 2456
1427 2910 2820
1682 3169 3240
1893 3399 3584
957 2548 1498
946 2544 1701
1001 2605 1841
1116 2723 2020
1293 2874 2284
1488 3005 2678
1695 3205 3075
1888 3452 3498
2198 3641 3745
1239 2811 2015
1292 2874 2147
1376 2937 2272
1504 3037 2445
1665 3185 2678
1801 3343 3002
1958 3506 3395
2255 3676 3727
2608 3784 3879
886 87 0
931 105 3
820 158 255
761 359 673
744 375 1299
913 356 1850
1291 522 2330
2006 1030 3079
2379 1270 3523
765 325 0
905 235 0
953 429 353
515 375 1065
660 345 1581
909 393 1988
1310 742 2507
1921 1188 3215
2343 1367 3589
835 611 0
1011 539 0
1026 752 480
781 804 1257
831 585 1915
1084 810 2345
1351 1143 2804
1782 1434 3306
2236 1657 3645
966 940 10
974 1024 21
829 1057 679
422 1235 1396
595 1285 1850
888 1460 2243
1309 1695 2752
1714 1856 3403
2066 2112 3760
1107 1285 68
940 1623 86
659 1662 938
551 1738 1517
697 1957 1949
914 2202 2292
1277 2407 2630
1675 2618 3046
1974 2791 3461
1324 1707 119
954 2073 118
873 2139 1115
780 2252 1689
891 2393 2015
1144 2549 2363
1442 2742 2712
1716 2987 3148
1926 3220 3500
1252 2394 144
1050 2485 759
863 2359 1629
1034 2530 1925
1214 2682 2182
1404 2820 2534
1647 3024 2926
1842 3283 3348
2073 3502 3662
1494 2875 927
1236 2660 1738
1202 2681 2018
1287 2794 2192
1504 2967 2461
1673 3132 2794
1836 3330 3202
2055 3548 3590
2383 3692 3794
1663 2953 1903
1641 3005 2129
1672 3063 2362
1745 3175 2568
1847 3324 2809
1990 3467 3101
2129 3591 3473
2432 3722 3770
2731 3815 3905
1442 150 0
1544 185 9
1277 163 185
1060 342 593
1119 407 1152
1458 439 1796
1952 777 2358
2467 1261 2982
2655 1430 3335
1224 381 0
1470 176 0
1581 244 143
1119 471 633
988 448 1477
1307 550 1929
1899 959 2496
2436 1368 3011
2648 1515 3354
1129 714 1
1415 622 4
1632 803 415
1538 1025 1020
1316 788 1746
1612 982 2243
2020 1276 2714
2371 1501 3156
2596 1641 3546
1404 1000 45
1584 1085 69
1772 1202 475
1571 1280 1270
1541 1389 1860
1656 1425 2496
2011 1549 3008
2289 1727 3549
2556 1941 3848
1619 1375 112
1724 1560 145
1779 1759 242
1432 1682 1488
1316 1946 2075
1602 2093 2463
1902 2211 2902
2205 2381 3484
2460 2678 3688
1814 1721 157
1801 2047 135
1668 2380 587
1328 2214 1726
1359 2379 2149
1613 2612 2545
1866 2818 2912
2096 3069 3308
2313 3276 3624
1928 2243 134
1994 2482 198
1616 2620 1031
1669 2599 1880
1694 2770 2377
1795 2968 2733
1977 3170 3111
2136 3411 3475
2354 3597 3742
2183 2890 611
1984 2880 1213
1784 2787 1793
1785 2877 2244
2037 3111 2562
2090 3292 2933
2110 3471 3333
2315 3635 3675
2594 3748 3841
2395 3112 1549
2284 3160 1884
2211 3200 2276
2224 3290 2539
2195 3444 2821
2284 3564 3181
2350 3663 3569
2625 3774 3822
2890 3850 3931
1959 331 0
2097 288 0
2139 328 98
1669 431 533
1705 602 1067
2035 747 1683
2501 1074 2278
2785 1414 2820
2895 1527 3204
1870 525 13
2003 370 1
2195 385 86
1728 588 546
1721 780 1173
1980 862 1759
2489 1229 2343
2807 1464 2882
2911 1599 3318
1558 825 30
1882 719 43
2107 758 454
2125 926 861
2022 1106 1394
2172 1228 2012
2515 1427 2461
2779 1554 3009
2912 1681 3457
1783 1088 86
2074 1180 114
2212 1360 670
2202 1495 1374
2204 1688 1816
2391 1626 2221
2664 1693 2677
2804 1695 3307
2899 1875 3744
2068 1440 160
2332 1647 158
2384 1898 464
2323 1928 1480
2298 2021 1925
2512 2136 2322
2668 2115 2906
2764 2153 3589
2908 2420 3822
2160 1868 169
2418 2179 134
2514 2471 437
2477 2363 1420
2345 2345 2108
2431 2623 2563
2564 2790 2952
2633 2979 3342
2752 3189 3664
2396 2305 138
2608 2504 193
2544 2745 951
2468 2698 1768
2407 2772 2288
2467 2978 2712
2492 3239 3173
2496 3476 3580
2645 3647 3804
2627 2851 534
2594 2858 968
2656 2861 1508
2477 2992 1984
2624 3163 2475
2617 3361 2941
2477 3558 3416
2589 3699 3749
2816 3796 3881
2732 3105 1494
2731 3136 1701
2674 3221 2003
2633 3317 2426
2662 3470 2808
2723 3617 3155
2657 3720 3625
2841 3822 3869
3067 3882 3960
2331 461 0
2422 421 0
2495 352 0
2201 665 592
2187 935 1116
2465 1100 1731
2772 1355 2298
2961 1500 2786
3114 1614 3201
2353 731 14
2430 597 0
2544 642 52
2445 842 710
2224 1066 1231
2413 1237 1809
2768 1476 2332
2998 1563 2875
3164 1676 3386
2125 977 84
2398 942 45
2447 1026 602
2507 1138 1102
2339 1265 1468
2513 1487 1993
2751 1625 2374
3013 1651 2965
3221 1747 3516
2230 1228 112
2527 1319 91
2555 1476 767
2599 1526 1467
2651 1643 1812
2683 1773 2149
2857 1851 2557
3051 1817 3112
3240 1940 3629
2443 1589 141
2749 1807 107
2752 1954 821
2698 2031 1635
2754 2139 2024
2834 2311 2392
2951 2258 2741
3141 2326 3253
3281 2461 3623
2622 2018 120
2857 2228 183
2822 2298 1073
2833 2400 1640
2856 2494 2128
2899 2663 2494
3007 2775 2909
3083 2873 3387
3237 3055 3634
2798 2507 215
2828 2643 509
2842 2672 1322
2900 2793 1723
2913 2884 2121
2924 2973 2710
2892 3228 3228
2916 3422 3598
3048 3552 3800
2858 2887 816
2816 2843 1155
2903 2930 1495
2935 3079 1888
2933 3224 2439
2940 3343 2915
2843 3551 3437
2911 3733 3791
3066 3820 3928
2916 3117 1509
2938 3130 1634
2973 3179 1802
3030 3311 2211
2967 3492 2667
3070 3619 3103
2985 3763 3622
3075 3859 3924
3267 3910 4001
2535 637 0
2544 547 0
2580 564 14
2530 870 737
2532 1192 1462
2747 1371 1940
2967 1544 2367
3158 1640 2814
3339 1729 3303
2608 934 4
2694 823 0
2762 961 164
2692 1110 970
2565 1274 1517
2731 1509 2009
2962 1651 2385
3201 1726 2951
3400 1811 3465
2563 1186 63
2813 1163 24
2751 1300 717
2803 1436 1337
2833 1546 1700
2771 1670 2112
2951 1785 2431
3220 1868 3000
3468 1936 3557
2654 1458 87
2957 1545 158
2883 1671 1057
2876 1762 1660
2972 1806 1921
2876 1873 2178
3023 1989 2570
3245 2064 3059
3503 2164 3571
2849 1811 70
3047 1957 331
2954 1985 1239
2968 2053 1754
3043 2085 2104
3101 2210 2366
3126 2374 2755
3321 2536 3157
3522 2628 3521
3047 2229 180
3008 2244 699
3014 2273 1418
3078 2427 1797
3093 2604 2257
3170 2784 2623
3234 2949 2996
3396 2971 3343
3581 3102 3618
3069 2547 772
2999 2460 1176
3073 2569 1572
3159 2772 1892
3182 2964 2321
3226 3097 2772
3255 3266 3125
3348 3377 3599
3550 3439 3792
3050 2869 1329
3020 2843 1499
3084 2937 1693
3181 3151 2006
3208 3338 2438
3232 3445 2825
3249 3557 3374
3270 3721 3837
3453 3794 3933
3115 3206 1582
3110 3217 1683
3149 3262 1845
3260 3417 2182
3316 3538 2646
3337 3653 3099
3328 3767 3594
3410 3866 3915
3567 3925 4013
2854 921 0
2844 957 14
2802 1047 465
2762 1180 1130
2846 1411 1761
2989 1563 2181
3177 1669 2511
3392 1808 3003
3593 1900 3465
2833 1095 0
2835 1097 93
2815 1180 584
2797 1304 1216
2898 1509 1673
2983 1676 2202
3176 1798 2573
3438 1964 3082
3638 2055 3525
3045 1450 69
3084 1468 431
2968 1530 1065
3041 1674 1516
3138 1745 1834
3030 1806 2190
3180 1948 2635
3470 2103 3133
3668 2345 3539
3105 1772 189
3086 1804 922
3100 1848 1368
3128 1908 1732
3272 1986 2003
3294 2079 2272
3248 2174 2707
3484 2316 3178
3688 2623 3515
3199 2074 416
3068 2003 1105
3177 2068 1484
3269 2137 1839
3334 2268 2250
3494 2386 2525
3370 2535 2788
3532 2707 3274
3717 2893 3536
3216 2284 883
3126 2216 1261
3238 2327 1589
3354 2501 1946
3413 2675 2422
3541 2761 2762
3590 2911 3012
3630 3082 3454
3778 3209 3699
3270 2560 1296
3228 2544 1477
3293 2654 1713
3434 2847 2110
3517 3025 2531
3508 3208 2940
3587 3378 3269
3680 3504 3639
3826 3468 3861
3372 2929 1525
3356 2909 1672
3370 2971 1889
3509 3136 2294
3576 3336 2669
3590 3502 3009
3662 3599 3427
3718 3746 3764
3808 3802 3986
3398 3321 1838
3405 3324 1988
3424 3368 2183
3503 3479 2461
3614 3611 2802
3674 3734 3137
3729 3828 3531
3771 3918 3931
3803 3967 4075
