assets/luts/LUTs by IWLTBAP (3DL)/01 - Standard/C-9730-STD.3dl
# Copyright: (C) Copyright 2010-2020 by IWLTBAP SAS
# Cannot be resold, shared or otherwise redistributed
# Website: https://luts.iwltbap.com
0 256 512 768 1023
11 17 0
1 204 400
162 308 1531
280 455 2740
1122 1321 3523
0 498 11
0 732 516
42 1203 1241
362 1734 2290
1107 2234 3283
78 1228 456
44 1295 1020
352 1813 1617
615 2299 2462
1368 2816 3146
587 2085 1169
651 2177 1367
769 2396 2023
1178 2816 2815
1755 3314 3502
1073 2757 1912
1172 2839 2086
1441 3063 2575
1788 3390 3318
2450 3749 3856
525 91 0
424 209 398
503 353 1356
865 429 2388
2115 1138 3521
519 535 0
78 837 785
275 725 1805
733 1243 2641
1713 1769 3608
508 1319 17
203 1638 927
400 1914 1743
884 2407 2544
1646 2865 3228
777 2344 733
705 2257 1376
928 2549 2027
1427 2910 2820
1893 3399 3584
1239 2811 2015
1376 2937 2272
1665 3185 2678
1958 3506 3395
2608 3784 3879
1442 150 0
1277 163 185
1119 407 1152
1952 777 2358
2655 1430 3335
1129 714 1
1632 803 415
1316 788 1746
2020 1276 2714
2596 1641 3546
1619 1375 112
1779 1759 242
1316 1946 2075
1902 2211 2902
2460 2678 3688
1928 2243 134
1616 2620 1031
1694 2770 2377
1977 3170 3111
2354 3597 3742
2395 3112 1549
2211 3200 2276
2195 3444 2821
2350 3663 3569
2890 3850 3931
2331 461 0
2495 352 0
2187 935 1116
2772 1355 2298
3114 1614 3201
2125 977 84
2447 1026 602
2339 1265 1468
2751 1625 2374
3221 1747 3516
2443 1589 141
2752 1954 821
2754 2139 2024
2951 2258 2741
3281 2461 3623
2798 2507 215
2842 2672 1322
2913 2884 2121
2892 3228 3228
3048 3552 3800
2916 3117 1509
2973 3179 1802
2967 3492 2667
2985 3763 3622
3267 3910 4001
2854 921 0
2802 1047 465
2846 1411 1761
3177 1669 2511
3593 1900 3465
3045 1450 69
2968 1530 1065
3138 1745 1834
3180 1948 2635
3668 2345 3539
3199 2074 416
3177 2068 1484
3334 2268 2250
3370 2535 2788
3717 2893 3536
3270 2560 1296
3293 2654 1713
3517 3025 2531
3587 3378 3269
3826 3468 3861
3398 3321 1838
3424 3368 2183
3614 3611 2802
3729 3828 3531
3803 3967 4075
