assets/luts/LUTs by IWLTBAP (3DL)/01 - Standard/C-9730-STD.3dl
# Copyright: (C) Copyright 2010-2020 by IWLTBAP SAS
# Cannot be resold, shared or otherwise redistributed
# Website: https://luts.iwltbap.com
0 64 128 192 256 320 384 448 512 576 640 704 768 832 896 960 1023
11 17 0
17 32 0
21 65 12
21 100 190
1 204 400
0 318 644
39 344 901
118 336 1209
162 308 1531
187 307 1834
213 338 2125
243 382 2419
280 455 2740
439 714 3016
675 979 3229
958 1205 3419
1122 1321 3523
12 103 0
21 137 0
31 215 10
33 320 184
8 467 391
0 632 588
3 758 769
77 804 1028
143 794 1369
171 769 1701
184 801 2001
195 876 2273
214 977 2542
300 1178 2716
511 1372 2917
852 1540 3212
1058 1630 3393
7 201 0
17 231 0
25 302 51
29 418 204
4 551 382
0 696 570
0 838 747
2 958 922
17 1029 1164
54 1039 1485
73 1035 1817
93 1086 2112
124 1189 2373
269 1373 2623
524 1552 2929
879 1686 3298
1086 1758 3501
2 336 0
7 355 3
13 418 127
3 524 259
0 637 417
0 756 611
0 888 790
0 1015 952
3 1115 1156
54 1203 1412
111 1277 1693
172 1350 2005
245 1452 2314
360 1603 2639
608 1740 3010
923 1873 3309
1109 1968 3446
0 498 11
0 517 58
0 563 223
0 643 364
0 732 516
0 832 697
0 948 860
0 1075 1026
42 1203 1241
156 1340 1465
251 1471 1724
309 1602 2001
362 1734 2290
442 1868 2600
645 2008 2913
935 2138 3171
1107 2234 3283
0 655 72
0 676 140
0 719 290
0 763 495
0 833 648
0 916 802
0 1027 957
11 1155 1137
129 1313 1336
250 1481 1537
318 1628 1776
366 1774 2029
407 1919 2295
484 2070 2560
686 2242 2802
969 2387 3017
1137 2471 3130
0 817 168
0 833 235
0 873 378
0 895 607
0 944 768
0 1025 919
4 1136 1086
92 1277 1260
221 1454 1431
311 1632 1616
362 1785 1835
402 1930 2072
453 2067 2327
557 2207 2577
763 2385 2790
1027 2552 2964
1190 2638 3065
4 1016 297
3 1026 363
0 1051 507
0 1069 708
0 1092 895
10 1173 1060
84 1291 1220
205 1446 1368
297 1628 1523
356 1795 1699
398 1933 1912
453 2061 2143
526 2183 2388
658 2326 2623
869 2490 2826
1127 2646 2999
1277 2727 3096
78 1228 456
66 1237 521
41 1261 671
33 1288 828
44 1295 1020
108 1366 1199
212 1491 1338
293 1648 1471
352 1813 1617
409 1954 1791
469 2070 1997
533 2180 2224
615 2299 2462
771 2446 2679
989 2597 2874
1230 2739 3049
1368 2816 3146
165 1478 654
148 1467 698
134 1497 819
149 1540 948
173 1568 1114
237 1607 1310
304 1723 1434
361 1863 1561
431 1991 1711
494 2096 1893
563 2196 2088
636 2296 2308
743 2419 2537
901 2564 2744
1120 2705 2933
1340 2838 3110
1459 2924 3215
243 1731 857
235 1728 893
244 1748 964
274 1791 1069
302 1832 1208
339 1865 1376
399 1942 1518
473 2048 1652
544 2142 1809
609 2222 1990
676 2307 2188
758 2412 2404
871 2549 2617
1043 2687 2814
1254 2815 3001
1451 2949 3188
1553 3044 3303
402 1930 1025
404 1934 1056
418 1953 1107
443 1984 1189
477 2022 1296
516 2068 1422
550 2121 1598
614 2194 1752
674 2264 1913
726 2339 2091
787 2431 2299
878 2552 2513
1014 2685 2710
1194 2808 2897
1384 2931 3083
1559 3076 3282
1654 3172 3400
587 2085 1169
588 2088 1201
602 2106 1240
624 2136 1298
651 2177 1367
684 2228 1469
708 2274 1657
736 2331 1841
769 2396 2023
824 2478 2225
907 2581 2431
1022 2698 2628
1178 2816 2815
1351 2930 2996
1513 3064 3185
1662 3214 3385
1755 3314 3502
690 2251 1304
692 2254 1328
700 2272 1357
714 2306 1393
736 2351 1446
764 2401 1535
803 2448 1703
834 2493 1932
883 2556 2153
964 2641 2359
1074 2744 2547
1200 2847 2734
1347 2949 2921
1500 3070 3105
1638 3206 3297
1769 3355 3501
1854 3452 3617
745 2447 1411
752 2446 1435
762 2459 1466
787 2486 1523
825 2523 1597
873 2568 1701
931 2616 1853
984 2668 2065
1052 2728 2293
1144 2810 2488
1259 2902 2665
1386 2989 2843
1515 3097 3032
1634 3219 3225
1744 3348 3430
1892 3491 3619
2006 3569 3713
883 2593 1651
891 2598 1672
910 2612 1711
942 2639 1770
987 2676 1848
1043 2724 1936
1112 2784 2050
1184 2843 2212
1251 2900 2431
1335 2972 2619
1441 3051 2789
1553 3143 2964
1654 3249 3161
1751 3359 3368
1873 3484 3568
2076 3607 3717
2212 3670 3791
1073 2757 1912
1077 2762 1930
1095 2778 1967
1126 2804 2019
1172 2839 2086
1234 2887 2169
1303 2944 2262
1378 3007 2383
1441 3063 2575
1524 3128 2757
1606 3207 2928
1698 3297 3108
1788 3390 3318
1886 3495 3530
2059 3608 3693
2301 3708 3802
2450 3749 3856
99 43 0
93 35 0
70 56 32
86 99 215
76 202 439
63 303 657
116 341 895
213 343 1173
273 319 1485
306 313 1785
335 342 2084
366 389 2393
403 442 2722
512 570 3012
790 825 3208
1102 1020 3413
1294 1126 3527
78 120 0
35 136 0
32 143 84
20 223 273
1 334 455
1 425 640
55 444 909
137 415 1243
178 379 1561
203 379 1861
229 413 2149
266 483 2440
356 651 2731
525 894 2959
779 1140 3147
1057 1336 3343
1222 1454 3442
34 212 0
15 256 0
31 313 108
24 411 287
1 558 466
0 703 628
4 813 810
54 870 1046
120 858 1382
146 836 1706
155 867 2002
167 949 2264
215 1099 2467
349 1288 2641
623 1472 2900
980 1619 3240
1191 1693 3449
1 350 0
2 371 0
9 440 150
4 533 331
0 643 491
0 764 648
0 895 809
0 1008 977
11 1083 1212
46 1118 1494
69 1122 1820
99 1179 2113
188 1311 2371
391 1505 2643
684 1649 2991
1026 1774 3319
1213 1862 3476
0 515 0
0 531 35
0 581 180
0 655 386
0 739 544
0 839 707
0 953 867
0 1073 1034
28 1183 1253
122 1297 1496
189 1384 1772
251 1479 2069
325 1607 2363
483 1770 2663
746 1898 2985
1047 2033 3234
1217 2127 3348
0 683 2
0 692 117
0 736 234
0 786 466
0 849 641
0 931 789
0 1037 958
16 1168 1141
132 1318 1344
248 1474 1557
312 1607 1806
357 1740 2069
406 1876 2341
528 2028 2606
772 2179 2858
1058 2312 3076
1221 2403 3178
0 851 66
0 858 200
0 893 318
0 934 536
0 968 752
0 1048 904
7 1160 1077
100 1303 1252
229 1474 1427
314 1640 1626
362 1784 1852
402 1923 2094
453 2059 2352
590 2207 2594
826 2372 2802
1101 2527 2973
1258 2612 3074
14 1046 220
14 1060 332
14 1089 440
2 1120 643
0 1137 860
12 1202 1040
92 1321 1204
213 1477 1353
301 1650 1515
359 1809 1702
404 1944 1915
459 2070 2147
539 2194 2393
696 2340 2623
915 2497 2822
1175 2644 2993
1321 2725 3089
95 1243 399
97 1272 487
87 1300 596
64 1339 774
71 1363 958
116 1403 1170
216 1522 1321
296 1675 1453
356 1831 1610
415 1966 1793
477 2081 1997
542 2191 2224
639 2318 2461
811 2460 2673
1034 2606 2866
1273 2740 3042
1406 2823 3142
185 1494 603
165 1485 667
156 1519 768
161 1579 913
186 1627 1063
235 1655 1271
305 1749 1415
366 1879 1551
438 2002 1710
503 2105 1893
571 2204 2088
651 2307 2308
765 2436 2537
937 2577 2739
1158 2713 2925
1375 2845 3105
1490 2934 3214
265 1745 809
243 1733 869
251 1753 932
290 1807 1035
325 1860 1167
362 1904 1326
412 1960 1495
481 2057 1645
555 2149 1807
619 2229 1989
688 2317 2190
776 2429 2405
897 2565 2616
1079 2696 2810
1289 2820 2995
1479 2958 3188
1578 3053 3307
418 1941 982
408 1936 1039
424 1956 1085
456 1989 1158
503 2033 1267
549 2084 1380
578 2136 1555
628 2202 1736
684 2274 1903
738 2350 2088
804 2448 2301
902 2570 2511
1046 2698 2705
1229 2816 2891
1419 2940 3078
1586 3089 3284
1676 3184 3404
601 2096 1142
599 2098 1186
610 2114 1233
631 2145 1288
656 2188 1352
690 2242 1442
720 2296 1595
748 2349 1809
786 2415 2001
847 2497 2211
937 2604 2415
1059 2719 2611
1218 2828 2797
1387 2943 2984
1545 3078 3177
1683 3225 3388
1769 3323 3511
694 2272 1275
695 2268 1312
702 2283 1350
717 2315 1390
740 2361 1442
779 2411 1533
822 2465 1677
860 2516 1899
913 2578 2132
995 2661 2343
1109 2763 2531
1241 2862 2714
1387 2962 2902
1532 3082 3095
1662 3218 3295
1787 3366 3503
1874 3460 3621
762 2453 1426
770 2450 1456
788 2459 1502
819 2484 1565
855 2524 1631
902 2573 1724
960 2631 1860
1024 2692 2037
1092 2751 2269
1181 2830 2474
1296 2915 2653
1426 3002 2827
1546 3109 3022
1658 3230 3223
1763 3358 3434
1913 3499 3624
2028 3577 3716
914 2596 1676
922 2602 1702
943 2618 1742
978 2647 1803
1025 2685 1882
1078 2736 1968
1144 2796 2069
1221 2860 2203
1291 2921 2403
1376 2987 2606
1476 3063 2785
1585 3155 2963
1680 3262 3163
1775 3372 3371
1892 3492 3574
2105 3612 3717
2243 3676 3789
1097 2757 1923
1110 2772 1956
1130 2788 1991
1165 2815 2043
1210 2852 2112
1267 2899 2195
1332 2955 2285
1407 3018 2394
1485 3083 2550
1560 3144 2750
1640 3221 2928
1725 3310 3115
1812 3407 3323
1910 3507 3531
2085 3616 3692
2330 3711 3802
2475 3753 3857
225 64 0
258 40 0
235 61 15
197 102 217
220 199 412
195 300 631
194 346 851
253 350 1095
321 333 1392
372 317 1691
422 337 1979
473 382 2289
522 439 2636
657 561 2963
986 794 3178
1344 994 3372
1589 1100 3496
217 127 0
225 140 0
201 150 81
68 159 345
57 247 528
80 325 730
150 347 976
236 340 1261
286 318 1551
317 320 1844
345 352 2136
376 400 2442
430 477 2761
632 701 3012
944 954 3203
1268 1140 3401
1471 1242 3509
221 215 0
113 290 1
52 324 197
6 373 410
0 487 568
6 541 720
72 534 953
156 481 1311
194 434 1640
217 439 1933
245 494 2210
308 621 2479
435 831 2713
625 1060 2900
900 1277 3088
1202 1471 3286
1378 1565 3422
112 357 0
27 403 0
4 495 194
1 570 442
0 683 590
0 789 719
6 886 879
43 935 1116
89 933 1430
111 914 1749
127 947 2038
166 1052 2266
282 1228 2434
481 1423 2645
805 1574 2964
1158 1698 3305
1357 1774 3485
2 559 0
0 565 20
0 619 163
0 684 460
0 765 640
0 863 765
0 974 906
0 1069 1075
22 1151 1312
80 1219 1576
115 1249 1878
177 1326 2167
327 1496 2416
566 1677 2694
874 1796 3017
1186 1925 3284
1361 2018 3408
0 737 0
0 733 74
0 764 200
0 814 454
0 866 696
0 943 834
0 1050 988
19 1168 1169
121 1300 1384
228 1440 1614
286 1551 1875
331 1649 2161
424 1802 2424
630 1967 2672
910 2089 2928
1192 2222 3141
1348 2315 3242
3 927 1
0 937 101
0 938 289
0 982 499
0 1011 750
0 1080 919
14 1183 1099
118 1323 1275
239 1488 1454
318 1648 1664
363 1784 1896
403 1911 2148
478 2047 2404
673 2201 2628
938 2345 2827
1209 2488 3004
1357 2569 3111
63 1121 45
63 1151 200
46 1157 403
19 1181 604
10 1215 826
26 1253 1033
113 1364 1209
229 1508 1367
310 1673 1535
365 1831 1727
412 1961 1943
467 2082 2179
573 2210 2425
760 2355 2642
1007 2498 2830
1263 2637 2998
1400 2725 3096
133 1295 278
144 1339 404
131 1364 560
108 1404 730
111 1448 915
142 1478 1135
229 1575 1315
304 1711 1458
365 1856 1623
429 1991 1808
490 2102 2013
561 2214 2239
680 2345 2473
872 2483 2678
1105 2619 2865
1337 2751 3043
1460 2842 3148
217 1520 501
194 1520 620
187 1573 735
188 1635 872
219 1698 1023
256 1741 1216
313 1799 1401
377 1908 1554
451 2024 1721
521 2128 1903
589 2224 2102
679 2332 2322
804 2467 2545
999 2598 2740
1223 2725 2921
1431 2860 3107
1535 2953 3226
319 1788 675
269 1755 835
269 1775 912
311 1836 1009
357 1901 1139
398 1956 1288
442 2003 1466
498 2079 1646
573 2167 1815
638 2247 2000
710 2338 2205
805 2458 2419
940 2592 2624
1134 2713 2813
1343 2833 2995
1523 2979 3194
1615 3073 3319
471 1971 879
428 1953 1012
437 1967 1073
476 2000 1137
534 2052 1244
584 2108 1357
624 2166 1506
655 2223 1720
704 2294 1902
758 2371 2101
831 2476 2318
939 2598 2521
1095 2719 2708
1281 2832 2892
1466 2958 3083
1619 3108 3297
1705 3204 3420
628 2124 1063
618 2116 1147
622 2127 1221
640 2158 1279
666 2203 1339
702 2265 1424
741 2326 1554
770 2379 1770
813 2444 1996
879 2527 2215
978 2634 2418
1111 2745 2610
1272 2847 2792
1436 2963 2983
1586 3100 3182
1714 3246 3401
1795 3338 3529
705 2309 1240
706 2296 1299
714 2305 1354
731 2334 1405
758 2377 1460
798 2430 1545
848 2490 1684
900 2551 1884
956 2611 2121
1041 2693 2335
1158 2791 2524
1297 2885 2703
1441 2984 2891
1575 3105 3094
1694 3238 3303
1815 3384 3515
1907 3476 3631
802 2463 1470
809 2462 1501
828 2470 1550
855 2495 1615
888 2538 1681
937 2591 1768
1000 2655 1890
1076 2722 2041
1145 2784 2251
1231 2859 2465
1347 2936 2646
1476 3023 2822
1589 3130 3020
1692 3249 3229
1790 3379 3445
1943 3517 3634
2064 3591 3721
954 2604 1711
966 2618 1748
985 2634 1790
1021 2665 1853
1067 2707 1931
1120 2757 2014
1187 2816 2109
1266 2883 2225
1343 2949 2390
1426 3010 2601
1525 3084 2785
1625 3177 2971
1717 3284 3172
1807 3395 3383
1925 3511 3584
2144 3624 3724
2287 3686 3793
1132 2764 1941
1154 2789 1993
1175 2807 2032
1209 2834 2086
1253 2873 2155
1308 2919 2239
1371 2973 2328
1447 3036 2432
1534 3108 2564
1609 3171 2750
1685 3245 2938
1757 3333 3136
1844 3431 3340
1948 3529 3539
2128 3633 3696
2371 3719 3807
2512 3760 3862
359 82 0
395 49 0
411 68 2
320 119 225
318 203 405
325 290 588
309 353 831
331 357 1087
376 345 1333
447 326 1602
529 336 1877
612 375 2164
686 431 2503
851 561 2838
1250 817 3108
1662 1007 3364
1878 1104 3510
348 149 0
395 123 0
420 165 7
302 167 290
205 247 517
204 323 705
243 350 953
305 348 1209
368 329 1481
417 323 1767
462 350 2055
511 398 2367
610 495 2702
853 712 2969
1172 937 3170
1546 1108 3390
