assets/luts/LUTs by IWLTBAP (3DL)/01 - Standard/F-6800-STD.3dl
# Copyright: (C) Copyright 2010-2020 by IWLTBAP SAS
# Cannot be resold, shared or otherwise redistributed
# Website: https://luts.iwltbap.com
0 64 128 192 256 320 384 448 512 576 640 704 768 832 896 960 1023
0 0 0
16 97 142
23 192 280
23 291 417
13 391 558
3 492 702
0 592 849
0 691 994
0 790 1140
0 891 1286
0 994 1435
0 1101 1589
0 1212 1749
0 1327 1914
0 1445 2082
0 1565 2253
0 1685 2425
19 148 189
23 222 302
26 308 422
23 398 548
13 490 680
6 583 813
0 674 947
0 766 1081
0 860 1218
0 956 1357
0 1056 1500
0 1160 1650
0 1269 1805
0 1380 1965
0 1495 2128
0 1611 2294
0 1728 2460
26 289 381
19 347 472
19 419 577
16 501 693
10 586 813
6 672 935
3 758 1058
0 843 1181
0 932 1308
0 1023 1439
0 1120 1576
0 1220 1719
0 1326 1868
0 1434 2022
0 1545 2180
0 1657 2338
0 1770 2498
19 430 577
13 471 652
10 530 743
6 605 849
3 685 961
3 765 1074
0 845 1187
0 926 1302
0 1009 1418
0 1096 1540
0 1187 1668
0 1283 1803
0 1384 1944
0 1488 2090
0 1594 2239
0 1702 2391
0 1812 2542
13 569 778
6 596 838
3 645 917
3 712 1015
0 788 1120
0 865 1227
0 942 1333
0 1018 1439
0 1095 1547
0 1176 1660
0 1261 1778
0 1351 1903
0 1445 2034
0 1543 2170
0 1644 2309
0 1747 2451
0 1851 2594
6 709 981
3 724 1029
0 762 1096
0 823 1186
0 896 1287
0 971 1390
0 1045 1491
0 1118 1591
0 1190 1692
0 1266 1795
0 1344 1903
0 1426 2017
0 1513 2137
0 1603 2262
0 1698 2390
0 1794 2522
0 1893 2655
3 848 1181
0 855 1220
0 882 1277
0 934 1358
0 1004 1455
0 1078 1556
0 1152 1655
0 1224 1751
0 1294 1847
0 1364 1943
0 1436 2042
0 1512 2144
0 1590 2252
0 1673 2365
0 1759 2482
0 1849 2603
0 1941 2725
3 988 1379
0 986 1409
0 1003 1456
0 1046 1527
0 1111 1619
0 1185 1719
0 1260 1818
0 1332 1914
0 1401 2007
0 1469 2098
0 1537 2189
0 1606 2283
0 1678 2380
0 1753 2481
0 1832 2587
0 1915 2695
0 2000 2807
3 1126 1570
0 1119 1594
0 1125 1632
0 1157 1692
0 1215 1777
0 1288 1875
0 1364 1976
0 1438 2073
0 1509 2166
0 1576 2255
0 1642 2342
0 1708 2429
0 1775 2517
0 1845 2608
0 1918 2704
0 1994 2802
3 2072 2903
0 1262 1756
0 1250 1775
0 1249 1804
0 1270 1854
0 1318 1929
0 1386 2024
0 1464 2126
0 1541 2225
0 1615 2320
0 1685 2410
0 1752 2495
0 1818 2578
0 1883 2660
3 1949 2745
6 2018 2832
6 2089 2921
13 2161 3013
0 1396 1937
0 1381 1952
0 1373 1975
0 1383 2014
0 1420 2078
0 1482 2166
0 1558 2266
0 1639 2368
0 1718 2465
0 1793 2557
3 1864 2643
6 1933 2725
10 1999 2805
19 2064 2885
26 2131 2967
35 2198 3050
48 2268 3135
0 1528 2115
0 1511 2127
0 1499 2145
0 1500 2174
0 1524 2225
0 1576 2302
0 1650 2397
0 1733 2499
0 1817 2599
3 1899 2693
13 1977 2781
26 2050 2864
45 2120 2944
68 2188 3023
90 2256 3103
116 2324 3183
142 2393 3264
0 1658 2290
0 1640 2301
0 1625 2315
0 1620 2337
0 1634 2374
0 1674 2437
0 1741 2522
0 1825 2620
6 1914 2719
19 2003 2815
45 2087 2905
84 2169 2990
129 2245 3072
177 2319 3153
222 2392 3233
266 2464 3314
312 2537 3395
0 1788 2464
0 1770 2474
0 1755 2485
0 1747 2501
0 1752 2528
0 1780 2574
0 1837 2644
6 1916 2732
23 2009 2827
58 2104 2922
116 2197 3013
192 2287 3100
271 2372 3185
349 2455 3269
423 2536 3353
497 2618 3437
571 2700 3521
0 1917 2638
0 1902 2647
0 1889 2657
0 1881 2670
0 1881 2688
0 1899 2718
3 1943 2769
16 2013 2840
55 2104 2925
129 2204 3016
233 2305 3105
351 2404 3194
470 2500 3282
583 2595 3370
691 2689 3459
798 2783 3549
907 2878 3640
0 2049 2810
0 2037 2820
0 2027 2830
0 2021 2841
0 2021 2853
3 2033 2871
10 2063 2902
42 2120 2950
116 2204 3019
235 2305 3100
388 2412 3187
549 2521 3275
706 2629 3367
856 2738 3460
1003 2846 3556
1147 2956 3653
1292 3066 3751
0 2182 2983
0 2175 2993
0 2169 3003
3 2167 3013
3 2169 3023
6 2178 3031
23 2196 3042
77 2236 3065
195 2307 3111
365 2406 3180
565 2520 3262
767 2638 3351
963 2759 3445
1153 2882 3544
1337 3007 3647
1518 3132 3752
1696 3257 3858
252 32 32
225 87 180
203 152 316
183 228 439
165 322 564
145 431 700
123 550 845
97 668 996
77 786 1148
58 902 1302
42 1018 1457
32 1133 1616
23 1250 1780
16 1368 1947
10 1487 2116
6 1607 2287
3 1727 2459
255 180 174
225 228 299
201 287 420
180 363 540
161 454 663
142 553 795
123 657 933
103 764 1075
87 870 1220
71 977 1367
55 1085 1517
42 1195 1672
32 1307 1831
26 1420 1994
19 1535 2159
13 1651 2324
10 1768 2491
245 332 336
217 369 439
192 420 545
174 490 658
155 574 779
139 666 905
123 760 1034
110 855 1167
94 952 1303
81 1050 1442
68 1152 1586
55 1257 1736
45 1364 1889
35 1473 2046
26 1584 2204
23 1696 2364
16 1809 2525
222 486 522
195 507 605
171 546 697
155 608 802
142 687 915
129 771 1034
119 858 1155
110 944 1278
97 1034 1404
84 1125 1535
74 1221 1670
65 1320 1812
52 1422 1957
45 1526 2106
35 1633 2258
29 1741 2410
26 1850 2563
189 634 728
161 640 793
139 667 870
126 721 963
119 794 1069
113 874 1181
110 955 1294
100 1037 1409
94 1120 1526
84 1205 1646
74 1294 1773
65 1386 1904
58 1482 2039
48 1581 2179
42 1682 2321
39 1786 2465
35 1890 2609
152 772 947
126 769 994
106 788 1055
97 835 1137
94 902 1236
90 979 1341
90 1058 1449
87 1135 1557
84 1213 1665
77 1293 1777
68 1375 1892
61 1460 2011
55 1548 2136
48 1640 2264
45 1735 2396
42 1832 2529
42 1931 2664
116 904 1164
94 897 1198
77 909 1246
68 949 1317
65 1013 1408
68 1088 1510
71 1164 1613
71 1240 1716
71 1314 1818
65 1389 1921
61 1464 2026
55 1541 2134
52 1622 2246
45 1707 2363
42 1795 2483
42 1885 2606
42 1978 2730
84 1036 1373
68 1026 1397
52 1033 1435
45 1065 1495
42 1123 1580
48 1196 1678
52 1272 1779
55 1348 1880
55 1420 1977
55 1491 2074
52 1562 2171
48 1633 2269
45 1707 2371
42 1784 2476
42 1865 2584
42 1948 2696
45 2034 2810
65 1169 1571
48 1157 1590
35 1157 1619
29 1181 1670
26 1232 1747
29 1302 1842
35 1379 1943
42 1455 2042
45 1528 2139
45 1598 2232
45 1667 2323
45 1735 2414
45 1803 2506
45 1874 2601
45 1948 2699
48 2026 2801
55 2105 2903
52 1303 1761
39 1288 1776
26 1283 1799
19 1297 1841
16 1339 1908
16 1404 1998
23 1481 2099
29 1560 2200
35 1635 2297
42 1708 2389
45 1777 2477
48 1843 2564
52 1910 2650
58 1977 2737
61 2047 2827
68 2118 2919
77 2191 3012
42 1435 1944
29 1418 1956
19 1408 1975
13 1414 2008
10 1445 2064
10 1503 2147
13 1579 2246
23 1660 2348
29 1740 2446
42 1817 2540
52 1889 2628
65 1958 2713
77 2026 2795
90 2092 2878
100 2159 2962
113 2227 3047
129 2296 3133
35 1566 2124
26 1548 2134
16 1534 2148
10 1532 2173
6 1553 2219
6 1601 2290
10 1674 2383
19 1756 2484
32 1842 2584
52 1924 2679
77 2003 2769
106 2077 2853
132 2148 2936
158 2216 3017
183 2284 3098
209 2352 3180
233 2420 3263
32 1696 2301
23 1677 2309
13 1662 2321
10 1655 2339
6 1666 2373
6 1703 2431
10 1768 2513
23 1850 2609
45 1940 2708
81 2029 2804
126 2115 2895
180 2196 2981
233 2274 3065
282 2348 3147
326 2420 3229
367 2492 3312
411 2564 3394
32 1826 2475
23 1808 2484
16 1793 2494
10 1784 2507
6 1787 2531
10 1813 2573
16 1866 2639
35 1944 2724
74 2036 2818
136 2131 2913
214 2225 3005
299 2315 3093
384 2401 3179
461 2484 3264
531 2565 3350
600 2646 3435
668 2727 3521
32 1958 2650
26 1942 2658
23 1929 2667
16 1920 2678
16 1919 2694
19 1935 2721
29 1976 2768
61 2044 2836
126 2132 2919
222 2231 3008
339 2332 3098
464 2432 3188
581 2529 3277
692 2623 3367
795 2716 3457
897 2810 3548
1001 2905 3640
39 2092 2824
35 2080 2833
32 2070 2842
32 2063 2851
32 2063 2862
42 2073 2878
61 2101 2904
113 2154 2949
206 2234 3014
341 2332 3094
499 2439 3180
659 2548 3270
814 2656 3363
961 2764 3457
1102 2872 3554
1241 2982 3652
1380 3091 3751
52 2228 2998
48 2220 3008
48 2214 3017
52 2212 3026
58 2214 3034
74 2221 3041
110 2238 3049
180 2274 3067
304 2339 3109
478 2434 3175
674 2546 3257
873 2664 3346
1064 2785 3442
1250 2907 3541
1431 3031 3645
1607 3156 3751
1779 3280 3858
508 52 42
449 84 220
399 123 372
362 171 489
330 245 595
299 343 712
269 467 848
233 603 997
192 744 1154
158 882 1314
126 1017 1476
100 1148 1642
77 1276 1809
58 1402 1979
42 1525 2151
32 1647 2322
23 1769 2494
500 203 148
445 233 295
396 273 430
356 328 548
322 403 662
293 499 786
264 610 921
233 730 1067
201 852 1218
171 976 1373
142 1098 1531
119 1218 1692
97 1338 1856
77 1456 2022
61 1574 2189
48 1691 2355
39 1808 2522
482 365 278
434 386 403
389 422 521
351 477 637
318 552 755
289 642 879
262 742 1011
238 846 1150
212 955 1294
186 1064 1442
161 1175 1594
139 1286 1750
116 1398 1908
97 1510 2068
81 1622 2229
68 1735 2391
55 1848 2552
448 535 446
408 542 551
369 565 655
334 614 762
304 685 877
280 768 997
257 859 1122
238 953 1252
217 1049 1388
195 1148 1527
174 1249 1671
155 1353 1818
132 1458 1969
116 1564 2122
100 1671 2276
87 1780 2431
77 1889 2586
396 701 651
358 691 734
322 698 820
293 737 915
271 802 1022
257 881 1136
243 966 1254
228 1052 1377
212 1141 1502
198 1231 1632
180 1325 1765
161 1420 1903
142 1519 2044
126 1619 2188
113 1721 2333
103 1825 2479
97 1929 2626
334 849 882
295 827 943
260 824 1009
238 854 1088
225 913 1184
220 988 1292
214 1070 1405
209 1152 1519
198 1235 1636
186 1319 1755
171 1405 1878
158 1493 2004
145 1584 2134
132 1677 2266
119 1773 2401
113 1872 2538
110 1971 2676
269 979 1121
233 954 1162
201 947 1209
180 970 1273
174 1024 1358
177 1096 1459
180 1176 1567
180 1256 1676
177 1335 1785
171 1413 1895
158 1493 2007
148 1573 2121
136 1656 2239
129 1742 2360
119 1832 2484
116 1924 2610
116 2017 2738
212 1099 1352
177 1077 1377
148 1070 1410
129 1088 1461
126 1137 1537
132 1206 1632
142 1284 1736
152 1363 1840
152 1439 1944
148 1514 2047
145 1588 2150
136 1663 2254
129 1739 2360
123 1818 2470
119 1900 2582
119 1985 2697
123 2072 2814
165 1221 1565
136 1202 1581
110 1194 1605
94 1208 1646
87 1249 1714
94 1315 1803
106 1392 1904
119 1471 2007
129 1547 2107
132 1620 2205
132 1692 2301
129 1762 2397
129 1833 2494
126 1906 2593
126 1981 2695
129 2060 2800
136 2140 2906
132 1347 1764
106 1330 1775
84 1319 1793
68 1327 1826
61 1361 1885
65 1421 1968
77 1497 2067
94 1577 2169
106 1655 2268
119 1730 2364
129 1802 2457
136 1871 2548
139 1939 2638
145 2008 2728
148 2078 2821
155 2150 2917
165 2225 3013
110 1476 1951
87 1458 1961
68 1445 1975
48 1446 2001
42 1472 2050
42 1524 2126
55 1598 2221
74 1680 2323
94 1762 2423
119 1840 2518
139 1915 2609
158 1986 2698
174 2054 2784
186 2122 2870
198 2189 2957
212 2258 3045
225 2328 3134
97 1606 2133
74 1587 2141
55 1571 2152
39 1567 2173
32 1583 2212
32 1627 2277
42 1697 2366
65 1779 2465
94 1865 2565
132 1949 2662
171 2029 2753
209 2105 2841
243 2177 2926
269 2246 3010
291 2314 3094
314 2383 3178
337 2451 3263
90 1735 2311
68 1717 2319
52 1701 2329
35 1692 2344
29 1700 2372
26 1733 2424
39 1794 2502
65 1875 2595
110 1965 2694
168 2055 2790
233 2142 2883
295 2225 2971
351 2303 3057
398 2378 3142
439 2450 3226
477 2522 3310
514 2594 3394
87 1866 2488
71 1849 2495
55 1833 2504
42 1823 2515
35 1825 2535
35 1847 2572
48 1897 2633
84 1972 2715
148 2063 2808
233 2158 2902
326 2253 2995
420 2344 3085
505 2431 3173
578 2514 3260
645 2595 3347
708 2676 3434
771 2757 3521
94 2000 2664
77 1985 2671
68 1971 2679
58 1962 2689
55 1960 2702
58 1973 2725
81 2010 2767
129 2075 2831
214 2161 2911
328 2260 3000
457 2361 3090
583 2461 3181
699 2558 3272
806 2652 3363
904 2746 3455
1001 2839 3547
1098 2933 3640
106 2137 2840
97 2126 2848
90 2115 2856
90 2108 2864
94 2107 2873
106 2115 2886
139 2140 2909
203 2189 2949
310 2265 3010
452 2361 3087
613 2467 3174
773 2576 3265
924 2684 3359
1067 2792 3454
1204 2900 3552
1339 3009 3652
1472 3118 3751
129 2277 3017
126 2270 3026
126 2263 3034
132 2260 3042
145 2261 3048
171 2267 3053
220 2282 3058
297 2314 3072
425 2373 3108
595 2463 3170
786 2573 3251
979 2690 3342
1167 2811 3438
1348 2932 3539
1524 3056 3643
1696 3180 3751
1863 3303 3858
764 58 35
687 87 252
619 113 442
560 139 574
512 177 666
474 245 757
439 347 868
403 482 1004
358 639 1157
310 802 1321
264 966 1490
220 1123 1662
183 1271 1835
148 1412 2009
119 1547 2183
97 1678 2357
77 1806 2529
756 214 106
682 238 287
614 264 449
554 297 581
504 347 691
464 422 797
430 522 919
394 646 1059
356 784 1212
316 929 1374
276 1073 1539
238 1212 1707
203 1347 1877
171 1477 2047
145 1602 2217
119 1726 2386
