assets/luts/LUTs by IWLTBAP (3DL)/01 - Standard/F-6800-STD.3dl
# Copyright: (C) Copyright 2010-2020 by IWLTBAP SAS
# Cannot be resold, shared or otherwise redistributed
# Website: https://luts.iwltbap.com
0 256 512 768 1023
0 0 0
13 391 558
0 790 1140
0 1212 1749
0 1685 2425
13 569 778
0 788 1120
0 1095 1547
0 1445 2034
0 1851 2594
3 1126 1570
0 1215 1777
0 1509 2166
0 1775 2517
3 2072 2903
0 1658 2290
0 1634 2374
6 1914 2719
129 2245 3072
312 2537 3395
0 2182 2983
3 2169 3023
195 2307 3111
963 2759 3445
1696 3257 3858
1019 55 19
719 145 781
554 478 1169
345 1211 1853
183 1824 2563
909 743 408
739 831 953
549 1137 1451
414 1575 2049
310 2014 2671
530 1402 1448
394 1307 1631
448 1587 2024
433 1905 2463
401 2232 2921
291 1827 2335
192 1780 2375
360 2015 2647
650 2372 3034
775 2672 3398
360 2387 3064
401 2367 3086
696 2456 3118
1378 2864 3430
2045 3357 3861
2022 42 10
1779 217 1338
1400 107 1650
1298 349 1931
1124 1355 2634
2067 647 35
1855 864 810
1549 894 1546
1320 1171 2005
1125 1971 2761
1712 1538 616
1779 1681 1304
1701 1813 1924
1463 2071 2453
1253 2484 3010
1151 2323 2004
1084 2149 2306
1274 2213 2509
1565 2591 2979
1640 2942 3433
845 2616 3161
937 2620 3198
1314 2713 3226
1883 3012 3436
2595 3536 3894
2970 139 19
2841 351 1577
2410 250 2555
2140 177 2571
2051 326 2744
3065 883 19
2850 991 817
2718 1125 1972
2378 1054 2536
2243 1106 2793
3023 1187 81
3038 1724 959
2974 1991 1779
2764 2050 2667
2557 2174 3131
2464 2367 884
2607 2585 1590
2826 2785 2289
2953 2996 2993
2904 3237 3572
1794 3205 2720
1797 3075 3114
2247 3197 3320
2782 3408 3564
3378 3815 3981
3854 1100 803
3833 1234 2049
3585 1363 3645
3175 974 3506
3106 1136 3602
3929 1913 917
3909 1966 1679
3877 2146 2875
3703 2161 3489
3430 2022 3781
3995 2288 1151
4001 2642 1789
3987 2790 2480
3926 2893 3145
3762 2897 3989
3955 2369 1111
3969 2804 1836
3982 3206 2530
3962 3452 3134
3968 3574 4065
3434 3712 1967
3487 3804 2450
3667 3882 2977
3777 3960 3504
4057 4093 4095
