assets/luts/LUTs by IWLTBAP (3DL)/01 - Standard/F-6800-STD.3dl
# Copyright: (C) Copyright 2010-2020 by IWLTBAP SAS
# Cannot be resold, shared or otherwise redistributed
# Website: https://luts.iwltbap.com
0 128 256 384 512 640 768 896 1023
0 0 0
23 192 280
13 391 558
0 592 849
0 790 1140
0 994 1435
0 1212 1749
0 1445 2082
0 1685 2425
26 289 381
19 419 577
10 586 813
3 758 1058
0 932 1308
0 1120 1576
0 1326 1868
0 1545 2180
0 1770 2498
13 569 778
3 645 917
0 788 1120
0 942 1333
0 1095 1547
0 1261 1778
0 1445 2034
0 1644 2309
0 1851 2594
3 848 1181
0 882 1277
0 1004 1455
0 1152 1655
0 1294 1847
0 1436 2042
0 1590 2252
0 1759 2482
0 1941 2725
3 1126 1570
0 1125 1632
0 1215 1777
0 1364 1976
0 1509 2166
0 1642 2342
0 1775 2517
0 1918 2704
3 2072 2903
0 1396 1937
0 1373 1975
0 1420 2078
0 1558 2266
0 1718 2465
3 1864 2643
10 1999 2805
26 2131 2967
48 2268 3135
0 1658 2290
0 1625 2315
0 1634 2374
0 1741 2522
6 1914 2719
45 2087 2905
129 2245 3072
222 2392 3233
312 2537 3395
0 1917 2638
0 1889 2657
0 1881 2688
3 1943 2769
55 2104 2925
233 2305 3105
470 2500 3282
691 2689 3459
907 2878 3640
0 2182 2983
0 2169 3003
3 2169 3023
23 2196 3042
195 2307 3111
565 2520 3262
963 2759 3445
1337 3007 3647
1696 3257 3858
508 52 42
399 123 372
330 245 595
269 467 848
192 744 1154
126 1017 1476
77 1276 1809
42 1525 2151
23 1769 2494
482 365 278
389 422 521
318 552 755
262 742 1011
212 955 1294
161 1175 1594
116 1398 1908
81 1622 2229
55 1848 2552
396 701 651
322 698 820
271 802 1022
243 966 1254
212 1141 1502
180 1325 1765
142 1519 2044
113 1721 2333
97 1929 2626
269 979 1121
201 947 1209
174 1024 1358
180 1176 1567
177 1335 1785
158 1493 2007
136 1656 2239
119 1832 2484
116 2017 2738
165 1221 1565
110 1194 1605
87 1249 1714
106 1392 1904
129 1547 2107
132 1692 2301
129 1833 2494
126 1981 2695
136 2140 2906
110 1476 1951
68 1445 1975
42 1472 2050
55 1598 2221
94 1762 2423
139 1915 2609
174 2054 2784
198 2189 2957
225 2328 3134
90 1735 2311
52 1701 2329
29 1700 2372
39 1794 2502
110 1965 2694
233 2142 2883
351 2303 3057
439 2450 3226
514 2594 3394
94 2000 2664
68 1971 2679
55 1960 2702
81 2010 2767
214 2161 2911
457 2361 3090
699 2558 3272
904 2746 3455
1098 2933 3640
129 2277 3017
126 2263 3034
145 2261 3048
220 2282 3058
425 2373 3108
786 2573 3251
1167 2811 3438
1524 3056 3643
1863 3303 3858
1019 55 19
860 116 509
719 145 781
624 230 927
554 478 1169
455 842 1496
345 1211 1853
252 1534 2211
183 1824 2563
1005 374 132
864 428 482
723 484 767
615 606 992
540 831 1264
461 1120 1590
374 1409 1934
297 1673 2274
243 1924 2610
909 743 408
848 777 699
739 831 953
630 957 1196
549 1137 1451
481 1352 1740
414 1575 2049
354 1795 2360
310 2014 2671
730 1153 875
664 1083 1079
596 1088 1256
557 1212 1474
525 1377 1713
481 1549 1960
433 1729 2221
391 1916 2491
365 2111 2766
530 1402 1448
448 1318 1540
394 1307 1631
412 1419 1803
448 1587 2024
452 1749 2243
433 1905 2463
411 2064 2688
401 2232 2921
369 1593 1943
299 1542 1969
252 1536 2015
282 1634 2149
372 1803 2352
448 1971 2556
479 2123 2752
488 2267 2945
494 2412 3141
291 1827 2335
235 1791 2349
192 1780 2375
222 1850 2469
360 2015 2647
527 2201 2844
650 2372 3034
720 2524 3217
775 2672 3398
293 2095 2700
257 2068 2713
243 2054 2727
289 2089 2769
465 2222 2890
725 2420 3068
965 2622 3259
1155 2814 3451
1330 3002 3644
360 2387 3064
360 2372 3078
401 2367 3086
501 2385 3089
696 2456 3118
1017 2631 3242
1378 2864 3430
1724 3109 3640
2045 3357 3861
1524 45 10
1374 123 595
1221 165 1073
1044 126 1200
956 183 1308
911 428 1533
818 850 1865
678 1315 2241
549 1736 2618
1547 381 32
1371 434 428
1211 461 842
1064 482 1111
958 572 1301
893 819 1571
800 1189 1925
684 1572 2298
584 1921 2664
1494 658 165
1442 797 538
1322 854 891
1160 900 1196
1013 1005 1436
907 1215 1703
807 1503 2032
712 1800 2381
637 2080 2725
1317 1131 509
1323 1189 845
1275 1223 1142
1172 1289 1420
1050 1410 1681
940 1571 1927
840 1772 2202
762 1992 2504
708 2219 2816
1071 1623 1065
1045 1544 1318
1003 1486 1511
975 1527 1705
963 1671 1952
929 1834 2193
872 1997 2432
816 2172 2688
779 2359 2956
821 1847 1742
750 1744 1873
705 1681 1954
724 1714 2057
815 1864 2256
894 2049 2489
914 2217 2712
899 2376 2934
883 2537 3161
615 1990 2317
558 1932 2356
536 1901 2379
580 1932 2430
730 2070 2574
917 2267 2783
1042 2456 2996
1101 2623 3203
1142 2785 3408
548 2214 2738
525 2187 2754
538 2174 2765
613 2196 2785
788 2298 2866
1043 2484 3031
1285 2695 3235
1473 2898 3443
1640 3096 3651
606 2503 3117
616 2490 3130
677 2490 3139
808 2513 3143
998 2569 3156
1265 2701 3242
1606 2923 3423
1956 3176 3642
2275 3428 3869
2022 42 10
1889 116 613
1779 217 1338
1565 155 1604
1400 107 1650
1318 145 1741
1298 349 1931
1249 783 2247
1124 1355 2634
2068 417 6
1882 446 386
1725 486 917
1605 509 1354
1444 485 1553
1341 526 1694
1300 742 1930
1232 1156 2281
1114 1668 2685
2067 647 35
1993 808 399
1855 864 810
1716 881 1230
1549 894 1546
1406 954 1748
1320 1171 2005
1229 1542 2363
1125 1971 2761
1962 937 201
1973 1143 596
1947 1287 984
1852 1342 1348
1695 1384 1694
1529 1466 1953
1389 1646 2201
1265 1927 2513
1168 2248 2867
1712 1538 616
1755 1619 969
1779 1681 1304
1769 1733 1611
1701 1813 1924
1590 1925 2210
1463 2071 2453
1341 2261 2715
1253 2484 3010
1416 2105 1233
1424 2044 1528
1431 1986 1768
1458 1969 1962
1504 2050 2193
1534 2208 2469
1510 2369 2717
1447 2528 2952
1392 2700 3202
1151 2323 2004
1095 2219 2188
1084 2149 2306
1144 2136 2385
1274 2213 2509
1443 2391 2734
1565 2591 2979
1612 2769 3207
1640 2942 3433
931 2431 2686
890 2370 2751
915 2345 2788
1023 2359 2810
1201 2427 2861
1439 2582 3003
1689 2799 3220
1891 3019 3447
2062 3228 3670
845 2616 3161
859 2608 3181
937 2620 3198
1099 2655 3211
1314 2713 3226
1559 2814 3280
1883 3012 3436
2258 3275 3662
2595 3536 3894
2505 58 10
2390 113 588
2325 266 1500
2119 240 2021
1906 129 2080
1770 107 2113
1680 132 2189
1682 306 2343
1736 696 2625
2557 468 6
2393 472 363
2245 519 975
2168 597 1600
2023 572 1924
1842 512 2045
1734 517 2146
1723 688 2334
1749 1080 2658
2590 725 10
2504 859 326
2348 892 769
2240 923 1278
2137 961 1744
1951 929 2006
1814 930 2152
1774 1111 2375
1764 1506 2735
2557 891 42
2551 1139 423
2506 1316 849
2411 1373 1258
2298 1397 1697
2132 1410 2073
1971 1436 2294
1874 1621 2533
1802 1981 2880
2411 1230 243
2437 1459 654
2464 1676 1071
2469 1833 1463
2415 1901 1843
2289 1941 2233
2137 2005 2522
2000 2173 2771
1881 2451 3073
2097 1947 728
2154 2049 1085
2218 2141 1444
2287 2223 1785
2331 2300 2110
2308 2386 2456
2229 2493 2765
2124 2643 3021
2026 2842 3282
1763 2580 1391
1800 2548 1710
1854 2517 1995
1949 2508 2233
2069 2540 2452
2172 2637 2715
2239 2794 3005
2258 2965 3260
2264 3145 3500
1498 2796 2255
1465 2705 2483
1493 2653 2648
1616 2653 2763
1811 2702 2867
2018 2805 3015
2226 2979 3241
2424 3195 3486
2599 3413 3720
1172 2800 3140
1155 2758 3194
1232 2768 3230
1419 2818 3262
1681 2900 3300
1968 3009 3363
2267 3167 3490
2626 3406 3700
2983 3672 3934
2970 139 19
2879 171 587
2841 351 1577
2687 411 2381
2410 250 2555
2260 177 2531
2140 177 2571
2052 217 2639
2051 326 2744
3017 576 16
2895 563 399
2777 610 1048
2719 734 1829
2607 753 2317
2417 665 2472
2243 605 2548
2144 610 2627
2141 698 2752
3065 883 19
2989 979 351
2850 991 817
2756 1032 1392
2718 1125 1972
2585 1130 2352
2378 1054 2536
2253 1024 2641
2243 1106 2793
3074 1039 29
3061 1274 399
3004 1427 835
2909 1469 1273
2837 1505 1744
2747 1566 2236
2566 1539 2575
2421 1503 2740
2385 1597 2920
3023 1187 81
3032 1461 513
3038 1724 959
3023 1915 1386
2974 1991 1779
2898 2036 2232
2764 2050 2667
2626 2052 2918
2557 2174 3131
2840 1564 334
2865 1799 756
2904 2035 1181
2953 2256 1599
2987 2423 1984
2971 2507 2374
2892 2551 2796
2790 2608 3108
2717 2755 3355
2464 2367 884
2524 2479 1234
2607 2585 1590
2714 2686 1946
2826 2785 2289
2900 2874 2628
2953 2996 2993
2908 3075 3309
2904 3237 3572
2087 3018 1616
2142 3010 1939
2229 3008 2235
2373 3027 2498
2557 3070 2740
2723 3126 2980
2850 3215 3245
2987 3373 3520
3140 3576 3779
1794 3205 2720
1753 3112 2960
1797 3075 3114
1972 3108 3219
2247 3197 3320
2540 3304 3430
2782 3408 3564
3049 3571 3750
3378 3815 3981
3416 430 192
3359 439 757
3337 610 1700
3255 763 2681
2962 611 3079
2748 443 3030
2647 425 2991
2557 470 3048
2480 518 3124
3456 876 195
3387 856 634
3316 899 1256
3278 1048 2098
3184 1118 2761
3000 1024 2970
2823 931 3007
2692 907 3076
2604 913 3152
3504 1231 217
3458 1294 614
3372 1297 1073
3305 1346 1663
3282 1467 2323
3206 1518 2761
3035 1460 2984
2855 1376 3117
2743 1329 3198
3534 1420 278
3524 1621 663
3482 1737 1081
3415 1767 1524
3365 1812 2009
3327 1903 2493
3221 1939 2911
3045 1867 3177
2912 1779 3285
3535 1545 345
3539 1797 746
3536 2029 1157
3516 2187 1570
3473 2248 1957
3431 2302 2360
3368 2371 2852
3237 2346 3248
3111 2262 3419
3468 1659 403
3478 1923 827
3492 2186 1252
3508 2433 1672
3513 2618 2059
3495 2714 2415
3457 2772 2857
3380 2786 3304
3293 2757 3555
3254 2025 630
3277 2248 1026
3314 2466 1430
3368 2680 1834
3425 2881 2223
3466 3043 2585
3479 3137 2971
3469 3193 3386
3454 3242 3698
2837 2825 1184
2899 2937 1521
2985 3040 1859
3099 3140 2197
3228 3245 2532
3341 3348 2863
3424 3439 3200
3531 3530 3521
3606 3658 3856
2449 3559 1999
2529 3556 2325
2635 3556 2617
2794 3578 2871
2998 3628 3102
3191 3678 3327
3343 3720 3564
3505 3792 3798
3740 3954 4035
3854 1100 803
3837 1097 1276
3833 1234 2049
3808 1434 3018
3585 1363 3645
3293 1076 3652
3175 974 3506
3137 1038 3503
3106 1136 3602
3889 1533 848
3875 1521 1245
3860 1561 1761
3851 1711 2526
3783 1823 3297
3605 1719 3594
3448 1593 3559
3325 1546 3584
3259 1568 3680
3929 1913 917
3922 1953 1283
3909 1966 1679
3897 2023 2203
3877 2146 2875
3806 2192 3329
3703 2161 3489
3555 2091 3657
3430 2022 3781
3966 2141 1033
3968 2288 1364
3964 2369 1717
3954 2400 2109
3937 2450 2575
3894 2514 2999
3842 2564 3304
3755 2576 3671
3606 2479 3894
3995 2288 1151
3999 2478 1465
4001 2642 1789
3999 2746 2132
3987 2790 2480
3957 2826 2804
3926 2893 3145
3892 2964 3633
3762 2897 3989
4006 2381 1204
4010 2581 1531
4012 2772 1856
4014 2948 2181
4008 3073 2499
3988 3139 2784
3968 3193 3087
3961 3269 3575
3879 3258 4042
3955 2369 1111
3962 2589 1474
3969 2804 1836
3977 3014 2191
3982 3206 2530
3973 3357 2836
3962 3452 3134
3978 3526 3558
3968 3574 4065
3772 2494 1090
3786 2703 1458
3806 2909 1831
3836 3111 2205
3868 3310 2574
3885 3491 2921
3896 3640 3247
3949 3752 3622
4030 3852 4076
3434 3712 1967
3444 3763 2206
3487 3804 2450
3572 3842 2710
3667 3882 2977
3734 3921 3239
3777 3960 3504
3882 4013 3804
4057 4093 4095
