assets/luts/LUTs by IWLTBAP (3DL)/01 - Standard/H-9110-STD.3dl
# Copyright: (C) Copyright 2010-2020 by IWLTBAP SAS
# Cannot be resold, shared or otherwise redistributed
# Website: https://luts.iwltbap.com
0 256 512 768 1023
0 0 0
15 0 1128
27 0 2048
40 0 3067
53 0 4063
1028 472 0
73 753 995
35 690 2289
48 668 3097
64 692 4079
2017 965 0
1490 1928 477
272 1618 2028
2 1368 3195
60 1331 4039
2775 1529 0
2758 1554 0
1773 2959 1346
526 2505 3051
0 2049 4015
3600 3854 368
3402 3883 285
2987 3875 1017
2159 3970 2234
571 3180 4063
1028 0 70
1013 13 1009
1042 37 2040
1050 40 3054
1068 43 4076
1205 510 0
1021 1001 1025
170 719 2333
946 977 3062
1081 1026 4063
2307 898 0
1963 1293 449
1111 1846 2025
6 1372 3259
60 1328 4046
3164 1417 0
2916 1509 0
2047 2963 1437
1128 2581 3046
0 2061 4060
3843 3730 395
3772 3846 436
3712 3116 743
2352 3967 2287
1197 3359 4047
2048 0 140
2039 29 1032
2048 28 2025
2056 59 3051
2072 74 4071
2092 517 245
2033 1029 1054
2031 1028 2000
2054 1053 3062
2083 1066 4063
2352 1071 0
2292 1551 956
2046 2028 2036
1324 1781 3373
614 1523 4063
3423 1436 0
3413 1772 633
2938 2335 1479
2129 2887 3053
8 2094 4077
3790 2691 0
3789 2116 0
3903 2596 880
2937 3962 2438
2116 3614 4055
3067 0 210
3064 0 1115
3067 45 2061
3054 43 3050
3079 80 4063
3067 427 220
3061 968 1122
3052 1059 2041
3054 1051 3026
3085 1085 4066
3327 1195 655
3160 1603 1238
3054 2096 2051
3051 2045 3006
3084 2076 4063
3525 1632 0
3446 2085 894
3309 2611 1966
3054 3036 3042
2448 2828 4078
3854 2223 0
4079 2321 366
4079 2842 1598
3923 3348 2496
3054 3783 4047
4063 0 279
4063 0 1185
4071 58 2080
4066 62 3076
4079 54 4053
4076 369 271
4063 896 1196
4063 1038 2113
4063 1069 3060
4066 1061 4034
4079 1110 591
4063 1540 1224
4063 2059 2100
4063 2082 3045
4063 2071 4020
4079 1851 717
4079 2170 1341
4063 2710 2220
4063 3121 3066
4063 3064 4004
4079 2253 0
4079 2649 684
4079 3111 1790
4076 3590 2927
4063 4047 4060
