assets/luts/LUTs by IWLTBAP (3DL)/01 - Standard/H-9110-STD.3dl
# Copyright: (C) Copyright 2010-2020 by IWLTBAP SAS
# Cannot be resold, shared or otherwise redistributed
# Website: https://luts.iwltbap.com
0 128 256 384 512 640 768 896 1023
0 0 0
11 11 796
15 0 1128
20 0 1536
27 0 2048
34 0 2559
40 0 3067
47 0 3565
53 0 4063
482 224 0
33 387 484
19 348 1248
28 350 1803
33 340 2109
41 351 2540
49 349 3050
58 341 3565
66 342 4063
1028 472 0
626 949 242
73 753 995
7 688 1697
35 690 2289
42 667 2748
48 668 3097
56 691 3581
64 692 4079
1527 711 0
1336 779 0
801 1470 654
263 1272 1518
0 1036 2127
26 1024 2742
48 1006 3211
55 998 3585
62 1026 4071
2017 965 0
1886 999 0
1490 1928 477
1001 1985 1103
272 1618 2028
0 1386 2567
2 1368 3195
38 1345 3667
60 1331 4039
2490 1219 0
2413 1247 0
2293 1534 0
1562 2448 934
1219 2487 1551
396 2064 2539
0 1735 3063
0 1709 3621
12 1684 4063
2775 1529 0
2835 1514 0
2758 1554 0
2317 2887 759
1773 2959 1346
1422 3003 2000
526 2505 3051
0 2076 3559
0 2049 4015
3172 3387 326
3172 3376 330
3227 2290 0
3234 2292 0
2288 3443 1200
1946 3472 1809
1581 3498 2507
510 2836 3566
0 2448 4078
3600 3854 368
3525 3870 335
3402 3883 285
3836 3827 457
2987 3875 1017
2469 3941 1660
2159 3970 2234
1784 4017 3028
571 3180 4063
514 0 35
483 8 498
524 19 1028
517 20 1536
541 22 2048
549 23 2564
542 23 3067
566 24 3580
561 25 4064
578 245 0
501 498 497
63 361 1293
398 463 1563
509 498 2034
531 504 2542
543 514 3051
554 510 3565
561 510 4063
1179 450 0
964 635 206
477 872 996
13 689 1713
35 671 2337
46 672 2746
78 678 3099
484 830 3564
571 859 4063
1666 665 0
1470 756 0
1007 1453 720
529 1269 1504
56 1057 2160
28 1024 2775
49 1006 3243
56 998 3613
487 1162 4052
2098 936 0
1967 979 0
1870 1755 541
1160 1969 1124
710 1790 2032
52 1411 2590
5 1363 3212
39 1349 3685
60 1321 4055
2537 1191 0
2457 1220 0
2276 1311 0
1701 2446 956
1296 2479 1596
658 2070 2527
178 1808 3063
0 1714 3635
10 1695 4063
2905 1484 0
2907 1498 0
2813 1533 0
2664 2846 863
1860 2960 1371
1504 3007 2026
735 2495 3037
364 2218 3565
0 2047 4027
3265 3358 370
3333 3283 372
3196 2096 0
3209 2089 0
2416 3423 1218
2030 3457 1788
1709 3519 2457
815 2927 3564
382 2583 4062
3697 3854 405
3620 3869 372
3546 3870 343
3777 3490 279
3229 3852 1090
2536 3939 1682
2216 3970 2247
1853 4017 2996
812 3272 4063
1028 0 70
1014 13 508
1013 13 1009
1033 30 1530
1042 37 2040
1047 39 2543
1050 40 3054
1074 42 3580
1068 43 4076
1056 248 121
1026 502 531
1015 512 1011
1029 530 1523
1029 521 2039
1048 521 2544
1050 523 3051
1058 528 3566
1069 540 4078
1205 510 0
1138 766 479
1021 1001 1025
539 854 1789
170 719 2333
530 837 2656
946 977 3062
1011 1008 3567
1081 1026 4063
1733 708 0
1703 875 295
1458 1159 734
945 1365 1503
89 1063 2240
34 1015 2835
49 1008 3272
86 1011 3623
903 1295 4061
2307 898 0
2210 935 0
1963 1293 449
1460 1962 1222
1111 1846 2025
145 1441 2665
6 1372 3259
43 1349 3742
60 1328 4046
2795 1149 0
2679 1190 0
2466 1358 0
2090 2417 1084
1589 2499 1607
1180 2291 2541
459 1897 3081
0 1715 3671
11 1695 4074
3164 1417 0
3047 1455 0
2916 1509 0
2769 2058 465
2047 2963 1437
1712 3006 2074
1128 2581 3046
823 2357 3578
0 2061 4060
3349 3025 204
3261 2587 0
3325 1795 0
3241 1872 0
2681 3408 1259
2209 3473 1860
1885 3501 2483
1167 2994 3564
879 2735 4047
3843 3730 395
3819 3842 455
3772 3846 436
3721 2733 0
3712 3116 743
2680 3927 1745
2352 3967 2287
2012 4000 2979
1197 3359 4047
1536 0 110
1520 0 552
1535 23 1033
1529 25 1537
1542 40 2048
1549 49 2560
1555 56 3068
1561 57 3581
1568 59 4069
1533 199 104
1521 479 558
1521 528 1021
1520 515 1496
1536 533 2029
1540 539 2553
1550 550 3051
1558 541 3565
1567 556 4063
1645 531 209
1557 788 590
1531 1037 1034
1524 1027 1511
1533 1043 2040
1530 1035 2549
1548 1037 3051
1561 1039 3568
1568 1040 4063
1819 775 0
1738 1016 433
1663 1297 989
1533 1509 1516
1126 1388 2272
614 1202 2838
332 1100 3270
793 1256 3633
1426 1477 4063
2338 956 0
2290 1134 288
2235 1394 806
1952 1668 1238
1471 1881 2014
413 1520 2741
53 1377 3344
43 1354 3762
61 1343 4063
2886 1157 0
2870 1179 0
2733 1505 542
2442 1812 967
1944 2461 1727
1600 2344 2533
235 1833 3158
0 1723 3763
10 1699 4069
3421 1363 0
3362 1387 0
3200 1560 0
2950 1920 636
2480 2927 1548
2034 2994 2129
1685 2811 3051
1077 2441 3575
0 2066 4062
3233 1896 0
3525 1745 0
3579 1726 0
3406 2009 183
3288 2875 1238
2486 3474 1953
2162 3501 2547
1607 3079 3564
1335 2873 4062
3813 3191 77
3822 3340 164
3830 3406 200
3751 2096 0
3687 2553 518
3004 3917 1773
2619 3968 2326
2303 4015 2977
1640 3472 4052
2048 0 140
2032 0 578
2039 29 1032
2036 31 1524
2048 28 2025
2058 50 2543
2056 59 3051
2080 67 3564
2072 74 4071
2048 170 136
2031 440 599
2031 510 1054
2033 529 1520
2041 532 2036
2061 544 2559
2056 552 3058
2067 566 3573
2069 572 4063
2092 517 245
2029 752 594
2033 1029 1054
2033 1044 1522
2031 1028 2000
2053 1050 2542
2054 1053 3062
2062 1065 3565
2083 1066 4063
2275 830 318
2169 1069 689
2098 1335 1092
2041 1548 1540
2036 1536 2015
2043 1549 2554
2038 1539 3063
2050 1541 3569
2055 1550 4068
2352 1071 0
2360 1277 418
2292 1551 956
2182 1802 1494
2046 2028 2036
1689 1918 2780
1324 1781 3373
861 1607 3811
614 1523 4063
2955 1206 0
2919 1400 275
2853 1680 834
2742 1930 1314
2463 2185 1759
2006 2403 2525
1140 2113 3251
536 1881 3876
78 1720 4076
3423 1436 0
3423 1450 0
3413 1772 633
3263 2048 1102
2938 2335 1479
2429 2973 2226
2129 2887 3053
923 2398 3658
8 2094 4077
3761 1713 0
3943 1629 0
3924 1782 153
3726 2166 731
3453 2463 1197
2938 3438 2055
2530 3502 2623
2125 3252 3557
1716 2986 4063
3790 2691 0
3782 2626 0
3789 2116 0
4039 2230 150
3903 2596 880
3832 3832 2044
2937 3962 2438
2622 4000 3055
2116 3614 4055
2559 0 176
2543 0 624
2557 2 1078
2559 37 1546
2551 39 2045
2555 40 2555
2568 60 3059
2571 70 3565
2596 78 4063
2559 141 170
2553 417 629
2544 478 1081
2543 538 1535
2543 537 2029
2547 536 2526
2567 561 3051
2571 562 3565
2577 578 4063
2569 470 226
2550 725 637
2543 991 1089
2543 1040 1549
2543 1043 2022
2548 1040 2528
2580 1064 3066
2570 1069 3569
2582 1084 4063
2698 860 473
2617 1053 728
2549 1307 1094
2545 1576 1544
2545 1555 2027
2543 1535 2503
2568 1563 3050
2571 1564 3576
2574 1573 4065
2837 1147 351
2805 1356 732
2718 1622 1189
2625 1873 1597
2554 2062 2051
2546 2048 2515
2556 2062 3069
2531 2057 3579
2562 2054 4068
2961 1359 0
2913 1564 377
2886 1809 928
2821 2083 1467
2699 2314 2011
2558 2530 2539
2233 2439 3306
1916 2307 3890
1589 2192 4066
3567 1505 0
3557 1682 356
3480 1938 850
3392 2211 1348
3278 2480 1836
2977 2688 2258
2533 2910 3034
1751 2651 3769
1336 2491 4076
3950 1712 0
3968 1725 0
3965 2038 569
3958 2294 1155
3795 2581 1612
3434 2840 1971
2924 3487 2739
2602 3371 3566
1812 3027 4063
3828 2629 0
3761 2197 0
4073 2081 0
4079 2404 761
4062 2703 1251
3924 2971 1710
3390 3941 2561
3006 4006 3131
2584 3680 4047
3067 0 210
3051 0 666
3064 0 1115
3051 44 1561
3067 45 2061
3067 48 2562
3054 43 3050
3086 71 3582
3079 80 4063
3067 110 204
3052 383 665
3051 455 1125
3052 515 1579
3055 541 2044
3061 538 2550
3063 564 3056
3088 581 3566
3083 572 4063
3067 427 220
3051 702 669
3061 968 1122
3052 1014 1574
3052 1059 2041
3051 1052 2531
3054 1051 3026
3081 1082 3565
3085 1085 4066
3147 822 441
3072 1013 716
3057 1278 1133
3051 1535 1577
3051 1563 2049
3051 1553 2525
3054 1546 3023
3093 1577 3580
3083 1583 4063
3327 1195 655
3259 1352 889
3160 1603 1238
3063 1865 1595
3054 2096 2051
3052 2071 2530
3051 2045 3006
3081 2078 3565
3084 2076 4063
3424 1451 402
3384 1621 731
3326 1868 1185
3237 2159 1662
3136 2399 2118
3062 2573 2562
3053 2557 3013
3068 2578 3579
3055 2572 4063
3525 1632 0
3490 1840 343
3446 2085 894
3411 2338 1438
3309 2611 1966
3194 2827 2514
3054 3036 3042
2740 2948 3833
2448 2828 4078
3998 1784 0
4001 1962 270
4022 2209 875
4003 2470 1371
3913 2749 1863
3796 2996 2350
3491 3201 2769
3034 3415 3548
2314 3183 4063
3854 2223 0
4056 2107 0
4079 2321 366
4079 2587 994
4079 2842 1598
4062 3106 2064
3923 3348 2496
3428 4000 3253
3054 3783 4047
3581 0 246
3566 0 688
3566 0 1136
3576 17 1595
3581 51 2061
3571 53 2554
3566 56 3067
3578 48 3556
3585 80 4064
3581 84 239
3580 344 705
3565 420 1153
3574 500 1602
3565 565 2069
3580 558 2562
3567 547 3046
3566 550 3549
3594 590 4064
3565 395 239
3568 670 719
3568 933 1159
3565 995 1616
3567 1042 2080
3569 1060 2545
3575 1057 3051
3579 1083 3566
3608 1102 4063
3607 758 384
3579 960 710
3567 1253 1165
3574 1512 1609
3566 1543 2071
3569 1572 2545
3565 1560 3031
3566 1555 3528
3607 1595 4068
3730 1164 660
3684 1312 869
3597 1569 1222
3571 1830 1626
3565 2083 2069
3565 2088 2551
3565 2066 3025
3566 2055 3524
3611 2094 4063
3928 1506 785
3884 1656 1023
3819 1881 1355
3677 2159 1732
3572 2418 2090
3568 2613 2560
3565 2587 3030
3565 2556 3513
3599 2592 4063
3997 1753 433
3967 1894 715
3910 2136 1191
3855 2423 1692
3751 2713 2172
3644 2909 2631
3568 3081 3070
3566 3057 3511
3594 3082 4063
4039 1924 0
4041 2116 299
4012 2353 829
3968 2594 1374
3920 2866 1917
3810 3125 2475
3704 3339 3021
3566 3550 3564
3299 3476 4064
4079 2190 0
4079 2261 0
4079 2517 678
4079 2733 1282
4079 2980 1778
4079 3253 2307
4065 3478 2836
3986 3701 3293
3538 3892 4047
4063 0 279
4079 0 724
4063 0 1185
4069 0 1629
4071 58 2080
4063 59 2579
4066 62 3076
4079 65 3580
4079 54 4053
4063 44 273
4064 315 738
4075 391 1188
4068 461 1634
4063 536 2094
4064 571 2562
4063 569 3055
4066 554 3570
4064 557 4045
4076 369 271
4063 632 740
4063 896 1196
4073 971 1654
4063 1038 2113
4078 1074 2572
4063 1069 3060
4063 1063 3552
4066 1061 4034
4063 707 346
4064 945 744
4063 1217 1206
4063 1481 1645
4071 1530 2106
4079 1560 2575
4071 1570 3044
4064 1573 3542
4074 1575 4026
4079 1110 591
4064 1297 864
4063 1540 1224
4068 1807 1658
4063 2059 2100
4074 2075 2573
4063 2082 3045
4064 2086 3536
4063 2071 4020
4079 1529 849
4078 1665 1054
4079 1889 1379
4063 2116 1703
4063 2388 2122
4063 2620 2572
4063 2615 3056
4068 2579 3532
4063 2564 4010
4079 1851 717
4079 1955 940
4079 2170 1341
4069 2437 1813
4063 2710 2220
4063 2934 2598
4063 3121 3066
4063 3100 3532
4063 3064 4004
4079 2074 274
4079 2207 566
4079 2415 1033
4079 2666 1565
4072 2938 2075
4065 3205 2643
4064 3411 3122
4063 3594 3584
4078 3567 4013
4079 2253 0
4079 2431 119
4079 2649 684
4079 2874 1214
4079 3111 1790
4079 3358 2361
4076 3590 2927
4063 3819 3500
4063 4047 4060
