assets/luts/LUTs by IWLTBAP (3DL)/01 - Standard/H-9110-STD.3dl
# Copyright: (C) Copyright 2010-2020 by IWLTBAP SAS
# Cannot be resold, shared or otherwise redistributed
# Website: https://luts.iwltbap.com
0 64 128 192 256 320 384 448 512 576 640 704 768 832 896 960 1023
0 0 0
5 0 372
11 11 796
14 1 1090
15 0 1128
17 0 1284
20 0 1536
23 0 1791
27 0 2048
30 0 2304
34 0 2559
37 0 2818
40 0 3067
44 0 3331
47 0 3565
50 0 3830
53 0 4063
233 112 0
7 186 267
10 180 672
17 172 1077
21 159 1328
23 167 1407
25 170 1563
29 170 1786
33 171 2054
38 171 2321
42 171 2575
47 169 2830
50 161 3067
54 174 3336
60 184 3599
80 189 3877
63 160 4063
482 224 0
304 482 40
33 387 484
1 347 823
19 348 1248
24 349 1526
28 350 1803
32 344 2017
33 340 2109
36 345 2290
41 351 2540
45 351 2801
49 349 3050
54 341 3317
58 341 3565
62 342 3831
66 342 4063
742 332 0
686 603 32
307 715 313
36 569 747
0 509 1121
20 513 1482
27 509 1794
31 506 2038
35 507 2272
38 508 2471
41 509 2642
45 510 2837
48 510 3065
53 510 3331
57 518 3578
61 519 3830
65 519 4077
1028 472 0
914 487 0
626 949 242
421 982 523
73 753 995
0 693 1325
7 688 1697
29 690 2027
35 690 2289
39 671 2534
42 667 2748
45 668 2941
48 668 3097
52 682 3331
56 691 3581
60 691 3843
64 692 4079
1277 585 0
1185 613 0
1138 920 38
703 1196 434
478 1229 793
143 1010 1258
0 866 1553
0 859 1904
19 853 2241
37 837 2520
42 832 2762
45 833 2966
48 832 3163
52 827 3356
55 851 3581
60 857 3847
63 857 4079
1527 711 0
1442 733 0
1336 779 0
1151 1423 355
801 1470 654
597 1507 993
263 1272 1518
0 1043 1776
0 1036 2127
6 1032 2470
26 1024 2742
44 1006 2992
48 1006 3211
51 998 3394
55 998 3585
58 1015 3829
62 1026 4071
1757 825 0
1697 855 0
1592 877 0
1636 1514 216
1105 1713 554
898 1728 859
692 1736 1264
212 1405 1772
0 1218 2038
0 1210 2360
0 1206 2652
14 1198 2978
33 1185 3226
50 1174 3452
55 1169 3662
58 1169 3824
61 1170 4029
2017 965 0
1961 968 0
1886 999 0
1813 1127 0
1490 1928 477
1193 1969 788
1001 1985 1103
798 2018 1593
272 1618 2028
0 1399 2287
0 1386 2567
0 1380 2897
2 1368 3195
22 1356 3454
38 1345 3667
54 1343 3895
60 1331 4039
2238 1081 0
2219 1094 0
2154 1123 0
2075 1157 0
2100 1853 291
1536 2207 697
1302 2229 1007
1109 2242 1300
907 2257 1788
325 1831 2279
0 1581 2526
0 1568 2813
0 1551 3083
0 1539 3378
8 1527 3648
27 1520 3909
39 1509 4054
2490 1219 0
2458 1233 0
2413 1247 0
2322 1269 0
2293 1534 0
1919 2417 610
1562 2448 934
1381 2484 1227
1219 2487 1551
1021 2531 2122
396 2064 2539
0 1752 2784
0 1735 3063
0 1726 3327
0 1709 3621
0 1696 3888
12 1684 4063
2706 1341 0
2700 1364 0
2640 1379 0
2570 1413 0
2484 1448 0
2550 2136 232
1900 2668 806
1661 2710 1141
1493 2724 1455
1307 2756 1779
1129 2789 2421
403 2237 2803
0 1932 3031
0 1914 3331
0 1892 3576
0 1879 3841
0 1867 4060
2775 1529 0
2833 1529 0
2835 1514 0
2806 1538 0
2758 1554 0
2743 1809 0
2317 2887 759
1933 2944 1050
1773 2959 1346
1596 2976 1657
1422 3003 2000
1257 3052 2681
526 2505 3051
0 2100 3300
0 2076 3559
0 2074 3777
0 2049 4015
3120 3025 318
3087 2766 175
3041 2352 0
2960 1765 0
2965 1686 0
2966 1774 0
3030 2481 197
2296 3179 915
2039 3209 1274
1901 3243 1551
1738 3250 1875
1512 3270 2260
1341 3300 2947
453 2622 3315
0 2288 3544
0 2269 3816
0 2268 4067
3172 3387 326
3191 3373 338
3172 3376 330
3320 3189 320
3227 2290 0
3197 1983 0
3234 2292 0
2631 3402 868
2288 3443 1200
2111 3457 1507
1946 3472 1809
1787 3487 2133
1581 3498 2507
1450 3535 3325
510 2836 3566
0 2458 3830
0 2448 4078
3387 3637 343
3388 3637 344
3338 3638 324
3307 3622 317
3350 3626 332
3573 3192 196
3468 2427 0
3524 3004 341
2648 3673 1067
2371 3708 1463
2210 3716 1720
2067 3739 2025
1920 3752 2337
1697 3784 2757
1578 3815 3554
496 3015 3830
0 2635 4061
3600 3854 368
3623 3870 373
3525 3870 335
3503 3870 327
3402 3883 285
3416 3876 292
3836 3827 457
3756 3052 91
2987 3875 1017
2609 3908 1394
2469 3941 1660
2297 3955 1945
2159 3970 2234
2013 3984 2568
1784 4017 3028
1650 4048 3977
571 3180 4063
248 0 17
281 5 251
238 9 503
258 10 751
262 10 1013
267 11 1272
282 29 1536
292 12 1791
289 13 2039
266 12 2288
295 13 2542
308 14 2806
310 31 3067
283 12 3316
288 12 3565
308 13 3830
327 14 4078
328 132 12
250 249 248
28 174 667
17 169 1056
171 221 1082
264 251 1278
275 253 1532
280 254 1788
284 255 2047
287 255 2304
272 250 2559
282 252 2818
298 256 3067
302 256 3332
307 257 3581
311 256 3847
314 242 4063
576 216 0
482 305 69
240 437 496
25 353 900
23 350 1303
32 344 1575
31 333 1804
32 330 1925
44 339 2069
197 399 2315
272 429 2572
284 429 2830
287 421 3052
302 425 3318
288 419 3566
294 421 3832
313 426 4078
824 315 0
731 355 0
487 730 348
324 710 747
18 524 1087
20 515 1482
27 509 1804
32 494 2059
36 501 2283
46 510 2482
53 513 2645
62 516 2825
199 563 3029
283 595 3317
291 588 3565
292 587 3830
298 588 4079
1090 445 0
998 485 0
938 930 320
550 967 537
284 844 1011
7 700 1324
6 694 1696
30 689 2032
35 686 2308
39 683 2548
42 677 2741
45 676 2910
56 680 3102
74 689 3331
264 759 3578
309 773 3843
312 773 4079
1328 567 0
1246 606 0
1094 673 0
799 1192 471
606 1231 798
313 1020 1244
150 914 1556
6 868 1910
19 859 2265
38 848 2553
42 840 2759
45 836 2976
48 834 3161
53 826 3366
79 847 3581
282 923 3846
312 940 4079
1555 698 0
1504 728 0
1392 762 0
1298 1432 419
874 1466 672
682 1489 1032
406 1284 1515
156 1097 1783
19 1046 2138
6 1028 2469
28 1015 2759
45 1006 3009
48 1006 3215
52 997 3410
55 991 3585
83 1023 3847
272 1094 4070
1805 822 0
1750 838 0
1667 867 0
1593 1059 0
1193 1711 570
967 1729 874
777 1761 1264
453 1510 1765
168 1275 2039
7 1221 2371
0 1208 2691
14 1204 2979
34 1180 3218
51 1175 3468
55 1176 3663
58 1163 3851
80 1193 4045
2056 949 0
2000 953 0
1915 994 0
1813 1025 0
1708 1911 534
1272 1960 805
1066 1985 1105
859 2000 1546
458 1679 2024
170 1459 2280
0 1399 2574
0 1381 2897
2 1364 3176
21 1362 3453
38 1355 3683
55 1343 3910
60 1337 4046
2269 1078 0
2251 1092 0
2164 1122 0
2091 1156 0
2085 1659 141
1573 2206 689
1332 2236 1012
1148 2244 1335
977 2275 1873
461 1846 2277
177 1626 2532
0 1576 2815
0 1565 3122
0 1544 3403
9 1532 3671
28 1520 3919
38 1513 4053
2522 1216 0
2478 1219 0
2418 1247 0
2357 1264 0
2277 1409 0
2074 2397 657
1632 2479 930
1441 2491 1217
1258 2495 1569
1075 2531 2072
553 2113 2541
184 1819 2785
77 1779 3059
0 1733 3325
0 1721 3618
0 1708 3869
10 1695 4063
2723 1351 0
2731 1350 0
2674 1374 0
2611 1408 0
2516 1430 0
2561 2025 149
1968 2684 806
1716 2708 1148
1526 2743 1455
1351 2747 1782
1182 2771 2393
535 2249 2794
183 2000 3041
164 1984 3318
0 1907 3568
0 1887 3846
0 1874 4060
2825 1519 0
2868 1514 0
2850 1510 0
2839 1519 0
2771 1551 0
2743 1774 0
2355 2904 778
1964 2935 1065
1785 2959 1376
1610 2972 1677
1447 3005 2053
1283 3049 2724
574 2454 3049
199 2177 3313
123 2146 3577
0 2063 3810
0 2049 4012
3088 2863 234
3071 2621 105
3010 2163 0
2988 1701 0
3019 1690 0
2953 1729 0
3023 2295 46
2339 3179 916
2075 3211 1289
1915 3225 1550
1752 3241 1863
1567 3253 2218
1410 3305 2945
635 2685 3317
185 2369 3561
127 2334 3813
0 2265 4051
3223 3358 354
3214 3374 346
3239 3362 359
3354 3190 304
3231 2244 0
3183 1924 0
3218 2218 0
2761 3387 900
2327 3444 1212
2147 3457 1509
1981 3490 1787
1852 3499 2104
1642 3518 2490
1486 3533 3285
586 2808 3549
161 2524 3812
130 2508 4063
3461 3637 372
3410 3653 348
3363 3637 334
3324 3652 315
3392 3647 343
3544 3010 98
3465 2297 0
3497 2750 138
2690 3658 1064
2413 3710 1464
2277 3722 1724
2074 3738 2024
1951 3752 2350
1692 3769 2720
1602 3815 3544
625 3053 3830
167 2711 4061
3648 3854 387
3622 3870 372
3599 3870 363
3528 3870 336
3471 3883 311
3489 3877 319
3810 3700 392
3734 2888 1
3057 3875 1045
2649 3926 1383
2497 3933 1697
2331 3956 1961
2172 3966 2247
2031 4002 2568
1808 4016 3017
1675 4048 3935
686 3255 4063
514 0 35
517 6 254
483 8 498
518 15 760
524 19 1028
517 19 1277
517 20 1536
531 21 1791
541 22 2048
545 22 2305
549 23 2564
555 23 2829
542 23 3067
550 23 3332
566 24 3580
572 25 3846
561 25 4064
516 120 52
514 250 258
497 243 505
498 256 752
523 260 1007
534 260 1255
525 261 1530
523 253 1791
535 247 2039
540 247 2288
535 253 2542
544 265 2802
560 265 3054
564 266 3331
568 266 3566
573 266 3830
577 266 4063
578 245 0
577 369 226
501 498 497
286 427 882
63 361 1293
72 358 1523
398 463 1563
491 492 1787
509 498 2034
524 503 2286
531 504 2542
529 506 2803
543 514 3051
550 509 3317
554 510 3565
557 510 3830
561 510 4063
865 332 0
837 439 156
699 553 334
499 687 743
32 518 1178
24 506 1558
47 511 1829
56 508 2057
58 503 2263
70 512 2441
115 533 2631
470 650 2809
530 670 3060
538 670 3317
540 659 3565
556 666 3830
560 676 4063
1179 450 0
1124 470 0
964 635 206
759 967 580
477 872 996
78 719 1338
13 689 1713
30 679 2040
35 671 2337
39 667 2548
46 672 2746
70 682 2920
78 678 3099
93 693 3313
484 830 3564
556 852 3830
571 859 4063
1421 539 0
1342 576 0
1197 679 46
1162 1168 573
765 1228 833
510 1073 1244
58 883 1578
11 867 1951
22 858 2301
38 848 2556
42 844 2789
45 841 2991
48 832 3158
52 826 3366
108 857 3579
507 998 3831
563 1024 4063
1666 665 0
1570 700 0
1470 756 0
1367 1171 356
1007 1453 720
820 1492 1032
529 1269 1504
329 1145 1814
56 1057 2160
10 1032 2484
28 1024 2775
45 1015 3023
49 1006 3243
52 998 3426
56 998 3613
114 1022 3809
487 1162 4052
1870 795 0
1819 822 0
1730 860 0
1585 967 0
1303 1699 620
1065 1705 916
882 1742 1289
606 1512 1769
374 1344 2035
47 1236 2377
0 1204 2705
17 1191 3004
35 1180 3246
51 1174 3466
55 1168 3649
59 1159 3862
107 1179 4048
2098 936 0
2069 946 0
1967 979 0
1876 1016 0
1870 1755 541
1356 1950 820
1160 1969 1124
974 1999 1528
710 1790 2032
376 1523 2275
52 1411 2590
0 1375 2934
5 1363 3212
23 1357 3467
39 1349 3685
56 1337 3917
60 1321 4055
2325 1064 0
2277 1090 0
2217 1106 0
2151 1136 0
2054 1391 0
1683 2170 700
1408 2209 1036
1246 2245 1357
1048 2257 1796
670 1932 2272
369 1693 2530
20 1581 2831
0 1554 3120
0 1539 3407
9 1533 3670
28 1524 3931
39 1514 4063
2537 1191 0
2518 1202 0
2457 1220 0
2402 1257 0
2276 1311 0
2354 2266 690
1701 2446 956
1488 2465 1240
1296 2479 1596
1153 2514 2125
658 2070 2527
377 1873 2791
178 1808 3063
10 1741 3360
0 1714 3635
0 1707 3914
10 1695 4063
2787 1332 0
2748 1346 0
2685 1355 0
2655 1386 0
2563 1425 0
2535 1762 0
2039 2680 830
1763 2711 1181
1591 2726 1440
1435 2759 1807
1261 2771 2359
711 2314 2792
421 2071 3029
372 2047 3326
11 1924 3555
0 1890 3833
0 1875 4064
2905 1484 0
2919 1481 0
2907 1498 0
2870 1502 0
2813 1533 0
2727 1624 0
2664 2846 863
2053 2938 1087
1860 2960 1371
1681 2972 1667
1504 3007 2026
1335 3019 2658
735 2495 3037
425 2244 3311
364 2218 3565
0 2080 3813
0 2047 4027
3059 2613 94
3027 2326 0
2963 1867 0
3030 1672 0
3051 1670 0
2968 1707 0
3016 2298 158
2384 3160 965
2101 3192 1322
1951 3227 1603
1781 3239 1897
1577 3253 2268
1460 3305 2947
732 2692 3315
430 2432 3559
378 2409 3829
28 2289 4051
3265 3358 370
3300 3376 378
3333 3283 372
3307 2947 177
3196 2096 0
3179 1844 0
3209 2089 0
3167 3331 981
2416 3423 1218
2218 3443 1526
2030 3457 1788
1886 3488 2099
1709 3519 2457
1583 3551 3258
815 2927 3564
400 2595 3812
382 2583 4062
3484 3637 380
3483 3637 380
3435 3623 365
3399 3622 352
3484 3631 382
3517 2855 16
3450 2226 0
3464 2542 0
2757 3651 1069
2457 3691 1465
2314 3724 1742
2152 3738 2017
2012 3752 2326
1766 3783 2713
1653 3815 3552
802 3105 3830
405 2783 4044
3697 3854 405
3696 3854 405
3620 3869 372
3597 3870 363
3546 3870 343
3560 3862 351
3777 3490 279
3700 2723 0
3229 3852 1090
2689 3928 1379
2536 3939 1682
2369 3950 1965
2216 3970 2247
2059 3986 2580
1853 4017 2996
1739 4048 3939
812 3272 4063
762 0 52
746 0 270
728 11 501
761 11 759
758 20 1017
758 24 1263
761 27 1531
775 28 1791
787 30 2041
776 30 2291
786 31 2551
796 31 2821
788 32 3068
794 32 3333
812 33 3580
816 34 3832
805 33 4063
761 112 67
761 235 276
747 242 512
752 261 760
767 266 1028
772 269 1287
766 258 1541
765 253 1791
778 254 2048
789 255 2305
793 262 2560
799 269 2819
801 260 3067
795 262 3331
800 274 3565
818 275 3830
