assets/luts/LUTs by IWLTBAP (3DL)/01 - Standard/W-8370-STD.3dl
# Copyright: (C) Copyright 2010-2020 by IWLTBAP SAS
# Cannot be resold, shared or otherwise redistributed
# Website: https://luts.iwltbap.com
0 64 128 192 256 320 384 448 512 576 640 704 768 832 896 960 1023
25 47 54
26 47 58
68 75 117
117 123 218
149 167 414
139 229 621
71 298 821
3 368 1044
10 473 1331
7 584 1588
10 721 1907
3 870 2264
10 1022 2556
0 1232 2840
36 1531 3142
712 1931 3396
1259 2335 3629
26 48 54
26 49 58
70 96 135
117 119 225
125 169 404
109 228 590
66 292 806
1 362 1028
1 463 1286
4 570 1560
0 700 1875
3 844 2213
3 1018 2524
16 1239 2846
39 1524 3119
674 1875 3378
1183 2274 3582
91 191 67
60 179 96
64 179 187
111 211 318
152 298 455
165 374 646
117 428 863
22 482 1096
5 561 1340
5 655 1625
7 733 1925
6 870 2254
12 1037 2582
5 1256 2863
47 1536 3149
724 1904 3414
1246 2298 3605
286 343 115
170 348 145
100 333 235
139 339 361
156 393 484
171 481 665
139 555 860
129 664 1091
125 756 1341
14 845 1615
18 931 1919
9 1026 2255
2 1118 2565
7 1260 2864
42 1531 3145
703 1904 3406
1202 2292 3597
522 611 207
453 622 299
286 613 357
210 578 510
242 594 627
271 645 773
262 743 966
246 841 1193
180 962 1454
46 1089 1727
3 1212 2027
5 1305 2337
2 1381 2618
3 1461 2887
49 1605 3151
740 1929 3414
1270 2327 3615
722 822 333
629 830 398
458 816 438
324 815 570
259 776 704
305 802 850
343 872 1036
341 975 1235
304 1090 1471
178 1203 1724
6 1343 2035
12 1477 2341
1 1592 2625
8 1681 2895
247 1801 3166
764 1968 3405
1246 2317 3612
944 1078 466
896 1088 548
733 1079 585
508 1067 620
361 1035 805
349 1010 949
391 1041 1103
415 1134 1317
394 1239 1537
306 1371 1807
33 1502 2095
4 1644 2401
4 1777 2684
244 1920 2944
584 2032 3213
920 2149 3433
1286 2346 3620
1094 1282 568
1066 1288 646
933 1288 678
649 1287 676
495 1246 840
379 1228 1022
392 1194 1136
416 1267 1349
424 1357 1572
364 1481 1816
107 1610 2087
7 1759 2386
8 1881 2678
143 2053 2964
815 2239 3239
1065 2332 3449
1309 2391 3621
1240 1512 690
1218 1525 752
1133 1522 805
886 1525 816
621 1489 899
484 1476 1103
382 1450 1261
407 1440 1401
427 1518 1617
370 1636 1864
116 1763 2129
8 1914 2426
6 2042 2711
25 2174 2991
846 2408 3263
1251 2535 3470
1426 2538 3636
1378 1727 809
1343 1740 868
1283 1743 919
1097 1748 929
737 1713 951
579 1697 1145
430 1697 1348
342 1652 1495
373 1662 1648
311 1758 1892
54 1894 2149
8 2033 2434
7 2164 2714
7 2289 2993
446 2476 3245
1398 2713 3499
1594 2752 3659
1521 1970 957
1502 2001 996
1441 2007 1040
1278 2015 1089
940 1997 1091
603 1957 1194
453 1973 1439
191 1932 1619
126 1893 1762
118 1932 1935
7 2037 2194
5 2170 2456
5 2313 2754
3 2436 3018
95 2572 3259
1252 2785 3494
1770 2955 3696
1695 2271 1125
1686 2292 1154
1603 2292 1204
1477 2288 1248
1164 2278 1251
656 2248 1327
418 2262 1541
78 2244 1735
9 2208 1914
11 2182 2064
8 2220 2257
9 2325 2502
7 2453 2774
4 2584 3034
45 2679 3287
1070 2881 3515
1789 3078 3710
1846 2530 1318
1817 2563 1355
1771 2555 1376
1664 2553 1438
1393 2538 1468
899 2504 1516
465 2512 1605
62 2526 1826
7 2504 2012
0 2455 2186
8 2431 2330
4 2503 2548
6 2605 2803
7 2729 3065
2 2815 3295
762 2949 3505
1663 3105 3681
2066 2808 1594
2054 2843 1656
1991 2838 1657
1875 2845 1725
1680 2818 1775
1251 2798 1788
746 2785 1803
201 2839 1962
2 2832 2168
4 2796 2334
8 2763 2520
6 2748 2673
8 2794 2873
4 2881 3097
5 2981 3327
278 3055 3496
1568 3184 3697
2233 3029 1838
2242 3067 1918
2186 3063 1938
2114 3064 1995
1962 3056 2042
1619 3032 2071
1105 3005 2044
553 3034 2076
43 3050 2238
10 3036 2412
5 2996 2593
19 2995 2762
5 3020 2955
9 3045 3152
19 3103 3340
45 3155 3518
1386 3253 3700
2560 3385 2327
2585 3448 2366
2573 3423 2413
2483 3430 2394
2333 3410 2389
2115 3404 2436
1643 3386 2407
1155 3362 2393
539 3356 2460
6 3355 2599
7 3329 2749
6 3320 2910
5 3294 3076
14 3301 3238
20 3300 3416
27 3320 3579
1282 3394 3716
2813 3645 2647
2829 3662 2662
2818 3645 2692
2774 3646 2702
2646 3634 2692
2508 3646 2707
2188 3646 2680
1635 3630 2614
1095 3585 2614
181 3589 2700
0 3587 2817
4 3578 2976
10 3562 3154
8 3574 3346
0 3546 3505
1 3471 3613
1092 3508 3751
29 48 54
26 47 54
58 87 120
108 110 213
153 176 406
116 236 611
70 300 827
7 365 1043
3 475 1320
0 597 1613
6 712 1911
13 861 2249
1 1034 2558
11 1245 2854
36 1509 3130
702 1907 3406
1246 2320 3613
87 63 55
43 49 56
86 90 134
122 125 244
146 185 424
118 240 619
73 297 828
7 372 1069
7 468 1319
3 590 1593
1 711 1902
0 858 2243
1 1034 2554
12 1251 2859
41 1534 3144
701 1905 3404
1222 2289 3586
258 194 96
172 194 130
141 184 188
199 241 318
226 313 474
210 388 644
132 446 850
49 509 1089
7 586 1356
5 669 1623
1 757 1933
7 871 2270
12 1044 2579
5 1259 2867
44 1533 3145
735 1909 3419
1270 2325 3632
451 368 121
359 365 198
214 373 264
230 362 390
283 422 521
294 507 692
292 607 900
249 712 1138
142 806 1381
14 895 1660
7 978 1972
8 1074 2308
5 1159 2600
11 1296 2889
53 1558 3160
732 1943 3413
1249 2318 3614
673 647 229
593 646 326
424 647 398
332 626 504
340 623 647
378 690 812
397 772 1008
394 880 1229
356 1011 1491
177 1126 1753
2 1244 2048
3 1335 2362
6 1406 2640
8 1488 2908
68 1633 3172
770 1953 3432
1278 2338 3621
892 895 359
827 889 449
659 890 514
457 867 602
377 843 747
409 859 901
451 937 1086
466 1032 1306
456 1161 1559
353 1278 1806
71 1406 2093
6 1531 2390
2 1639 2668
20 1722 2930
374 1858 3218
821 2001 3429
1278 2328 3608
1082 1147 475
1030 1140 573
888 1136 638
627 1130 676
469 1091 845
431 1049 981
468 1088 1153
502 1179 1363
499 1300 1598
435 1417 1859
174 1551 2142
3 1681 2421
6 1810 2705
291 1955 2979
628 2069 3240
962 2183 3456
1304 2363 3635
1243 1392 596
1215 1394 675
1088 1388 745
814 1376 771
593 1339 897
469 1305 1082
468 1275 1228
510 1338 1427
513 1441 1648
473 1558 1897
258 1681 2175
10 1801 2439
9 1931 2716
161 2094 3003
883 2293 3277
1113 2366 3464
1339 2415 3638
1383 1585 706
1343 1605 787
1245 1600 856
1038 1602 889
701 1564 952
563 1550 1150
453 1506 1314
471 1499 1460
488 1580 1684
455 1693 1928
261 1823 2203
9 1948 2461
6 2080 2741
38 2203 3005
879 2441 3292
1283 2557 3480
1448 2561 3647
1516 1822 841
1468 1835 912
1403 1834 975
1228 1841 1033
845 1801 1021
636 1790 1200
498 1775 1406
402 1736 1566
429 1737 1722
387 1841 1968
176 1961 2223
4 2081 2479
3 2209 2757
7 2335 3023
579 2533 3300
1434 2742 3511
1604 2763 3668
1633 2057 986
1596 2093 1049
1535 2081 1100
1419 2088 1167
1070 2076 1164
665 2029 1258
524 2043 1491
269 2002 1675
174 1957 1822
166 1995 2000
35 2094 2242
8 2226 2522
0 2364 2789
3 2476 3044
109 2595 3279
1284 2810 3505
1783 2971 3712
1772 2317 1155
1754 2356 1205
1688 2347 1249
1567 2350 1309
1280 2339 1333
772 2300 1380
509 2324 1579
153 2322 1788
5 2263 1976
2 2243 2132
5 2279 2320
11 2377 2554
8 2500 2817
10 2617 3064
54 2717 3317
1124 2908 3529
1792 3081 3708
1926 2588 1358
1906 2614 1410
1857 2619 1447
1758 2621 1500
1528 2602 1559
1026 2568 1588
591 2568 1664
154 2599 1879
7 2550 2064
7 2509 2253
8 2497 2394
5 2536 2600
8 2638 2841
7 2753 3101
12 2843 3333
790 2968 3520
1673 3117 3694
2101 2843 1627
2087 2883 1688
2057 2870 1713
1966 2881 1767
1798 2868 1838
1376 2842 1869
872 2832 1877
410 2881 2023
7 2867 2201
2 2830 2385
7 2808 2565
8 2795 2725
6 2822 2906
0 2907 3126
10 3008 3343
375 3084 3531
1573 3186 3699
2294 3076 1882
2308 3089 1935
2276 3110 1999
2197 3109 2047
2055 3107 2094
1756 3077 2127
1230 3063 2111
757 3072 2135
120 3104 2302
9 3078 2450
6 3039 2623
6 3029 2801
8 3043 2979
2 3087 3177
1 3141 3372
57 3167 3526
1384 3256 3700
2671 3436 2392
2668 3443 2424
2603 3443 2410
2537 3455 2440
2459 3453 2453
2216 3432 2483
1782 3442 2472
1265 3389 2436
780 3391 2515
14 3376 2638
4 3354 2775
3 3332 2940
4 3325 3097
3 3328 3274
2 3323 3418
31 3324 3559
1283 3394 3716
2912 3659 2704
2881 3663 2686
2873 3664 2718
2803 3673 2731
2736 3663 2739
2569 3653 2736
2280 3671 2750
1738 3654 2673
1209 3612 2653
374 3607 2744
10 3591 2840
9 3582 2986
6 3583 3173
18 3587 3357
0 3574 3504
12 3485 3625
1094 3510 3753
306 54 120
258 56 100
168 56 116
153 112 250
132 166 403
107 231 606
61 294 819
5 366 1059
5 466 1313
4 589 1590
3 707 1908
1 868 2252
4 1034 2560
2 1241 2842
35 1527 3151
703 1907 3406
1248 2322 3615
375 91 89
265 84 87
207 93 168
215 125 273
209 181 416
142 250 615
58 299 810
4 374 1071
1 470 1307
4 586 1577
1 706 1897
1 856 2224
3 1025 2561
14 1250 2846
41 1530 3125
691 1893 3393
1210 2266 3584
430 254 106
346 241 125
307 235 228
335 282 332
356 332 468
330 403 652
256 470 842
110 552 1076
12 623 1334
10 701 1622
4 792 1922
12 889 2265
4 1044 2565
5 1258 2867
42 1535 3144
734 1909 3416
1261 2313 3623
576 414 124
546 393 181
473 404 289
403 401 397
456 461 538
470 542 696
457 638 913
433 738 1132
306 829 1382
61 923 1667
16 1006 1970
5 1099 2293
6 1182 2588
4 1310 2886
50 1542 3155
724 1921 3422
1221 2303 3603
856 668 207
809 646 303
711 647 436
519 664 526
502 642 651
525 696 809
529 789 1001
557 904 1231
542 1029 1488
432 1145 1745
130 1255 2053
10 1348 2360
8 1427 2644
11 1511 2903
69 1643 3156
755 1939 3425
1256 2328 3608
1085 890 322
998 886 426
891 882 524
661 883 608
525 860 739
536 870 901
572 937 1077
594 1042 1296
595 1170 1544
553 1296 1798
378 1431 2095
41 1537 2375
6 1644 2654
24 1738 2940
380 1871 3210
822 2010 3432
1256 2327 3620
1243 1124 449
1180 1135 508
1080 1140 619
836 1125 708
611 1111 827
547 1065 1000
586 1096 1157
618 1185 1354
630 1304 1590
595 1427 1848
459 1572 2135
157 1697 2417
13 1814 2684
294 1968 2976
642 2080 3245
965 2200 3452
1295 2362 3633
1389 1378 555
1344 1371 615
1233 1379 740
1048 1371 825
720 1352 883
585 1313 1087
575 1287 1233
620 1336 1418
632 1443 1633
599 1560 1888
488 1698 2159
216 1820 2427
9 1936 2710
149 2090 2992
889 2299 3279
1120 2376 3469
1339 2421 3623
1484 1597 651
1462 1612 728
1380 1611 855
1219 1611 931
851 1591 950
664 1549 1122
565 1522 1328
577 1501 1468
605 1584 1673
590 1694 1925
473 1831 2204
240 1962 2460
9 2085 2745
37 2216 3011
863 2444 3287
1284 2562 3491
1443 2567 3637
1619 1825 779
1594 1851 868
1497 1842 989
1371 1830 1054
1055 1821 1064
722 1793 1181
619 1785 1399
511 1743 1570
534 1741 1725
527 1847 1964
407 1979 2228
180 2095 2477
5 2213 2746
5 2343 3020
544 2525 3294
1431 2746 3515
1600 2756 3679
1727 2070 973
1725 2100 1023
1626 2096 1114
1515 2095 1181
1268 2085 1205
795 2042 1255
635 2044 1465
432 2016 1668
314 1975 1823
331 1989 1992
236 2107 2249
45 2224 2508
8 2359 2787
4 2484 3048
111 2595 3283
1278 2808 3507
1780 2968 3709
1857 2327 1145
1831 2368 1218
1786 2362 1272
1659 2361 1321
1448 2358 1378
947 2320 1393
627 2334 1579
375 2328 1789
17 2271 1969
5 2250 2120
7 2275 2322
9 2378 2548
6 2501 2806
12 2619 3068
55 2715 3306
1115 2906 3525
1793 3067 3713
1985 2575 1338
1974 2624 1426
1947 2617 1446
1832 2619 1509
1652 2619 1594
1232 2582 1606
723 2575 1676
373 2593 1864
11 2554 2070
11 2502 2225
5 2489 2388
5 2539 2581
17 2641 2842
7 2761 3092
11 2843 3317
767 2963 3513
1669 3114 3702
2159 2836 1599
2174 2880 1690
2131 2873 1711
2055 2875 1775
1892 2880 1846
1572 2848 1897
1009 2831 1882
605 2868 2015
50 2872 2205
12 2830 2390
6 2810 2555
6 2794 2720
3 2829 2893
12 2901 3119
10 3003 3357
361 3089 3532
1578 3192 3706
2325 3052 1852
2356 3093 1972
2320 3101 1986
2256 3106 2027
2129 3094 2101
1866 3075 2151
1370 3062 2157
869 3058 2119
264 3099 2287
8 3073 2440
7 3032 2608
18 3025 2812
9 3040 2976
12 3070 3181
2 3134 3365
55 3168 3529
1376 3268 3686
2679 3423 2354
2693 3432 2405
2632 3433 2416
2589 3442 2444
2484 3442 2452
2297 3434 2485
1916 3436 2516
1354 3406 2458
916 3395 2504
101 3388 2638
10 3359 2778
9 3322 2923
12 3312 3102
10 3325 3275
3 3327 3413
29 3326 3563
1280 3393 3715
2920 3619 2683
2905 3646 2695
2886 3664 2720
2858 3659 2751
2752 3661 2738
2614 3653 2739
2374 3675 2762
1819 3664 2731
1294 3618 2665
518 3609 2731
13 3589 2842
10 3584 2971
3 3573 3178
2 3589 3358
3 3573 3502
1 3486 3593
1069 3526 3755
708 72 147
628 62 139
539 61 221
427 75 294
378 105 441
309 169 628
188 267 830
41 363 1042
6 469 1306
4 581 1592
6 708 1906
0 858 2243
3 1027 2556
3 1249 2850
37 1522 3130
704 1905 3406
1246 2320 3613
720 126 127
632 132 133
509 142 237
437 133 309
409 187 446
370 256 620
286 327 823
161 405 1047
30 490 1290
4 589 1578
10 708 1893
5 849 2223
1 1028 2547
5 1243 2852
39 1530 3138
688 1889 3393
