assets/luts/LUTs by IWLTBAP (3DL)/01 - Standard/W-8370-STD.3dl
# Copyright: (C) Copyright 2010-2020 by IWLTBAP SAS
# Cannot be resold, shared or otherwise redistributed
# Website: https://luts.iwltbap.com
0 128 256 384 512 640 768 896 1023
25 47 54
68 75 117
149 167 414
71 298 821
10 473 1331
10 721 1907
10 1022 2556
36 1531 3142
1259 2335 3629
91 191 67
64 179 187
152 298 455
117 428 863
5 561 1340
7 733 1925
12 1037 2582
47 1536 3149
1246 2298 3605
522 611 207
286 613 357
242 594 627
262 743 966
180 962 1454
3 1212 2027
2 1381 2618
49 1605 3151
1270 2327 3615
944 1078 466
733 1079 585
361 1035 805
391 1041 1103
394 1239 1537
33 1502 2095
4 1777 2684
584 2032 3213
1286 2346 3620
1240 1512 690
1133 1522 805
621 1489 899
382 1450 1261
427 1518 1617
116 1763 2129
6 2042 2711
846 2408 3263
1426 2538 3636
1521 1970 957
1441 2007 1040
940 1997 1091
453 1973 1439
126 1893 1762
7 2037 2194
5 2313 2754
95 2572 3259
1770 2955 3696
1846 2530 1318
1771 2555 1376
1393 2538 1468
465 2512 1605
7 2504 2012
8 2431 2330
6 2605 2803
2 2815 3295
1663 3105 3681
2233 3029 1838
2186 3063 1938
1962 3056 2042
1105 3005 2044
43 3050 2238
5 2996 2593
5 3020 2955
19 3103 3340
1386 3253 3700
2813 3645 2647
2818 3645 2692
2646 3634 2692
2188 3646 2680
1095 3585 2614
0 3587 2817
10 3562 3154
0 3546 3505
1092 3508 3751
306 54 120
168 56 116
132 166 403
61 294 819
5 466 1313
3 707 1908
4 1034 2560
35 1527 3151
1248 2322 3615
430 254 106
307 235 228
356 332 468
256 470 842
12 623 1334
4 792 1922
4 1044 2565
42 1535 3144
1261 2313 3623
856 668 207
711 647 436
502 642 651
529 789 1001
542 1029 1488
130 1255 2053
8 1427 2644
69 1643 3156
1256 2328 3608
1243 1124 449
1080 1140 619
611 1111 827
586 1096 1157
630 1304 1590
459 1572 2135
13 1814 2684
642 2080 3245
1295 2362 3633
1484 1597 651
1380 1611 855
851 1591 950
565 1522 1328
605 1584 1673
473 1831 2204
9 2085 2745
863 2444 3287
1443 2567 3637
1727 2070 973
1626 2096 1114
1268 2085 1205
635 2044 1465
314 1975 1823
236 2107 2249
8 2359 2787
111 2595 3283
1780 2968 3709
1985 2575 1338
1947 2617 1446
1652 2619 1594
723 2575 1676
11 2554 2070
5 2489 2388
17 2641 2842
11 2843 3317
1669 3114 3702
2325 3052 1852
2320 3101 1986
2129 3094 2101
1370 3062 2157
264 3099 2287
7 3032 2608
9 3040 2976
2 3134 3365
1376 3268 3686
2920 3619 2683
2886 3664 2720
2752 3661 2738
2374 3675 2762
1294 3618 2665
13 3589 2842
3 3573 3178
3 3573 3502
1069 3526 3755
1131 84 99
890 79 319
679 98 453
554 206 847
312 423 1303
4 704 1896
4 1029 2555
37 1523 3116
1244 2317 3610
1246 501 25
956 384 361
778 358 546
695 499 886
555 691 1356
165 896 1928
12 1110 2578
46 1537 3149
1247 2299 3608
1198 788 212
1073 745 419
944 775 742
944 860 1023
824 1062 1476
669 1282 2033
59 1500 2626
178 1727 3168
1250 2321 3620
1489 1165 440
1420 1135 594
1209 1146 873
918 1145 1179
925 1339 1594
914 1619 2121
736 1912 2724
716 2148 3243
1302 2373 3620
1818 1597 668
1748 1605 781
1470 1616 1047
876 1579 1315
871 1598 1676
870 1861 2195
768 2164 2756
825 2444 3281
1463 2591 3641
2040 2100 940
1982 2135 1057
1721 2106 1285
970 2075 1436
697 2011 1837
705 2132 2257
675 2419 2805
290 2623 3283
1770 2953 3700
2278 2612 1316
2218 2656 1474
2008 2638 1630
1284 2595 1754
538 2588 2038
9 2491 2373
267 2660 2848
62 2871 3316
1668 3113 3693
2534 3087 1921
2523 3135 2001
2377 3123 2117
1922 3093 2232
861 3080 2246
12 3037 2588
7 3036 2979
12 3142 3347
1381 3257 3685
3055 3629 2698
3035 3645 2746
2936 3656 2789
2650 3665 2779
1631 3637 2738
130 3593 2846
10 3578 3151
4 3574 3515
1066 3522 3752
2034 138 61
1712 93 338
1442 335 679
1231 303 872
1129 473 1337
808 736 1916
398 1035 2540
63 1500 3126
1238 2296 3606
2109 712 101
1788 565 391
1455 540 722
1258 523 916
1147 678 1369
882 928 1935
604 1204 2568
246 1592 3141
1236 2296 3610
2030 1121 329
1825 1039 514
1564 896 802
1326 847 1040
1212 1005 1434
1023 1258 1994
894 1551 2605
713 1896 3182
1255 2319 3623
1796 1283 478
1716 1240 587
1590 1216 845
1451 1285 1251
1390 1418 1597
1215 1668 2126
1190 1971 2720
1126 2268 3243
1364 2468 3623
2024 1667 677
1988 1662 782
1883 1637 1025
1627 1681 1339
1213 1673 1738
1238 1925 2220
1305 2285 2797
1317 2560 3289
1521 2676 3646
2349 2160 989
2327 2177 1079
2220 2170 1234
1836 2160 1554
1076 2109 1861
1093 2168 2279
1224 2480 2835
1201 2728 3310
1768 2948 3713
2646 2689 1359
2629 2713 1465
2473 2687 1609
2118 2659 1889
1137 2610 2001
740 2560 2405
1028 2706 2878
1085 2945 3337
1674 3117 3701
2881 3168 1949
2846 3176 2059
2715 3167 2167
2461 3147 2294
1569 3098 2350
707 3094 2617
162 3060 2964
783 3180 3372
1369 3281 3702
3267 3646 2749
3242 3664 2794
3149 3658 2809
2982 3658 2869
2459 3675 2869
1200 3636 2877
12 3579 3156
6 3566 3494
1061 3535 3755
2908 606 278
2520 475 569
2208 499 873
1938 600 1015
1707 538 1251
1608 703 1788
1257 1054 2541
1094 1478 3120
1288 2192 3619
2896 953 343
2579 805 587
2250 635 851
1942 738 1067
1710 696 1279
1619 871 1829
1292 1213 2572
1171 1627 3136
1296 2193 3584
2893 1464 533
2648 1317 681
2302 1083 910
1939 1017 1175
1726 968 1365
1607 1160 1885
1324 1527 2627
1331 1962 3183
1450 2405 3622
2660 1687 652
2529 1626 766
2338 1568 1029
2070 1433 1340
1790 1353 1555
1623 1560 2040
1456 1950 2714
1586 2368 3264
1622 2649 3659
2340 1805 730
2290 1768 830
2180 1735 1012
2031 1744 1340
1863 1840 1794
1777 2031 2255
1706 2389 2852
1750 2689 3332
1677 2799 3674
2566 2247 1029
2535 2244 1112
2466 2225 1273
2367 2215 1506
1982 2255 1904
1483 2272 2368
1657 2580 2898
1759 2867 3367
1779 2969 3703
2853 2743 1408
2847 2753 1494
2789 2748 1641
2679 2725 1840
2229 2702 2164
1343 2674 2476
1485 2772 2904
1633 3014 3361
1688 3120 3689
3165 3196 1992
3160 3215 2067
3118 3205 2147
2932 3199 2311
2584 3177 2504
1533 3156 2635
1138 3122 3007
1439 3214 3377
1373 3279 3694
3542 3667 2769
3534 3671 2797
3464 3677 2856
3313 3667 2933
3072 3684 3001
2167 3700 3016
1085 3641 3186
231 3583 3478
1047 3557 3765
3526 932 557
3259 826 743
2988 583 955
2587 879 1360
2405 844 1422
2207 794 1679
2192 996 2384
1777 1487 3155
1693 2117 3647
3492 1198 591
3270 1074 769
3024 852 1021
2598 975 1372
2386 961 1446
2226 913 1714
2160 1141 2416
1747 1605 3168
1736 2216 3652
3492 1629 717
3311 1521 876
3037 1340 1106
2678 1148 1362
2394 1195 1538
2216 1161 1780
2140 1400 2470
1760 1878 3204
1820 2434 3674
3373 2058 881
3274 2008 1029
3086 1912 1276
2779 1681 1489
2399 1542 1715
2232 1499 1944
2098 1769 2586
1845 2263 3261
1973 2705 3722
3100 2204 979
3035 2184 1100
2936 2150 1325
2773 2145 1618
2542 2054 1976
2248 1943 2173
2098 2235 2744
2122 2622 3304
2284 2986 3761
2847 2366 1091
2819 2344 1182
2745 2328 1337
2643 2322 1563
2514 2357 1915
2302 2454 2433
2327 2674 2882
2435 2960 3374
2322 3166 3787
3062 2789 1452
3040 2806 1538
2994 2802 1688
2915 2804 1883
2823 2807 2142
2421 2813 2531
2040 2849 2955
2291 3114 3424
1936 3199 3759
3315 3263 2068
3308 3280 2110
3293 3272 2214
3240 3262 2326
3138 3256 2518
2727 3240 2765
1711 3194 3039
1866 3271 3405
1716 3344 3743
3713 3705 2809
3709 3710 2815
3690 3712 2874
3667 3704 2939
3548 3710 3074
3230 3722 3191
2100 3725 3244
1523 3626 3518
1438 3628 3771
3926 1241 804
3779 1156 927
3622 1018 1172
3353 1063 1543
3060 1207 1812
2914 1152 1909
2795 1107 2285
2676 1353 2963
2343 2098 3697
3903 1437 855
3796 1355 982
3624 1215 1233
3372 1148 1534
3049 1317 1850
2907 1249 1937
2792 1208 2282
2659 1454 2978
2384 2191 3684
3850 1807 981
3766 1740 1110
3618 1644 1359
3398 1403 1566
3033 1526 1917
2892 1464 1992
2760 1411 2355
2643 1675 3021
2448 2377 3703
3783 2249 1260
3723 2201 1348
3614 2143 1565
3407 1991 1772
3089 1800 1985
2861 1790 2147
2719 1717 2445
2575 2020 3103
2556 2632 3709
3652 2534 1454
3608 2519 1550
3544 2544 1770
3393 2548 2032
3179 2343 2209
2829 2180 2369
2689 2085 2581
2539 2406 3176
2646 2905 3731
3451 2677 1497
3429 2674 1589
3358 2680 1759
3265 2704 2003
3165 2738 2316
2970 2666 2603
2670 2504 2734
2653 2800 3242
2871 3189 3721
3275 2876 1603
3260 2875 1678
3224 2875 1807
3153 2875 1991
3068 2873 2202
2940 2891 2508
2729 2946 2927
2905 3184 3355
3051 3435 3762
3531 3300 2148
3507 3302 2182
3494 3314 2274
3460 3315 2393
3365 3319 2554
3271 3302 2751
2895 3293 3039
2629 3327 3436
2829 3525 3832
3832 3737 2909
3837 3734 2919
3836 3761 2987
3807 3755 3034
3791 3768 3122
3737 3763 3219
3439 3766 3392
2404 3742 3582
2684 3768 3897
4092 1591 1199
4094 1553 1301
4040 1502 1511
3913 1424 1731
3587 1689 2194
3452 1655 2297
3327 1535 2416
3276 1556 2939
3177 1960 3576
4085 1736 1246
4091 1717 1346
4029 1679 1570
3910 1535 1765
3587 1736 2185
3424 1726 2321
3307 1603 2426
3263 1609 2951
3167 2007 3591
4091 2027 1392
4083 2009 1488
4003 1981 1668
3889 1861 1902
3620 1873 2199
3390 1893 2388
3273 1795 2489
3229 1785 2965
3115 2175 3601
4055 2432 1667
4029 2416 1742
3964 2393 1883
3856 2321 2096
3685 2112 2227
3333 2156 2515
3235 2062 2583
3187 2044 2999
3118 2391 3596
3974 2825 1998
3936 2823 2048
3886 2824 2193
3806 2766 2349
3692 2611 2458
3407 2427 2612
3208 2370 2716
3160 2318 3049
3108 2675 3618
3836 2978 2063
3818 2978 2114
3797 3004 2269
3743 3037 2473
3675 3058 2688
3529 2876 2787
3212 2701 2882
3120 2636 3138
3117 2992 3658
3698 3098 2086
3691 3113 2139
3665 3126 2240
3644 3140 2398
3597 3163 2615
3525 3212 2876
3379 3148 3103
3125 3005 3217
3243 3339 3704
3672 3343 2300
3671 3349 2328
3641 3349 2390
3617 3339 2489
3575 3350 2618
3507 3363 2777
3383 3363 3058
3246 3410 3416
3500 3680 3790
3955 3801 3110
3960 3804 3118
3967 3802 3147
3957 3803 3196
3946 3819 3246
3928 3836 3366
3885 3837 3483
3705 3865 3677
3627 3884 3900
4095 2091 1754
4095 2057 1788
4092 2095 2025
4095 2081 2222
4063 2210 2510
3850 2315 2807
3771 2212 2850
3720 2124 3030
3793 2251 3602
4084 2184 1801
4095 2160 1859
4094 2198 2059
4090 2166 2256
4063 2250 2525
3826 2351 2822
3762 2259 2854
3703 2166 3041
3762 2280 3567
4094 2388 1928
4095 2374 1986
4090 2410 2148
4093 2371 2334
4077 2319 2514
3810 2454 2846
3734 2370 2893
3689 2294 3046
3745 2373 3565
4090 2667 2113
4090 2667 2164
4095 2671 2311
4094 2649 2466
4084 2537 2569
3845 2573 2863
3696 2537 2979
3634 2466 3078
3712 2520 3563
4095 2999 2384
4087 2994 2418
4093 2995 2515
4074 2974 2649
4050 2881 2757
3955 2719 2847
3684 2745 3061
3625 2683 3147
3677 2700 3556
4082 3230 2559
4078 3235 2599
4054 3266 2706
4024 3286 2849
3992 3242 2955
3958 3114 3008
3729 2975 3153
3621 2935 3243
3663 2934 3619
4011 3357 2661
3998 3368 2697
3983 3388 2769
3975 3404 2883
3958 3450 3046
3952 3493 3242
3882 3368 3313
3640 3246 3392
3666 3232 3677
3954 3502 2763
3945 3515 2765
3939 3525 2819
3917 3551 2936
3915 3570 3045
3907 3610 3201
3887 3659 3427
3842 3659 3624
3702 3599 3745
4082 3883 3370
4082 3882 3366
4061 3883 3369
4069 3882 3409
4056 3899 3493
4058 3930 3564
4046 3934 3679
4026 3989 3827
4023 4006 4003
