assets/luts/LUTs by IWLTBAP (3DL)/01 - Standard/W-8370-STD.3dl
# Copyright: (C) Copyright 2010-2020 by IWLTBAP SAS
# Cannot be resold, shared or otherwise redistributed
# Website: https://luts.iwltbap.com
0 256 512 768 1023
25 47 54
149 167 414
10 473 1331
10 1022 2556
1259 2335 3629
522 611 207
242 594 627
180 962 1454
2 1381 2618
1270 2327 3615
1240 1512 690
621 1489 899
427 1518 1617
6 2042 2711
1426 2538 3636
1846 2530 1318
1393 2538 1468
7 2504 2012
6 2605 2803
1663 3105 3681
2813 3645 2647
2646 3634 2692
1095 3585 2614
10 3562 3154
1092 3508 3751
1131 84 99
679 98 453
312 423 1303
4 1029 2555
1244 2317 3610
1198 788 212
944 775 742
824 1062 1476
59 1500 2626
1250 2321 3620
1818 1597 668
1470 1616 1047
871 1598 1676
768 2164 2756
1463 2591 3641
2278 2612 1316
2008 2638 1630
538 2588 2038
267 2660 2848
1668 3113 3693
3055 3629 2698
2936 3656 2789
1631 3637 2738
10 3578 3151
1066 3522 3752
2908 606 278
2208 499 873
1707 538 1251
1257 1054 2541
1288 2192 3619
2893 1464 533
2302 1083 910
1726 968 1365
1324 1527 2627
1450 2405 3622
2340 1805 730
2180 1735 1012
1863 1840 1794
1706 2389 2852
1677 2799 3674
2853 2743 1408
2789 2748 1641
2229 2702 2164
1485 2772 2904
1688 3120 3689
3542 3667 2769
3464 3677 2856
3072 3684 3001
1085 3641 3186
1047 3557 3765
3926 1241 804
3622 1018 1172
3060 1207 1812
2795 1107 2285
2343 2098 3697
3850 1807 981
3618 1644 1359
3033 1526 1917
2760 1411 2355
2448 2377 3703
3652 2534 1454
3544 2544 1770
3179 2343 2209
2689 2085 2581
2646 2905 3731
3275 2876 1603
3224 2875 1807
3068 2873 2202
2729 2946 2927
3051 3435 3762
3832 3737 2909
3836 3761 2987
3791 3768 3122
3439 3766 3392
2684 3768 3897
4095 2091 1754
4092 2095 2025
4063 2210 2510
3771 2212 2850
3793 2251 3602
4094 2388 1928
4090 2410 2148
4077 2319 2514
3734 2370 2893
3745 2373 3565
4095 2999 2384
4093 2995 2515
4050 2881 2757
3684 2745 3061
3677 2700 3556
4011 3357 2661
3983 3388 2769
3958 3450 3046
3882 3368 3313
3666 3232 3677
4082 3883 3370
4061 3883 3369
4056 3899 3493
4046 3934 3679
4023 4006 4003
