assets/luts/LUTs by IWLTBAP (3DL)/01 - Standard/X-6500-STD.3dl
# Copyright: (C) Copyright 2010-2020 by IWLTBAP SAS
# Cannot be resold, shared or otherwise redistributed
# Website: https://luts.iwltbap.com
0 256 512 768 1023
198 260 267
255 312 470
484 557 914
790 890 1436
1048 1180 1868
356 591 468
411 687 745
657 864 1214
940 1130 1693
1164 1364 2066
742 1233 880
831 1428 1196
966 1575 1731
1220 1718 2174
1409 1854 2497
1204 1984 1398
1282 2154 1692
1352 2336 2191
1501 2434 2645
1668 2495 2936
1598 2624 1883
1650 2754 2157
1707 2911 2572
1763 3041 3008
1878 3099 3289
615 431 446
616 416 519
619 585 1013
816 891 1435
1053 1184 1869
643 573 488
664 765 771
779 958 1302
1000 1180 1743
1204 1409 2114
751 1209 857
866 1440 1172
1020 1648 1757
1285 1803 2241
1449 1902 2542
1224 1999 1404
1312 2173 1684
1399 2378 2196
1541 2496 2681
1702 2549 2978
1620 2648 1896
1675 2780 2162
1735 2943 2585
1790 3083 3034
1903 3146 3322
1386 930 953
1384 934 983
1459 964 1228
1403 1050 1730
1308 1241 2075
1453 1013 993
1518 1127 1132
1590 1203 1476
1523 1302 1983
1476 1487 2306
1538 1313 1094
1601 1512 1264
1712 1875 1907
1712 1981 2422
1664 1970 2643
1440 1982 1355
1562 2171 1638
1695 2446 2189
1770 2618 2751
1832 2623 3047
1685 2632 1862
1760 2769 2114
1826 2958 2541
1868 3125 3031
1954 3196 3351
1963 1327 1355
1958 1336 1377
2011 1365 1520
2127 1411 1907
2095 1463 2322
2039 1406 1398
2078 1473 1480
2135 1554 1706
2227 1580 2097
2170 1626 2484
2181 1651 1521
2253 1793 1653
2397 2052 2055
2487 2177 2561
2295 2047 2837
2255 2070 1628
2322 2243 1790
2496 2566 2272
2610 2889 2981
2415 2807 3270
2163 2623 1814
2210 2764 2008
2300 2989 2466
2347 3242 3080
2281 3326 3463
2231 1517 1544
2239 1536 1572
2292 1576 1683
2394 1624 1969
2519 1659 2393
2314 1597 1591
2358 1655 1657
2415 1741 1837
2520 1786 2146
2619 1776 2541
2480 1836 1724
2560 1948 1830
2682 2131 2113
2791 2243 2517
2819 2094 2823
2698 2204 1903
2778 2337 2010
2938 2613 2363
3144 2980 3020
3172 2943 3378
2882 2643 2066
2929 2744 2147
3041 2976 2445
3251 3352 3159
3273 3631 3787
