assets/luts/LUTs by IWLTBAP (3DL)/01 - Standard/X-6500-STD.3dl
# Copyright: (C) Copyright 2010-2020 by IWLTBAP SAS
# Cannot be resold, shared or otherwise redistributed
# Website: https://luts.iwltbap.com
0 128 256 384 512 640 768 896 1023
198 260 267
220 273 343
255 312 470
356 420 680
484 557 914
640 723 1178
790 890 1436
926 1040 1663
1048 1180 1868
240 384 328
252 416 436
308 448 572
409 528 773
551 659 1023
694 806 1271
835 956 1511
973 1111 1743
1099 1258 1956
356 591 468
367 637 566
411 687 745
512 734 948
657 864 1214
807 1004 1469
940 1130 1693
1050 1235 1875
1164 1364 2066
526 874 647
558 953 756
595 1049 960
663 1100 1209
789 1154 1433
940 1277 1697
1080 1405 1938
1187 1494 2117
1265 1551 2244
742 1233 880
782 1317 997
831 1428 1196
874 1533 1476
966 1575 1731
1092 1628 1952
1220 1718 2174
1331 1803 2363
1409 1854 2497
974 1613 1137
1018 1699 1254
1065 1806 1445
1108 1914 1707
1156 1988 1983
1251 2028 2215
1364 2077 2418
1466 2132 2591
1546 2173 2727
1204 1984 1398
1242 2061 1515
1282 2154 1692
1320 2252 1928
1352 2336 2191
1410 2394 2437
1501 2434 2645
1592 2468 2810
1668 2495 2936
1412 2321 1647
1443 2389 1765
1476 2468 1928
1510 2555 2140
1537 2640 2385
1570 2709 2628
1633 2757 2840
1709 2787 3005
1775 2807 3125
1598 2624 1883
1624 2685 2004
1650 2754 2157
1681 2831 2350
1707 2911 2572
1728 2984 2801
1763 3041 3008
1821 3077 3171
1878 3099 3289
360 293 293
367 295 362
360 320 513
386 419 686
499 557 913
644 723 1176
786 883 1422
926 1040 1661
1053 1187 1876
377 384 324
358 431 443
379 478 596
457 563 814
576 678 1047
710 819 1285
850 973 1528
985 1126 1760
1111 1274 1974
377 584 454
394 643 551
430 716 749
527 763 959
671 883 1225
825 1030 1493
957 1154 1715
1067 1258 1899
1179 1384 2089
525 865 633
567 959 755
600 1055 965
676 1127 1219
811 1193 1464
961 1314 1728
1102 1440 1971
1206 1523 2145
1282 1574 2269
745 1235 880
794 1329 997
845 1444 1198
891 1556 1483
981 1606 1745
1111 1666 1979
1244 1758 2206
1350 1835 2390
1425 1878 2520
986 1627 1145
1030 1712 1257
1080 1823 1448
1126 1935 1713
1175 2015 1993
1270 2062 2236
1384 2112 2444
1485 2164 2617
1562 2201 2750
1217 2000 1409
1254 2076 1521
1296 2170 1695
1337 2271 1933
1371 2359 2200
1427 2422 2453
1517 2464 2665
1608 2498 2832
1683 2523 2958
1424 2337 1657
1456 2405 1773
1489 2485 1934
1525 2574 2148
1554 2661 2395
1586 2733 2642
1648 2783 2857
1723 2814 3023
1788 2833 3145
1610 2641 1895
1635 2702 2013
1663 2771 2166
1694 2849 2359
1721 2930 2585
1743 3005 2816
1777 3064 3025
1834 3102 3189
1891 3124 3307
615 431 446
612 431 465
616 416 519
611 454 744
619 585 1013
696 734 1217
816 891 1435
940 1043 1663
1053 1184 1869
658 489 471
647 514 519
671 549 643
659 589 879
675 696 1106
765 838 1313
891 991 1550
1012 1141 1775
1123 1282 1981
643 573 488
674 656 567
664 765 771
691 848 1033
779 958 1302
890 1073 1539
1000 1180 1743
1103 1285 1929
1204 1409 2114
595 860 587
644 948 724
672 1064 921
734 1170 1221
875 1251 1500
1017 1369 1771
1145 1482 2008
1242 1556 2177
1308 1601 2296
751 1209 857
806 1311 972
866 1440 1172
924 1572 1463
1020 1648 1757
1157 1718 2013
1285 1803 2241
1383 1870 2419
1449 1902 2542
990 1617 1134
1042 1709 1245
1098 1822 1430
1154 1945 1698
1209 2041 1992
1304 2100 2252
1417 2153 2469
1514 2198 2642
1585 2226 2772
1224 1999 1404
1266 2077 1514
1312 2173 1684
1360 2281 1922
1399 2378 2196
1454 2450 2459
1541 2496 2681
1630 2529 2852
1702 2549 2978
1434 2340 1656
1468 2409 1768
1503 2491 1927
1542 2584 2141
1574 2676 2392
1607 2754 2646
1665 2808 2867
1739 2840 3038
1803 2858 3162
1620 2648 1896
1647 2709 2011
1675 2780 2162
1706 2860 2357
1735 2943 2585
1757 3021 2821
1790 3083 3034
1846 3123 3201
1903 3146 3322
988 662 679
978 661 689
987 662 725
1017 670 844
1028 696 1106
967 802 1363
986 933 1591
1031 1067 1751
1107 1203 1903
1006 690 689
1030 729 736
1046 761 813
1069 748 926
1059 779 1197
1027 894 1470
1058 1033 1701
1124 1179 1867
1192 1312 2027
1068 777 737
1085 816 779
1119 909 914
1154 982 1127
1139 1036 1426
1123 1130 1667
1156 1230 1840
1218 1333 2001
1281 1445 2163
1081 912 774
1098 968 813
1145 1107 969
1157 1283 1303
1190 1389 1629
1241 1478 1885
1294 1547 2082
1345 1600 2230
1386 1643 2345
988 1206 836
1022 1308 925
1075 1449 1127
1140 1616 1455
1224 1744 1807
1329 1819 2088
1412 1877 2305
1473 1917 2466
1512 1933 2577
1052 1598 1099
1118 1690 1214
1196 1815 1401
1268 1958 1675
1336 2086 1994
1422 2166 2283
1512 2215 2512
1584 2244 2681
1635 2256 2802
1257 1982 1384
1310 2064 1493
1370 2167 1661
1429 2285 1901
1477 2401 2185
1528 2488 2465
1603 2541 2702
1679 2568 2878
1740 2580 3004
1457 2330 1643
1497 2401 1753
1539 2486 1908
1583 2586 2120
1620 2688 2377
1652 2776 2641
1702 2836 2874
1770 2870 3053
1829 2885 3181
1637 2644 1887
1666 2706 1997
1696 2778 2143
1729 2862 2337
1760 2951 2569
1783 3035 2813
1813 3101 3035
1863 3144 3208
1919 3168 3334
1386 930 953
1367 921 948
1384 934 983
1406 943 1055
1459 964 1228
1475 973 1497
1403 1050 1730
1347 1143 1917
1308 1241 2075
1396 945 953
1410 967 981
1428 997 1041
1455 1010 1127
1504 1022 1303
1511 1038 1572
1458 1134 1824
1428 1245 2033
1395 1350 2192
1453 1013 993
1470 1049 1028
1518 1127 1132
1549 1195 1282
1590 1203 1476
1574 1229 1743
1523 1302 1983
1496 1392 2174
1476 1487 2306
1532 1137 1061
1545 1180 1092
1589 1283 1204
1650 1433 1436
1694 1537 1727
1672 1584 2010
1621 1620 2215
1587 1651 2348
1566 1689 2444
1538 1313 1094
1558 1384 1140
1601 1512 1264
1669 1696 1537
1712 1875 1907
1730 1959 2214
1712 1981 2422
1687 1980 2554
1664 1970 2643
1465 1620 1158
1491 1711 1243
1543 1839 1406
1620 2002 1685
1690 2172 2041
1733 2283 2368
1754 2320 2602
1760 2317 2753
1757 2296 2854
1440 1982 1355
1493 2065 1464
1562 2171 1638
1637 2303 1885
1695 2446 2189
1731 2560 2499
1770 2618 2751
1807 2632 2927
1832 2623 3047
1546 2320 1608
1595 2392 1720
1649 2481 1878
1703 2589 2096
1747 2707 2360
1773 2813 2641
1805 2883 2891
1851 2915 3079
1891 2924 3211
1685 2632 1862
1724 2694 1971
1760 2769 2114
1795 2859 2306
1826 2958 2541
1847 3051 2796
1868 3125 3031
1906 3172 3217
1954 3196 3351
1715 1155 1180
1708 1155 1184
1706 1158 1202
1725 1167 1257
1776 1194 1386
1834 1214 1593
1858 1229 1849
1791 1279 2054
1701 1341 2207
1737 1177 1190
1745 1192 1209
1752 1214 1252
1777 1232 1324
1819 1252 1456
1875 1270 1669
1892 1291 1923
1835 1355 2135
1761 1427 2301
1787 1235 1222
1805 1264 1251
1834 1317 1324
1857 1371 1440
1900 1399 1595
1942 1408 1808
1936 1427 2048
1882 1482 2254
1814 1546 2419
1863 1346 1285
1881 1387 1319
1919 1467 1408
1970 1574 1575
2024 1669 1802
2059 1706 2048
2024 1710 2272
1950 1717 2448
1871 1732 2576
1915 1497 1341
1938 1558 1385
1979 1661 1485
2051 1810 1689
2136 1982 1995
2180 2087 2306
2135 2094 2535
2039 2057 2676
1940 2009 2757
1917 1717 1380
1939 1796 1440
1979 1911 1558
2057 2070 1781
2159 2266 2120
2211 2424 2484
2181 2466 2739
2099 2426 2880
2005 2352 2951
1861 2009 1454
1887 2091 1536
1927 2199 1673
1998 2340 1898
2088 2511 2219
2136 2671 2577
2128 2747 2858
2091 2741 3029
2039 2694 3129
1815 2323 1603
1850 2397 1700
1894 2488 1846
1952 2605 2065
2017 2742 2352
2051 2877 2666
2053 2967 2943
2053 2996 3139
2044 2988 3272
1820 2627 1804
1862 2690 1911
1909 2764 2059
1956 2859 2261
1994 2968 2510
2013 3078 2781
2016 3167 3038
2026 3220 3240
2047 3242 3386
1963 1327 1355
1959 1330 1361
1958 1336 1377
1973 1345 1421
2011 1365 1520
2070 1393 1688
2127 1411 1907
2145 1426 2136
2095 1463 2322
1989 1352 1369
1999 1368 1387
2003 1386 1419
2021 1406 1481
2059 1428 1592
2115 1452 1763
2168 1467 1982
2180 1488 2207
2131 1530 2392
2039 1406 1398
2057 1433 1425
2078 1473 1480
2096 1519 1574
2135 1554 1706
2186 1574 1884
2227 1580 2097
2223 1594 2308
2170 1626 2484
2108 1509 1455
2131 1550 1491
2168 1612 1563
2209 1693 1693
2254 1773 1874
2309 1815 2082
2334 1813 2291
2298 1796 2477
2222 1787 2628
2181 1651 1521
2209 1708 1566
2253 1793 1653
2319 1911 1812
2397 2052 2055
2470 2163 2331
2487 2177 2561
2414 2123 2726
2295 2047 2837
2236 1837 1579
2267 1906 1631
2314 2005 1727
2389 2145 1905
2497 2328 2193
2593 2511 2545
2611 2584 2826
2527 2534 2992
2378 2419 3077
2255 2070 1628
2283 2143 1687
2322 2243 1790
2388 2383 1976
2496 2566 2272
2597 2765 2653
2610 2889 2981
2541 2887 3172
2415 2807 3270
2224 2340 1700
2247 2410 1768
2275 2501 1878
2322 2626 2066
2404 2782 2352
2487 2953 2708
2495 3084 3038
2446 3126 3257
2367 3102 3388
2163 2623 1814
2184 2686 1890
2210 2764 2008
2247 2865 2196
2300 2989 2466
2348 3125 2782
2347 3242 3080
2311 3308 3305
2281 3326 3463
2134 1448 1476
2135 1454 1485
2136 1462 1502
2151 1474 1540
2183 1492 1621
2232 1517 1759
2293 1540 1946
2345 1554 2164
2374 1567 2383
2163 1474 1491
2174 1490 1510
2182 1510 1539
2197 1533 1596
2232 1556 1690
2282 1581 1835
2340 1599 2023
2389 1610 2237
2410 1623 2448
2211 1525 1519
2231 1552 1545
2251 1586 1591
2269 1629 1673
2304 1667 1789
2354 1693 1944
2408 1702 2130
2446 1701 2333
2452 1703 2528
2279 1624 1574
2306 1663 1609
2342 1716 1670
2381 1784 1778
2420 1853 1931
2472 1897 2111
2522 1900 2300
2539 1872 2484
2512 1841 2647
2364 1763 1645
2396 1816 1689
2442 1889 1765
2503 1987 1896
2567 2100 2093
2629 2197 2329
2685 2223 2545
2679 2168 2711
2603 2078 2834
2452 1937 1722
2487 1999 1769
2536 2085 1851
2607 2208 2000
2697 2363 2237
2790 2530 2544
2860 2629 2825
2847 2587 3003
2731 2453 3107
2529 2143 1791
2561 2206 1837
2606 2295 1919
2672 2425 2072
2770 2597 2328
2887 2800 2683
2963 2966 3034
2953 2995 3259
2852 2906 3389
2572 2377 1851
2598 2436 1897
2631 2519 1978
2681 2640 2128
2764 2802 2382
2879 2996 2738
2949 3174 3115
2927 3261 3386
2848 3251 3548
2576 2625 1916
2594 2680 1966
2615 2752 2049
2643 2856 2196
2696 2997 2438
2786 3168 2778
2837 3327 3139
2796 3430 3420
2728 3467 3609
2231 1517 1544
2234 1524 1554
2239 1536 1572
2257 1554 1610
2292 1576 1683
2338 1600 1803
2394 1624 1969
2458 1643 2170
2519 1659 2393
2263 1545 1560
2275 1560 1578
2287 1582 1608
2305 1610 1661
2342 1639 1748
2391 1666 1878
2447 1687 2045
2507 1700 2243
2564 1708 2462
2314 1597 1591
2335 1622 1616
2358 1655 1657
2380 1698 1729
2415 1741 1837
2465 1771 1977
2520 1786 2146
2573 1785 2336
2619 1776 2541
2387 1697 1648
2415 1733 1681
2451 1780 1734
2493 1841 1826
2531 1906 1963
2579 1951 2126
2633 1961 2298
2675 1936 2475
2700 1890 2655
2480 1836 1724
2513 1884 1765
2560 1948 1830
2621 2034 1943
2682 2131 2113
2733 2214 2318
2791 2243 2517
2828 2197 2685
2819 2094 2823
2587 2007 1813
2622 2062 1854
2672 2139 1926
2744 2249 2056
2828 2383 2258
2904 2520 2519
2979 2620 2782
3027 2597 2970
2978 2450 3064
2698 2204 1903
2731 2258 1941
2778 2337 2010
2847 2456 2142
2938 2613 2363
3043 2799 2676
3144 2980 3020
3203 3042 3260
3172 2943 3378
2801 2419 1988
2827 2468 2022
2865 2539 2083
2924 2649 2203
3008 2805 2419
3119 3002 2747
3231 3211 3140
3286 3347 3448
3288 3369 3647
2882 2643 2066
2902 2685 2095
2929 2744 2147
2972 2838 2250
3041 2976 2445
3143 3156 2764
3251 3352 3159
3290 3521 3515
3273 3631 3787
