assets/luts/LUTs by IWLTBAP (3DL)/01 - Standard/X-6500-STD.3dl
# Copyright: (C) Copyright 2010-2020 by IWLTBAP SAS
# Cannot be resold, shared or otherwise redistributed
# Website: https://luts.iwltbap.com
0 64 128 192 256 320 384 448 512 576 640 704 768 832 896 960 1023
198 260 267
208 263 299
220 273 343
235 294 407
255 312 470
298 358 565
356 420 680
420 488 797
484 557 914
562 640 1047
640 723 1178
716 807 1309
790 890 1436
860 967 1553
926 1040 1663
990 1113 1770
1048 1180 1868
209 312 290
210 324 333
230 336 383
257 357 449
277 370 516
320 405 605
380 464 719
447 530 841
512 597 959
585 673 1085
664 757 1219
737 838 1344
811 920 1470
881 998 1587
948 1074 1702
1014 1149 1812
1073 1218 1910
240 384 328
238 399 374
252 416 436
283 437 505
308 448 572
350 479 663
409 528 773
480 592 899
551 659 1023
619 728 1143
694 806 1271
764 880 1390
835 956 1511
904 1033 1627
973 1111 1743
1039 1188 1855
1099 1258 1956
296 482 393
298 500 436
300 518 499
321 539 579
351 547 647
398 575 742
456 622 856
525 682 982
602 754 1115
676 827 1244
744 891 1359
810 955 1471
878 1024 1585
942 1091 1691
1006 1163 1800
1070 1237 1907
1130 1307 2008
356 591 468
363 617 511
367 637 566
377 666 651
411 687 745
457 702 839
512 734 948
580 791 1075
657 864 1214
738 943 1352
807 1004 1469
875 1068 1584
940 1130 1693
996 1182 1784
1050 1235 1875
1108 1299 1972
1164 1364 2066
433 717 549
448 758 600
455 787 654
467 820 739
491 865 850
528 880 961
580 896 1066
647 936 1185
718 994 1316
798 1067 1457
872 1136 1584
945 1204 1708
1011 1264 1817
1065 1309 1906
1114 1350 1986
1159 1391 2062
1207 1441 2141
526 874 647
541 914 696
558 953 756
574 993 843
595 1049 960
618 1084 1086
663 1100 1209
726 1123 1321
789 1154 1433
863 1209 1564
940 1277 1697
1013 1346 1825
1080 1405 1938
1137 1453 2034
1187 1494 2117
1228 1523 2184
1265 1551 2244
631 1050 760
649 1089 810
666 1130 871
689 1180 962
710 1234 1074
729 1287 1211
764 1321 1351
816 1338 1474
875 1356 1578
941 1387 1694
1013 1441 1819
1082 1497 1940
1150 1555 2055
1208 1605 2156
1260 1647 2243
1301 1676 2313
1336 1697 2371
742 1233 880
763 1275 932
782 1317 997
805 1370 1085
831 1428 1196
853 1486 1332
874 1533 1476
914 1559 1612
966 1575 1731
1028 1595 1841
1092 1628 1952
1157 1670 2064
1220 1718 2174
1279 1764 2274
1331 1803 2363
1373 1832 2435
1409 1854 2497
855 1421 1006
879 1464 1058
901 1509 1124
924 1561 1213
950 1618 1319
973 1677 1449
993 1730 1592
1017 1766 1735
1060 1789 1864
1112 1806 1980
1172 1829 2087
1232 1858 2192
1293 1895 2296
1349 1931 2391
1399 1965 2478
1442 1991 2551
1479 2013 2615
974 1613 1137
996 1654 1189
1018 1699 1254
1042 1751 1341
1065 1806 1445
1088 1861 1569
1108 1914 1707
1127 1957 1848
1156 1988 1983
1200 2009 2104
1251 2028 2215
1307 2050 2319
1364 2077 2418
1417 2105 2509
1466 2132 2591
1508 2154 2662
1546 2173 2727
1091 1801 1269
1111 1841 1322
1132 1884 1385
1154 1932 1470
1176 1984 1570
1197 2036 1688
1216 2087 1819
1233 2132 1955
1255 2168 2089
1287 2195 2215
1330 2216 2331
1380 2237 2437
1433 2258 2535
1483 2279 2623
1531 2300 2702
1571 2318 2771
1609 2335 2834
1204 1984 1398
1223 2021 1452
1242 2061 1515
1262 2106 1596
1282 2154 1692
1302 2203 1804
1320 2252 1928
1336 2297 2059
1352 2336 2191
1377 2368 2318
1410 2394 2437
1453 2415 2546
1501 2434 2645
1548 2451 2733
1592 2468 2810
1632 2482 2876
1668 2495 2936
1311 2156 1524
1328 2192 1579
1345 2229 1641
1363 2270 1719
1381 2315 1811
1400 2361 1917
1417 2407 2035
1432 2452 2160
1447 2493 2289
1464 2528 2415
1490 2557 2535
1525 2581 2646
1567 2600 2747
1610 2616 2834
1651 2631 2911
1688 2642 2975
1723 2653 3034
1412 2321 1647
1428 2354 1703
1443 2389 1765
1459 2427 1840
1476 2468 1928
1493 2512 2029
1510 2555 2140
1524 2599 2261
1537 2640 2385
1551 2677 2509
1570 2709 2628
1598 2735 2739
1633 2757 2840
1672 2773 2928
1709 2787 3005
1743 2798 3068
1775 2807 3125
1507 2475 1766
1521 2506 1823
1535 2540 1885
1549 2575 1958
1565 2613 2043
1581 2654 2139
1597 2696 2246
1611 2737 2360
1623 2778 2479
1635 2816 2599
1649 2849 2716
1669 2878 2825
1698 2902 2926
1731 2920 3014
1766 2935 3090
1797 2945 3153
1826 2955 3209
1598 2624 1883
1611 2654 1941
1624 2685 2004
1637 2719 2076
1650 2754 2157
1666 2792 2249
1681 2831 2350
1695 2871 2459
1707 2911 2572
1717 2949 2688
1728 2984 2801
1743 3015 2909
1763 3041 3008
1790 3062 3096
1821 3077 3171
1851 3089 3234
1878 3099 3289
271 269 268
269 272 307
277 278 360
279 293 426
286 314 487
313 358 566
364 421 678
423 486 793
487 555 912
564 640 1046
641 723 1178
716 807 1307
790 889 1434
861 969 1554
928 1043 1667
992 1116 1774
1052 1186 1874
277 316 281
270 332 340
275 342 392
288 363 452
309 384 530
342 417 621
395 475 732
457 537 850
520 602 967
592 679 1092
668 762 1223
744 845 1353
817 927 1478
886 1006 1597
953 1080 1709
1018 1155 1818
1079 1225 1920
281 383 319
276 399 371
279 421 431
299 446 498
332 465 585
370 497 683
425 541 790
491 601 911
561 669 1036
628 737 1155
701 813 1280
773 890 1403
842 965 1520
910 1043 1637
978 1119 1752
1045 1195 1863
1107 1267 1967
308 480 390
306 496 426
306 518 487
329 549 574
361 563 652
406 589 749
463 632 860
530 690 986
607 762 1121
682 832 1250
753 902 1371
819 967 1483
883 1032 1592
948 1101 1701
1013 1173 1810
1077 1245 1918
1138 1317 2019
362 594 464
370 620 507
374 644 562
383 678 651
417 701 747
461 716 843
514 744 950
583 798 1077
661 871 1218
741 948 1356
815 1017 1482
884 1082 1596
948 1142 1704
1004 1195 1797
1058 1247 1887
1115 1310 1984
1172 1375 2079
433 716 543
452 760 597
461 793 656
470 825 743
494 867 855
534 893 969
585 909 1073
653 950 1195
729 1012 1332
807 1081 1469
882 1151 1599
955 1221 1723
1021 1279 1832
1075 1324 1922
1123 1364 2001
1168 1404 2076
1216 1453 2155
526 868 640
545 912 693
564 959 759
577 997 846
596 1051 963
626 1097 1095
670 1115 1216
733 1138 1330
801 1175 1451
874 1229 1581
950 1296 1713
1024 1365 1842
1091 1423 1956
1147 1469 2049
1196 1509 2132
1237 1537 2198
1274 1563 2257
635 1052 762
653 1093 811
672 1137 874
696 1189 965
717 1244 1078
738 1302 1218
771 1336 1357
821 1351 1479
883 1372 1590
950 1407 1708
1023 1462 1834
1095 1520 1958
1161 1576 2073
1218 1623 2172
1269 1662 2257
1310 1690 2326
1345 1710 2384
746 1239 884
768 1283 936
789 1327 1000
813 1380 1090
839 1439 1202
862 1498 1338
883 1547 1483
921 1575 1619
974 1592 1740
1036 1614 1853
1101 1648 1966
1168 1692 2081
1232 1738 2191
1290 1782 2290
1340 1819 2377
1382 1846 2448
1417 1867 2509
863 1430 1011
885 1472 1062
908 1518 1127
932 1572 1217
958 1630 1325
982 1688 1455
1002 1742 1598
1026 1781 1741
1068 1804 1872
1121 1824 1990
1181 1847 2100
1242 1877 2207
1303 1914 2311
1359 1949 2406
1409 1982 2492
1450 2006 2563
1487 2027 2627
981 1622 1143
1002 1662 1193
1025 1706 1256
1049 1760 1343
1073 1816 1449
1097 1873 1574
1117 1926 1712
1137 1969 1854
1165 2002 1989
1209 2025 2113
1260 2045 2227
1317 2069 2332
1374 2095 2431
1427 2122 2522
1475 2148 2604
1517 2169 2675
1554 2187 2739
1099 1811 1275
1118 1850 1326
1139 1892 1389
1161 1941 1471
1184 1994 1573
1206 2047 1691
1225 2098 1822
1242 2143 1960
1264 2181 2095
1296 2209 2223
1339 2232 2340
1388 2253 2448
1441 2274 2547
1492 2295 2635
1539 2316 2715
1580 2333 2783
1617 2349 2845
1211 1993 1404
1230 2030 1457
1249 2070 1519
1269 2115 1599
1289 2163 1695
1310 2213 1808
1328 2262 1932
1344 2308 2064
1361 2349 2197
1385 2381 2325
1418 2408 2446
1461 2430 2556
1509 2449 2656
1556 2467 2744
1600 2483 2821
1639 2497 2887
1676 2510 2948
1317 2165 1530
1335 2201 1584
1352 2238 1646
1370 2279 1723
1389 2324 1815
1407 2370 1921
1425 2418 2039
1441 2463 2165
1455 2504 2295
1473 2540 2422
1498 2570 2543
1533 2594 2655
1575 2614 2756
1617 2631 2844
1659 2645 2921
1695 2656 2986
1730 2667 3044
1418 2329 1653
1434 2363 1708
1450 2398 1770
1466 2436 1845
1483 2478 1932
1500 2521 2034
1518 2565 2145
1532 2609 2266
1545 2651 2391
1560 2689 2516
1578 2722 2636
1606 2748 2747
1640 2770 2849
1679 2787 2938
1716 2801 3015
1750 2811 3078
1782 2821 3135
1513 2484 1772
1527 2515 1828
1541 2549 1890
1556 2584 1963
1571 2622 2047
1587 2663 2144
1604 2705 2251
1618 2747 2366
1631 2788 2486
1643 2827 2606
1657 2861 2724
1677 2890 2834
1705 2915 2935
1738 2933 3023
1773 2948 3099
1804 2959 3163
1833 2968 3219
1604 2633 1890
1617 2663 1947
1630 2694 2009
1643 2728 2081
1657 2763 2162
1672 2801 2255
1688 2841 2356
1702 2881 2465
1714 2921 2579
1724 2959 2695
1735 2995 2809
1750 3026 2917
1770 3053 3017
1797 3074 3104
1828 3090 3181
1857 3102 3243
1885 3112 3298
360 293 293
355 297 321
367 295 362
363 299 421
360 320 513
358 359 600
386 419 686
438 486 791
499 557 913
571 640 1045
644 723 1176
715 803 1300
786 883 1422
857 963 1545
926 1040 1661
991 1115 1771
1053 1187 1876
377 332 307
371 345 347
369 353 401
365 366 462
373 391 559
391 430 649
422 482 742
474 543 855
532 605 969
601 682 1095
673 763 1223
747 846 1352
819 927 1475
887 1006 1594
954 1081 1708
1019 1156 1819
1082 1229 1924
377 384 324
372 405 371
358 431 443
360 454 505
379 478 596
413 516 704
457 563 814
515 619 931
576 678 1047
642 746 1167
710 819 1285
781 896 1408
850 973 1528
918 1051 1646
985 1126 1760
1050 1201 1870
1111 1274 1974
355 473 372
362 494 416
359 521 482
371 555 569
394 576 660
437 607 765
486 654 880
550 709 1005
624 777 1137
694 842 1261
763 911 1380
828 975 1491
892 1041 1601
955 1110 1709
1021 1183 1821
1084 1254 1927
1143 1325 2027
377 584 454
386 611 493
394 643 551
405 686 644
430 716 749
474 734 850
527 763 959
594 815 1086
671 883 1225
749 956 1361
825 1030 1493
894 1095 1608
957 1154 1715
1013 1205 1807
1067 1258 1899
1124 1320 1995
1179 1384 2089
438 712 533
459 757 587
474 796 647
482 834 737
500 877 855
540 906 971
592 925 1077
662 965 1201
738 1025 1339
813 1091 1474
891 1166 1611
965 1235 1737
1031 1294 1846
1084 1337 1934
1132 1377 2014
1177 1415 2087
1224 1464 2166
525 865 633
546 910 687
567 959 755
583 1003 843
600 1055 965
629 1101 1098
676 1127 1219
739 1151 1336
811 1193 1464
885 1247 1594
961 1314 1728
1035 1382 1857
1102 1440 1971
1157 1486 2064
1206 1523 2145
1246 1550 2210
1282 1574 2269
633 1047 756
654 1089 806
676 1137 872
701 1193 962
722 1249 1078
744 1308 1219
777 1347 1358
826 1364 1481
891 1388 1599
961 1427 1721
1034 1481 1849
1107 1539 1974
1173 1594 2089
1230 1640 2187
1279 1677 2271
1319 1703 2338
1353 1721 2395
745 1235 880
769 1280 932
794 1329 997
818 1384 1087
845 1444 1198
869 1505 1335
891 1556 1483
929 1587 1621
981 1606 1745
1044 1631 1862
1111 1666 1979
1180 1712 2096
1244 1758 2206
1301 1800 2304
1350 1835 2390
1391 1860 2460
1425 1878 2520
866 1433 1012
889 1475 1062
912 1522 1126
938 1577 1214
964 1636 1324
989 1696 1455
1010 1751 1600
1035 1793 1744
1076 1819 1877
1130 1840 1998
1191 1865 2112
1253 1896 2221
1314 1933 2326
1369 1967 2420
1419 1998 2505
1460 2021 2575
1496 2039 2638
986 1627 1145
1007 1667 1194
1030 1712 1257
1055 1765 1342
1080 1823 1448
1105 1880 1574
1126 1935 1713
1147 1980 1855
1175 2015 1993
1218 2040 2119
1270 2062 2236
1327 2086 2343
1384 2112 2444
1437 2139 2535
1485 2164 2617
1526 2184 2687
1562 2201 2750
1103 1817 1278
1123 1855 1328
1144 1898 1389
1166 1946 1471
1190 2000 1572
1213 2054 1691
1234 2107 1823
1252 2154 1961
1274 2193 2099
1305 2223 2228
1349 2247 2348
1398 2269 2457
1451 2291 2558
1501 2312 2646
1548 2332 2726
1588 2348 2794
1625 2362 2856
1217 2000 1409
1235 2037 1460
1254 2076 1521
1275 2121 1600
1296 2170 1695
1317 2221 1808
1337 2271 1933
1353 2318 2066
1371 2359 2200
1394 2394 2330
1427 2422 2453
1470 2445 2564
1517 2464 2665
1564 2482 2754
1608 2498 2832
1647 2511 2898
1683 2523 2958
1323 2173 1534
1340 2207 1587
1358 2245 1648
1376 2286 1724
1395 2331 1816
1415 2378 1922
1433 2426 2041
1449 2472 2167
1464 2515 2299
1481 2552 2427
1507 2583 2550
1541 2608 2662
1582 2628 2765
1625 2645 2854
1666 2659 2931
1703 2670 2996
1737 2680 3054
1424 2337 1657
1440 2370 1711
1456 2405 1773
1472 2443 1847
1489 2485 1934
1507 2529 2036
1525 2574 2148
1540 2618 2270
1554 2661 2395
1568 2699 2521
1586 2733 2642
1613 2761 2754
1648 2783 2857
1686 2800 2946
1723 2814 3023
1757 2825 3087
1788 2833 3145
1519 2491 1777
1533 2523 1832
1547 2556 1893
1562 2591 1966
1577 2630 2050
1594 2671 2147
1611 2714 2254
1626 2756 2369
1639 2798 2490
1650 2837 2611
1665 2872 2730
1685 2902 2841
1712 2926 2943
1745 2946 3031
1779 2960 3108
1810 2971 3171
1839 2980 3228
1610 2641 1895
1623 2671 1951
1635 2702 2013
1649 2735 2085
1663 2771 2166
1678 2809 2258
1694 2849 2359
1708 2890 2470
1721 2930 2585
1732 2969 2701
1743 3005 2816
1757 3037 2924
1777 3064 3025
1804 3085 3112
1834 3102 3189
1864 3114 3251
1891 3124 3307
469 348 356
469 353 371
471 350 391
475 342 417
482 349 503
465 373 615
463 423 726
488 492 842
534 567 946
591 645 1054
661 728 1182
728 806 1303
793 882 1421
860 962 1541
926 1037 1655
989 1111 1764
1053 1186 1873
493 379 370
486 385 388
482 391 423
491 395 473
499 412 564
491 440 680
491 488 786
518 548 883
563 612 986
622 688 1101
690 770 1230
761 852 1358
828 929 1476
893 1006 1593
958 1082 1707
1021 1156 1816
