assets/luts/LUTs by IWLTBAP (3DL)/01 - Standard/X-9400-STD.3dl
# Copyright: (C) Copyright 2010-2020 by IWLTBAP SAS
# Cannot be resold, shared or otherwise redistributed
# Website: https://luts.iwltbap.com
0 64 128 192 256 320 384 448 512 576 640 704 768 832 896 960 1023
248 176 397
229 201 452
240 232 567
230 286 777
197 377 997
202 416 1178
220 427 1341
244 421 1518
278 417 1706
328 434 1879
394 471 2046
466 525 2215
536 591 2395
623 678 2598
759 808 2804
940 974 3003
1139 1139 3216
248 230 413
184 273 462
169 341 573
151 403 771
121 517 956
153 585 1113
187 600 1278
209 601 1452
230 607 1628
264 645 1792
302 736 1949
346 869 2088
382 1023 2226
426 1166 2373
538 1298 2581
731 1419 2863
990 1533 3163
192 348 445
161 411 516
135 456 637
56 551 840
50 670 996
52 790 1109
61 846 1241
89 875 1382
176 886 1541
221 914 1710
240 992 1870
283 1109 2020
361 1249 2195
448 1376 2391
563 1483 2645
736 1574 2964
975 1652 3258
151 530 495
147 576 564
140 614 718
50 683 904
50 790 1050
52 887 1164
55 962 1272
58 1028 1386
62 1093 1519
92 1148 1688
224 1218 1857
313 1331 2039
406 1478 2240
503 1614 2457
605 1691 2716
744 1723 3025
953 1773 3296
147 739 535
142 765 602
138 795 784
54 823 999
50 898 1115
52 981 1224
55 1050 1333
58 1118 1450
61 1195 1580
64 1288 1739
114 1389 1912
285 1509 2087
420 1653 2278
516 1797 2486
606 1900 2725
739 1922 3021
926 1955 3296
162 935 573
161 961 648
151 972 828
67 963 1078
52 1012 1199
53 1070 1288
55 1134 1395
58 1204 1518
61 1291 1656
65 1401 1796
101 1520 1955
235 1653 2126
389 1797 2309
513 1936 2508
615 2054 2724
735 2097 3006
911 2138 3275
195 1096 620
192 1123 707
175 1136 893
131 1107 1137
58 1120 1286
55 1169 1379
56 1231 1469
58 1307 1581
62 1400 1710
103 1511 1845
233 1640 1981
358 1773 2144
457 1916 2325
544 2046 2525
634 2166 2734
744 2240 2988
904 2297 3248
235 1231 674
228 1264 779
206 1284 963
180 1263 1186
119 1251 1351
70 1292 1459
58 1350 1551
62 1420 1644
105 1514 1754
214 1624 1878
335 1753 2008
418 1881 2165
499 2013 2348
580 2135 2547
667 2252 2753
768 2354 2979
914 2425 3229
273 1358 744
260 1398 866
234 1425 1048
217 1428 1232
223 1418 1397
221 1450 1512
200 1500 1609
197 1561 1701
238 1635 1796
315 1737 1913
387 1860 2044
458 1983 2197
544 2103 2374
621 2215 2575
703 2330 2779
798 2449 2989
934 2540 3221
313 1493 835
285 1545 972
262 1589 1132
262 1618 1285
275 1625 1433
293 1642 1558
307 1680 1660
323 1731 1754
345 1792 1847
382 1863 1952
439 1963 2085
513 2078 2236
598 2188 2409
672 2293 2609
749 2405 2813
836 2532 3015
967 2650 3224
341 1649 945
319 1721 1071
324 1767 1206
340 1802 1337
354 1825 1464
364 1837 1601
377 1862 1714
396 1900 1814
421 1950 1911
457 2007 2014
508 2074 2130
585 2170 2280
660 2271 2458
728 2374 2657
798 2485 2853
879 2614 3053
1007 2751 3245
380 1821 1057
401 1884 1159
430 1929 1276
456 1961 1391
478 1990 1502
485 2007 1632
489 2025 1758
504 2052 1874
531 2091 1977
565 2140 2083
605 2196 2205
659 2269 2340
721 2362 2523
783 2464 2716
845 2577 2906
926 2705 3101
1060 2843 3288
473 1980 1150
520 2024 1246
558 2070 1344
582 2105 1442
602 2139 1542
614 2164 1653
616 2180 1785
621 2199 1929
640 2234 2050
667 2280 2170
701 2335 2302
739 2399 2445
776 2468 2602
830 2565 2783
897 2678 2970
988 2806 3159
1130 2944 3343
590 2116 1227
619 2169 1326
647 2223 1425
669 2269 1516
685 2307 1611
697 2339 1715
706 2361 1839
710 2375 1993
724 2403 2135
747 2446 2267
775 2495 2405
806 2549 2554
839 2606 2709
881 2676 2861
957 2787 3042
1064 2917 3226
1211 3053 3404
673 2294 1370
685 2343 1449
705 2397 1554
725 2452 1659
740 2492 1758
753 2523 1854
765 2549 1959
778 2569 2083
796 2584 2226
820 2615 2369
849 2658 2511
880 2705 2662
917 2758 2815
968 2825 2967
1037 2910 3123
1156 3038 3303
1305 3168 3472
750 2501 1626
752 2547 1684
765 2587 1773
781 2626 1871
798 2665 1963
815 2693 2049
832 2717 2132
852 2740 2221
876 2762 2332
905 2785 2474
940 2821 2622
977 2866 2771
1026 2922 2925
1095 2995 3079
1180 3082 3236
1275 3172 3384
1417 3282 3537
827 2702 1862
833 2733 1938
838 2767 2007
854 2792 2091
874 2816 2169
898 2842 2241
926 2871 2311
956 2898 2387
990 2930 2470
1024 2960 2591
1062 2991 2743
1114 3039 2894
1178 3103 3053
1258 3178 3207
1349 3260 3351
1445 3333 3477
1536 3394 3592
357 195 406
336 208 466
348 229 627
283 330 913
256 408 1142
278 424 1326
302 415 1500
334 412 1661
377 421 1806
435 440 1943
518 477 2083
623 527 2238
723 583 2421
816 647 2636
944 735 2844
1113 849 3025
1331 957 3182
399 238 409
325 280 506
277 363 677
264 451 879
254 541 1064
274 527 1260
296 503 1435
318 482 1598
348 478 1758
403 502 1913
491 560 2073
609 656 2247
737 774 2435
859 900 2642
1008 1050 2857
1179 1211 3068
1357 1360 3273
353 345 457
314 432 546
228 540 687
88 651 901
75 770 1070
89 834 1220
192 825 1370
258 795 1543
282 792 1718
316 844 1864
359 936 1994
414 1056 2119
500 1190 2270
635 1317 2479
811 1424 2740
1038 1520 3048
1285 1621 3319
279 544 506
252 619 587
199 728 751
80 786 979
72 889 1130
74 959 1248
77 1005 1366
94 1040 1499
173 1055 1652
266 1104 1804
324 1184 1963
403 1295 2116
504 1428 2292
631 1545 2514
791 1614 2799
999 1667 3118
1240 1749 3363
228 785 531
217 825 621
197 898 776
98 937 1054
72 989 1192
74 1044 1307
77 1089 1426
79 1141 1554
87 1212 1693
164 1301 1837
315 1401 2001
438 1519 2171
541 1655 2356
646 1771 2571
780 1828 2835
967 1843 3130
1203 1911 3378
249 991 561
244 1026 672
228 1069 826
172 1094 1112
79 1097 1273
75 1132 1370
77 1180 1487
79 1233 1620
83 1311 1765
114 1424 1905
216 1560 2057
376 1697 2218
517 1837 2397
641 1960 2593
760 2032 2836
936 2047 3122
1167 2108 3364
292 1151 609
290 1185 744
267 1217 896
219 1228 1162
99 1211 1362
77 1242 1466
77 1289 1558
79 1345 1684
84 1423 1823
133 1535 1957
288 1680 2092
442 1828 2239
551 1968 2415
643 2092 2609
754 2189 2826
917 2225 3095
1145 2282 3335
343 1284 662
334 1325 834
308 1358 993
265 1371 1209
212 1352 1416
116 1378 1545
88 1424 1642
106 1478 1738
154 1552 1862
269 1657 1987
401 1795 2118
500 1941 2263
589 2074 2437
673 2191 2629
775 2301 2832
916 2383 3068
1126 2446 3305
392 1410 727
370 1465 940
340 1501 1106
313 1527 1288
309 1542 1446
298 1548 1587
255 1580 1700
251 1628 1797
298 1689 1898
387 1786 2014
462 1911 2149
541 2045 2294
626 2172 2463
705 2282 2655
803 2393 2854
934 2507 3061
1124 2586 3287
435 1538 818
394 1607 1065
368 1660 1221
361 1706 1362
364 1744 1485
369 1759 1613
379 1770 1741
390 1806 1848
410 1857 1947
450 1923 2051
510 2025 2188
593 2145 2333
675 2263 2497
748 2368 2689
840 2479 2885
963 2605 3082
1144 2714 3282
458 1681 958
408 1762 1206
414 1830 1329
429 1875 1441
448 1915 1544
460 1941 1650
464 1956 1778
476 1979 1902
499 2021 2008
534 2075 2111
580 2142 2232
655 2245 2378
733 2349 2545
801 2451 2733
883 2566 2925
1000 2697 3120
1180 2824 3301
464 1841 1131
461 1922 1340
494 1988 1440
522 2032 1533
552 2065 1624
575 2093 1714
585 2112 1821
590 2132 1949
611 2169 2063
644 2218 2173
682 2275 2293
732 2348 2427
793 2441 2603
856 2543 2786
933 2662 2975
1047 2791 3165
1222 2921 3344
500 1993 1303
549 2077 1464
600 2127 1550
639 2172 1628
666 2209 1706
686 2240 1789
700 2265 1883
704 2283 2002
719 2315 2126
746 2361 2247
779 2417 2376
813 2480 2511
849 2547 2667
910 2646 2847
998 2767 3035
1118 2894 3222
1283 3022 3398
603 2136 1392
665 2220 1558
700 2274 1652
733 2326 1723
752 2370 1793
767 2405 1873
778 2435 1965
786 2461 2075
797 2487 2205
820 2525 2339
851 2573 2473
886 2627 2612
926 2686 2765
979 2763 2920
1079 2880 3105
1212 3008 3290
1367 3127 3459
706 2304 1512
747 2391 1640
770 2447 1742
791 2497 1835
808 2542 1921
823 2577 1998
839 2606 2081
855 2634 2175
873 2659 2291
896 2691 2428
929 2732 2570
970 2782 2718
1019 2841 2872
1087 2917 3027
1174 3004 3185
1311 3126 3364
1460 3235 3520
795 2518 1721
816 2584 1813
828 2626 1892
846 2663 1989
865 2700 2083
887 2734 2164
909 2765 2236
933 2796 2310
960 2827 2401
992 2860 2521
1029 2896 2674
1079 2945 2826
1142 3007 2987
1222 3086 3145
1320 3169 3299
1427 3245 3436
1559 3342 3577
893 2721 1951
921 2776 2061
922 2804 2121
936 2831 2191
960 2858 2265
989 2890 2340
1025 2926 2414
1061 2960 2486
1100 2998 2562
1138 3038 2659
1176 3075 2796
1233 3125 2958
1306 3188 3119
1390 3259 3271
1484 3328 3403
1580 3392 3523
1666 3449 3636
538 213 416
521 227 476
507 240 599
419 324 881
325 406 1178
334 418 1372
365 412 1546
407 411 1706
463 426 1849
541 450 1982
655 489 2119
791 536 2268
923 589 2437
1039 652 2639
1169 743 2844
1326 852 3029
1521 950 3186
581 262 423
550 303 502
458 325 683
406 424 937
354 483 1220
358 472 1435
384 459 1609
423 461 1758
479 479 1891
563 512 2022
677 566 2159
815 646 2311
957 742 2483
1083 844 2687
1219 965 2900
1380 1077 3103
1558 1169 3287
612 349 447
635 404 514
435 493 762
156 705 1016
150 783 1187
303 772 1341
371 729 1506
411 672 1674
448 643 1827
506 650 1967
610 713 2113
769 846 2290
941 1001 2492
1092 1143 2711
1235 1284 2929
1382 1413 3150
1527 1527 3348
565 508 506
516 577 609
399 710 767
122 850 1042
92 961 1203
97 1019 1331
129 1040 1461
194 1050 1595
327 1035 1741
383 1054 1890
453 1117 2038
567 1225 2195
715 1357 2379
887 1466 2614
1083 1547 2904
1302 1625 3197
1485 1722 3409
449 756 531
381 807 650
336 906 807
207 1015 1093
94 1072 1268
94 1127 1390
96 1178 1507
98 1222 1634
150 1275 1766
352 1311 1906
454 1376 2065
558 1481 2234
693 1606 2422
844 1699 2655
1029 1732 2949
1249 1774 3230
1450 1887 3446
391 1003 545
349 1033 667
333 1089 849
285 1152 1108
117 1186 1351
94 1217 1464
96 1269 1585
100 1316 1718
169 1374 1849
315 1467 1979
447 1570 2126
562 1691 2291
693 1818 2472
825 1922 2685
991 1959 2952
1203 1979 3230
1413 2084 3444
390 1183 582
381 1203 720
367 1241 914
325 1281 1149
254 1314 1395
115 1344 1543
102 1380 1650
109 1425 1782
172 1479 1916
302 1576 2046
409 1723 2182
540 1876 2327
658 2003 2500
778 2112 2692
947 2174 2926
1157 2201 3194
1380 2282 3409
448 1317 631
431 1342 814
409 1384 1019
366 1416 1220
353 1461 1438
301 1488 1595
215 1517 1715
236 1561 1821
274 1615 1954
365 1704 2085
491 1839 2214
597 1997 2351
683 2131 2517
785 2238 2707
931 2334 2913
1129 2390 3156
1357 2460 3374
510 1445 691
473 1483 936
438 1532 1150
412 1575 1316
408 1618 1474
420 1650 1635
402 1675 1763
390 1715 1873
424 1770 1978
486 1849 2107
564 1964 2243
637 2104 2383
715 2233 2543
807 2340 2731
943 2448 2927
1126 2545 3137
1342 2616 3351
575 1578 762
509 1634 1068
460 1698 1304
457 1752 1429
463 1797 1544
472 1834 1665
483 1861 1801
494 1888 1925
514 1935 2029
548 2001 2137
607 2096 2275
684 2213 2418
760 2331 2576
847 2435 2763
970 2548 2956
1143 2664 3148
1339 2761 3339
629 1735 863
536 1792 1209
498 1871 1446
516 1930 1546
537 1976 1637
556 2016 1728
567 2046 1834
573 2063 1974
592 2098 2094
627 2152 2198
672 2221 2315
739 2324 2458
815 2427 2620
896 2531 2804
1012 2646 2994
1173 2767 3181
1364 2879 3356
642 1897 1015
555 1949 1380
567 2032 1565
599 2090 1658
625 2134 1735
652 2171 1811
672 2201 1895
679 2223 2020
692 2254 2147
722 2303 2263
762 2362 2377
810 2431 2508
879 2526 2675
957 2630 2854
1064 2749 3042
1216 2868 3227
1404 2979 3398
626 2046 1230
614 2109 1537
656 2190 1688
697 2241 1773
729 2280 1843
754 2315 1913
774 2347 1991
785 2373 2090
796 2402 2208
820 2446 2333
855 2503 2454
893 2566 2585
942 2637 2734
1028 2740 2912
1139 2857 3098
1283 2972 3282
1451 3081 3450
627 2162 1487
702 2262 1668
761 2342 1804
793 2392 1886
818 2437 1957
839 2475 2028
857 2511 2102
871 2543 2188
882 2573 2292
899 2605 2413
935 2654 2543
979 2714 2680
1035 2780 2827
1109 2858 2981
1232 2972 3165
1378 3083 3346
1521 3187 3506
735 2317 1612
787 2410 1754
841 2507 1900
868 2561 1995
890 2605 2082
909 2642 2158
931 2677 2227
954 2710 2303
976 2745 2393
995 2776 2503
1031 2817 2641
1082 2871 2787
1149 2935 2938
1235 3011 3093
1334 3092 3247
1477 3195 3415
1608 3294 3565
841 2539 1803
863 2604 1899
903 2677 2020
931 2720 2117
958 2759 2209
986 2797 2289
1015 2834 2361
1043 2870 2429
1077 2910 2508
1112 2949 2607
1147 2984 2744
1202 3033 2899
1277 3097 3059
1366 3169 3214
1469 3239 3357
1569 3307 3485
1684 3398 3621
973 2771 2033
1002 2821 2141
1028 2867 2231
1035 2890 2290
1059 2919 2360
1092 2954 2434
1130 2993 2510
1171 3032 2583
1214 3073 2659
1256 3118 2744
1296 3158 2867
1351 3202 3028
1428 3263 3188
1511 3326 3331
1602 3384 3456
1691 3444 3574
1776 3496 3680
784 234 439
784 247 494
767 261 604
681 310 817
461 405 1162
404 417 1404
436 413 1577
489 416 1730
561 433 1872
662 460 2003
789 497 2139
933 543 2287
1072 595 2453
1202 662 2651
1337 763 2857
1485 879 3045
1656 984 3206
794 291 449
815 331 511
725 357 661
656 410 861
568 494 1150
466 467 1468
461 451 1665
512 459 1809
593 483 1944
709 524 2077
842 576 2213
980 647 2359
1119 737 2524
1251 839 2719
1386 953 2925
1538 1049 3126
