assets/luts/LUTs by IWLTBAP (3DL)/01 - Standard/X-9400-STD.3dl
# Copyright: (C) Copyright 2010-2020 by IWLTBAP SAS
# Cannot be resold, shared or otherwise redistributed
# Website: https://luts.iwltbap.com
0 256 512 768 1023
248 176 397
197 377 997
278 417 1706
536 591 2395
1139 1139 3216
147 739 535
50 898 1115
61 1195 1580
420 1653 2278
926 1955 3296
273 1358 744
223 1418 1397
238 1635 1796
544 2103 2374
934 2540 3221
473 1980 1150
602 2139 1542
640 2234 2050
776 2468 2602
1130 2944 3343
827 2702 1862
874 2816 2169
990 2930 2470
1178 3103 3053
1536 3394 3592
1002 250 461
753 418 1049
673 442 1865
1176 600 2435
1760 1015 3227
1155 714 548
523 1094 1355
784 1269 1929
1234 1382 2642
1785 1767 3506
907 1496 633
704 1660 1531
679 1917 2127
970 2331 2701
1676 2658 3489
1115 2291 772
965 2465 2042
1026 2614 2379
1221 2794 2889
1693 3188 3567
1251 2899 1955
1312 3065 2523
1462 3205 2846
1647 3377 3325
2073 3573 3753
1512 314 510
1474 408 865
1391 519 1586
1531 671 2352
2070 1106 3452
1720 893 602
1887 1192 1261
1849 1298 1876
1733 1397 2875
2389 1505 3799
1921 1515 615
2113 1773 1239
1892 2034 2157
1846 2200 3074
2478 2555 3830
2018 2434 642
1893 2499 1770
1859 2734 2457
1705 2999 3226
2297 3373 3768
2245 3003 1386
2088 3079 2408
2307 3330 3039
2240 3555 3586
2553 3722 3882
2198 452 573
2212 630 952
2157 759 1260
2250 822 2119
2809 1248 3326
2516 994 612
2617 1267 1389
2706 1528 1964
2684 1525 2695
3144 1577 3609
2795 1848 627
2816 1999 1530
3001 2133 2142
3039 2150 2975
3380 2294 3858
3007 2411 617
3020 2577 1528
3103 2789 2241
3000 3147 3331
3294 3421 3851
3283 2940 859
3083 3208 1913
3175 3437 2787
3123 3716 3652
3208 3874 3992
3157 949 532
3219 1063 962
3127 1199 1603
3108 1281 2406
3410 1422 3274
3496 1438 608
3381 1590 1507
3442 1696 2064
3378 1721 2676
3579 1769 3630
3612 2023 677
3463 2071 1757
3598 2196 2384
3624 2334 2913
3784 2496 3777
3675 2540 772
3596 2643 1869
3714 2881 2606
3867 3186 3360
3906 3330 3871
3685 3016 1140
3672 3262 1953
3782 3509 2706
3911 3726 3507
3938 3947 4010
