assets/luts/LUTs by IWLTBAP (3DL)/01 - Standard/X-9400-STD.3dl
# Copyright: (C) Copyright 2010-2020 by IWLTBAP SAS
# Cannot be resold, shared or otherwise redistributed
# Website: https://luts.iwltbap.com
0 128 256 384 512 640 768 896 1023
248 176 397
240 232 567
197 377 997
220 427 1341
278 417 1706
394 471 2046
536 591 2395
759 808 2804
1139 1139 3216
192 348 445
135 456 637
50 670 996
61 846 1241
176 886 1541
240 992 1870
361 1249 2195
563 1483 2645
975 1652 3258
147 739 535
138 795 784
50 898 1115
55 1050 1333
61 1195 1580
114 1389 1912
420 1653 2278
606 1900 2725
926 1955 3296
195 1096 620
175 1136 893
58 1120 1286
56 1231 1469
62 1400 1710
233 1640 1981
457 1916 2325
634 2166 2734
904 2297 3248
273 1358 744
234 1425 1048
223 1418 1397
200 1500 1609
238 1635 1796
387 1860 2044
544 2103 2374
703 2330 2779
934 2540 3221
341 1649 945
324 1767 1206
354 1825 1464
377 1862 1714
421 1950 1911
508 2074 2130
660 2271 2458
798 2485 2853
1007 2751 3245
473 1980 1150
558 2070 1344
602 2139 1542
616 2180 1785
640 2234 2050
701 2335 2302
776 2468 2602
897 2678 2970
1130 2944 3343
673 2294 1370
705 2397 1554
740 2492 1758
765 2549 1959
796 2584 2226
849 2658 2511
917 2758 2815
1037 2910 3123
1305 3168 3472
827 2702 1862
838 2767 2007
874 2816 2169
926 2871 2311
990 2930 2470
1062 2991 2743
1178 3103 3053
1349 3260 3351
1536 3394 3592
538 213 416
507 240 599
325 406 1178
365 412 1546
463 426 1849
655 489 2119
923 589 2437
1169 743 2844
1521 950 3186
612 349 447
435 493 762
150 783 1187
371 729 1506
448 643 1827
610 713 2113
941 1001 2492
1235 1284 2929
1527 1527 3348
449 756 531
336 906 807
94 1072 1268
96 1178 1507
150 1275 1766
454 1376 2065
693 1606 2422
1029 1732 2949
1450 1887 3446
390 1183 582
367 1241 914
254 1314 1395
102 1380 1650
172 1479 1916
409 1723 2182
658 2003 2500
947 2174 2926
1380 2282 3409
510 1445 691
438 1532 1150
408 1618 1474
402 1675 1763
424 1770 1978
564 1964 2243
715 2233 2543
943 2448 2927
1342 2616 3351
629 1735 863
498 1871 1446
537 1976 1637
567 2046 1834
592 2098 2094
672 2221 2315
815 2427 2620
1012 2646 2994
1364 2879 3356
626 2046 1230
656 2190 1688
729 2280 1843
774 2347 1991
796 2402 2208
855 2503 2454
942 2637 2734
1139 2857 3098
1451 3081 3450
735 2317 1612
841 2507 1900
890 2605 2082
931 2677 2227
976 2745 2393
1031 2817 2641
1149 2935 2938
1334 3092 3247
1608 3294 3565
973 2771 2033
1028 2867 2231
1059 2919 2360
1130 2993 2510
1214 3073 2659
1296 3158 2867
1428 3263 3188
1602 3384 3456
1776 3496 3680
1002 250 461
988 280 627
753 418 1049
529 422 1584
673 442 1865
914 503 2123
1176 600 2435
1422 782 2845
1760 1015 3227
1054 410 500
1080 538 691
813 701 1137
741 613 1663
761 590 2014
1011 729 2293
1281 967 2621
1536 1188 3022
1826 1314 3435
1155 714 548
1211 894 700
523 1094 1355
364 1228 1671
784 1269 1929
973 1227 2260
1234 1382 2642
1535 1588 3152
1785 1767 3506
1147 1142 573
926 1218 964
734 1371 1398
421 1549 1776
556 1671 2039
817 1795 2322
1074 1934 2688
1416 2000 3188
1731 2234 3564
907 1496 633
800 1551 1060
704 1660 1531
705 1822 1853
679 1917 2127
803 2083 2410
970 2331 2701
1298 2505 3090
1676 2658 3489
1066 1892 698
837 1903 1412
819 2050 1790
832 2165 1976
832 2271 2237
905 2376 2473
1089 2558 2776
1328 2767 3125
1651 2966 3485
1115 2291 772
987 2299 1680
965 2465 2042
998 2546 2214
1026 2614 2379
1081 2675 2633
1221 2794 2889
1460 2986 3223
1693 3188 3567
884 2423 1662
1050 2646 2018
1163 2786 2292
1210 2858 2463
1275 2924 2614
1294 2985 2814
1426 3083 3093
1616 3213 3372
1813 3394 3659
1251 2899 1955
1216 2965 2333
1312 3065 2523
1389 3136 2676
1462 3205 2846
1548 3284 3031
1647 3377 3325
1803 3482 3560
2073 3573 3753
1290 272 483
1302 307 637
1250 418 942
881 463 1460
954 461 1788
1158 511 2061
1347 624 2397
1565 818 2813
1928 1073 3326
1391 457 533
1479 584 735
1466 723 1046
1356 726 1444
1072 602 2000
1253 723 2327
1492 971 2675
1738 1176 3096
2027 1314 3553
1457 780 574
1542 944 744
1533 1105 1228
1368 1229 1627
1336 1214 2012
1326 1199 2428
1523 1394 2797
1778 1538 3221
2060 1646 3644
1595 1119 555
1640 1286 733
1675 1414 1170
1341 1535 1768
1135 1723 2142
1403 1780 2440
1499 1656 2866
1761 1774 3377
2026 2073 3744
1593 1481 616
1623 1587 947
1482 1671 1516
1397 1864 1823
1082 2083 2222
1160 2225 2560
1387 2344 2888
1668 2400 3341
1950 2679 3658
1516 1947 650
1357 1960 1194
1270 2071 1654
1256 2215 1989
1234 2390 2316
1206 2497 2640
1344 2648 2954
1555 2858 3282
1894 3047 3613
1553 2362 645
1523 2370 1436
1388 2523 1927
1388 2644 2266
1396 2720 2505
1403 2792 2781
1480 2890 3050
1660 3086 3381
1870 3287 3678
1520 2684 1111
1536 2717 1712
1548 2827 2192
1569 2930 2512
1581 3006 2759
1610 3088 2965
1662 3181 3254
1794 3307 3504
2074 3480 3746
1741 2920 1638
1475 2993 2314
1578 3097 2554
1694 3200 2781
1743 3283 2992
1815 3369 3205
1883 3466 3442
2105 3557 3652
2310 3642 3816
1512 314 510
1557 360 673
1474 408 865
1458 531 1187
1391 519 1586
1438 550 1963
1531 671 2352
1710 869 2800
2070 1106 3452
1652 479 558
1776 595 782
1827 783 1056
1842 941 1362
1657 765 1811
1496 800 2289
1692 1063 2671
1915 1248 3181
2204 1286 3690
1720 893 602
1815 1052 842
1887 1192 1261
1873 1282 1579
1849 1298 1876
1555 1196 2435
1733 1397 2875
1992 1511 3394
2389 1505 3799
1872 1203 577
1950 1339 787
1998 1499 1234
1948 1598 1661
1872 1698 2028
1760 1687 2534
1806 1615 3085
2058 1750 3556
2463 1883 3868
1921 1515 615
1990 1641 806
2113 1773 1239
2111 1878 1632
1892 2034 2157
1710 2240 2610
1846 2200 3074
2001 2167 3613
2478 2555 3830
2019 1924 638
2073 2039 933
2060 2110 1512
1974 2212 1902
1896 2381 2280
1547 2603 2735
1674 2741 3096
1950 2901 3485
2431 3088 3718
2018 2434 642
1997 2518 1250
1893 2499 1770
1902 2614 2081
1859 2734 2457
1690 2882 2889
1705 2999 3226
1928 3183 3549
2297 3373 3768
2072 2703 736
2088 2871 1337
2098 2824 1974
2117 2929 2347
2110 3061 2759
1928 3179 3118
1886 3291 3421
2093 3408 3637
2376 3565 3830
2245 3003 1386
1983 2968 2121
2088 3079 2408
2252 3193 2686
2307 3330 3039
2191 3456 3372
2240 3555 3586
2388 3640 3749
2553 3722 3882
1780 377 549
1818 427 726
1733 449 856
1776 579 1032
1825 646 1401
1836 627 1805
1837 718 2294
1957 924 2791
2353 1090 3514
1937 528 591
2031 636 835
2136 824 1072
2131 1005 1357
2127 1044 1650
1985 929 2143
2085 1137 2593
2227 1275 3175
2605 1309 3646
2085 912 626
2149 1064 955
2258 1199 1335
2282 1339 1618
2241 1463 1948
2146 1395 2326
2117 1423 2911
2389 1485 3413
2805 1516 3740
2209 1354 617
2251 1480 958
2326 1613 1388
2379 1727 1698
2373 1782 2026
2356 1765 2395
2154 1566 3166
2538 1625 3625
2916 1769 3858
2314 1648 631
2352 1756 932
2485 1881 1358
2523 2001 1695
2538 2097 2068
2463 2191 2524
2418 1941 3285
2600 2075 3793
2971 2366 3899
2439 2003 632
2500 2150 837
2596 2190 1364
2669 2284 1711
2666 2402 2076
2465 2572 2687
2453 2780 3141
2592 2852 3636
2901 3020 3810
2602 2441 639
2567 2580 1045
2584 2550 1580
2577 2619 1949
2519 2716 2359
2525 2884 2822
2199 3112 3363
2557 3264 3672
2781 3430 3849
2674 2701 701
2594 2961 1188
2601 2890 1863
2537 2936 2260
2607 3061 2619
2650 3211 3036
2338 3397 3569
2536 3504 3764
2731 3646 3913
2814 3022 990
2671 3044 1734
2600 3110 2101
2710 3211 2434
2807 3355 2883
2702 3533 3373
2580 3648 3724
2682 3730 3860
2814 3806 3962
2198 452 573
2181 510 745
2212 630 952
2037 618 1015
2157 759 1260
2197 774 1682
2250 822 2119
2496 1013 2629
2809 1248 3326
2346 640 608
2379 763 931
2456 932 1165
2519 1060 1360
2367 1042 1491
2418 1178 1982
2499 1280 2463
2742 1365 2969
2948 1423 3454
2516 994 612
2503 1120 1038
2617 1267 1389
2694 1395 1653
2706 1528 1964
2632 1556 2269
2684 1525 2695
2944 1513 3229
3144 1577 3609
2675 1398 624
2628 1521 1108
2741 1649 1493
2844 1739 1781
2892 1828 2046
2863 1896 2438
2862 1732 2874
3080 1612 3483
3301 1805 3764
2795 1848 627
2805 1912 1041
2816 1999 1530
2907 2058 1839
3001 2133 2142
3039 2208 2527
3039 2150 2975
3112 1989 3705
3380 2294 3858
2876 2164 616
2897 2307 948
2938 2249 1530
2996 2335 1865
3066 2452 2193
3108 2640 2606
3032 2771 3094
3150 2708 3658
3412 2882 3813
3007 2411 617
3071 2629 867
3020 2577 1528
3074 2659 1894
3103 2789 2241
3145 2956 2648
3000 3147 3331
3121 3331 3662
3294 3421 3851
3120 2713 684
3046 3000 1146
3018 2970 1777
3033 3014 2158
3064 3118 2508
3111 3265 2945
3083 3432 3445
3036 3579 3813
3191 3712 3944
3283 2940 859
3115 3144 1446
3083 3208 1913
3131 3317 2287
3175 3437 2787
3189 3566 3228
3123 3716 3652
3086 3807 3904
3208 3874 3992
2742 600 543
2733 653 668
2702 758 957
2698 879 1164
2490 862 1284
2578 939 1711
2674 1023 2148
2864 1188 2614
3131 1370 3238
2882 893 571
2904 995 878
2888 1086 1243
2940 1205 1493
2926 1243 1690
2813 1287 2009
2950 1409 2463
3087 1444 2881
3267 1486 3389
3024 1248 576
2967 1316 1082
3006 1416 1496
3069 1465 1775
3129 1562 2038
2998 1548 2201
3110 1649 2647
3222 1572 3162
3385 1639 3606
3137 1555 587
3077 1644 1138
3085 1723 1609
3175 1788 1907
3225 1846 2152
3200 1888 2383
3230 1904 2784
3345 1707 3397
3505 1918 3762
3252 1908 594
3204 1958 1137
3159 1994 1665
3236 2042 1967
3324 2111 2254
3383 2217 2552
3361 2347 2954
3432 2151 3566
3612 2374 3810
3332 2243 598
3321 2327 1069
3243 2300 1685
3298 2360 2031
3374 2469 2347
3457 2641 2718
3480 2802 3105
3519 2780 3538
3672 2876 3802
3442 2440 633
3404 2665 1100
3378 2614 1703
3374 2727 2063
3398 2863 2429
3482 3014 2819
3551 3196 3238
3526 3299 3646
3678 3294 3854
3516 2667 736
3435 2953 1233
3353 2975 1784
3390 3067 2088
3451 3173 2473
3507 3320 2884
3566 3484 3285
3530 3628 3776
3630 3743 3933
3506 2963 964
3502 3178 1383
3402 3303 1849
3439 3417 2191
3464 3514 2713
3507 3614 3157
3574 3738 3532
3628 3849 3830
3636 3916 3978
3157 949 532
3261 987 655
3219 1063 962
3172 1145 1310
3127 1199 1603
3002 1168 1955
3108 1281 2406
3250 1390 2791
3410 1422 3274
3371 1212 560
3388 1251 845
3327 1316 1227
3293 1390 1582
3343 1462 1907
3251 1447 2141
3258 1506 2571
3364 1514 2959
3500 1538 3464
3496 1438 608
3436 1521 1085
3381 1590 1507
3399 1631 1804
3442 1696 2064
3455 1743 2304
3378 1721 2676
3473 1652 3197
3579 1769 3630
3560 1753 654
3462 1802 1220
3414 1845 1685
3473 1877 1955
3519 1918 2205
3569 2008 2485
3470 1958 2740
3571 1919 3427
3679 2054 3749
3612 2023 677
3506 2044 1258
3463 2071 1757
3521 2108 2072
3598 2196 2384
3649 2303 2691
3624 2334 2913
3681 2305 3520
3784 2496 3777
3647 2295 692
3541 2276 1324
3533 2303 1799
3592 2368 2122
3668 2483 2499
3752 2632 2860
3792 2801 3164
3776 2899 3524
3852 2976 3782
3675 2540 772
3597 2576 1430
3596 2643 1869
3652 2758 2179
3714 2881 2606
3792 3024 3007
3867 3186 3360
3887 3326 3665
3906 3330 3871
3691 2764 926
3627 2886 1561
3675 2948 1909
3758 3081 2210
3768 3226 2666
3806 3368 3093
3878 3510 3454
3937 3632 3759
3917 3687 3951
3685 3016 1140
3651 3160 1606
3672 3262 1953
3720 3383 2307
3782 3509 2706
3843 3617 3128
3911 3726 3507
3962 3856 3804
3938 3947 4010
