assets/luts/LUTs by IWLTBAP (3DL)/07 - Utility/Divers/Cinema Base Rec709 (optimized) V2.3dl
# Copyright: (C) Copyright 2010-2020 by IWLTBAP SAS
# Cannot be resold, shared or otherwise redistributed
# Website: https://luts.iwltbap.com
0 128 256 384 512 640 768 896 1023
0 0 0
0 34 144
0 86 567
0 160 942
0 225 1295
0 333 1613
1 518 1929
10 756 2236
55 1018 2538
121 394 12
0 410 353
0 395 789
0 427 1070
0 470 1412
0 572 1720
4 735 2018
20 942 2316
77 1165 2595
291 910 22
0 927 247
0 933 834
0 922 1308
2 941 1677
7 1033 1910
23 1149 2176
59 1293 2446
136 1452 2695
531 1491 48
24 1467 42
21 1520 770
19 1511 1389
24 1515 1798
53 1532 2220
93 1609 2415
153 1704 2610
268 1812 2837
953 2034 184
523 2006 160
167 2028 685
170 2035 1410
182 2026 1902
208 2039 2234
279 2064 2584
426 2109 2919
531 2189 3055
1438 2485 478
1181 2466 453
480 2430 590
512 2468 1395
539 2466 1970
542 2475 2345
561 2499 2638
650 2525 2975
789 2556 3313
1835 2848 831
1686 2836 824
1190 2797 797
947 2818 1409
947 2829 1956
918 2840 2416
875 2872 2734
840 2910 3022
855 2939 3359
1943 3183 1045
1857 3175 1096
1598 3153 1142
1242 3147 1415
1205 3166 1955
1168 3182 2401
1083 3220 2823
990 3270 3138
901 3322 3460
1832 3544 1089
1775 3537 1216
1634 3524 1343
1356 3502 1488
1248 3519 1978
1253 3545 2420
1162 3578 2824
1055 3647 3256
960 3703 3595
367 16 4
325 0 353
149 29 889
0 98 1274
0 203 1490
0 343 1761
3 548 2044
16 791 2318
71 1053 2612
429 434 19
397 427 400
148 415 933
0 411 1303
0 472 1564
0 591 1838
7 764 2112
29 971 2381
98 1195 2658
560 947 28
410 977 270
182 980 890
94 933 1455
2 972 1749
10 1056 1993
29 1175 2254
70 1315 2498
155 1472 2740
767 1527 59
390 1523 56
337 1571 767
21 1537 1418
29 1532 1873
64 1547 2288
102 1629 2451
173 1722 2659
292 1828 2875
1130 2062 206
808 2046 184
467 2065 679
372 2071 1404
191 2042 1919
219 2052 2274
297 2075 2631
443 2122 2941
551 2203 3082
1546 2503 497
1346 2491 479
702 2450 549
693 2492 1375
550 2477 1956
552 2486 2357
571 2508 2662
664 2534 3006
805 2562 3348
1902 2861 842
1771 2850 837
1343 2817 813
982 2823 1383
960 2835 1937
934 2847 2409
891 2880 2743
858 2918 3040
881 2945 3384
2019 3192 1046
1952 3186 1100
1724 3165 1149
1298 3149 1375
1265 3171 1935
1234 3188 2387
1152 3225 2820
1063 3276 3145
978 3328 3473
1965 3552 1086
1922 3547 1214
1792 3533 1344
1543 3510 1477
1481 3529 1981
1443 3550 2415
1394 3585 2827
1179 3648 3254
1278 3708 3602
808 93 12
773 0 356
727 0 756
562 7 1354
226 132 1745
1 349 2082
10 616 2309
45 877 2536
131 1135 2784
921 499 17
959 446 395
901 318 930
617 360 1495
206 451 1861
5 633 2154
20 835 2357
63 1044 2570
158 1265 2814
1027 997 40
1012 1009 318
952 977 965
663 984 1585
212 1018 1976
26 1110 2242
56 1232 2450
117 1372 2658
225 1529 2882
1210 1581 91
1062 1605 106
1005 1630 817
744 1620 1532
703 1596 2051
159 1600 2379
136 1674 2568
226 1762 2772
367 1870 2990
1477 2111 256
1303 2117 243
1118 2138 735
1034 2147 1436
564 2108 1991
533 2100 2398
504 2101 2774
487 2156 2998
594 2232 3145
1783 2542 540
1650 2539 532
1333 2526 656
1260 2550 1382
1172 2548 1984
575 2511 2385
595 2531 2728
700 2554 3085
835 2573 3415
2053 2891 860
1960 2885 865
1660 2862 856
1493 2870 1383
1438 2883 1932
1301 2887 2418
919 2899 2765
885 2936 3087
919 2960 3451
2164 3218 1041
2100 3212 1103
1916 3194 1164
1652 3180 1389
1599 3196 1925
1543 3212 2386
1282 3239 2814
1142 3291 3162
1059 3344 3508
2137 3575 1069
2100 3571 1205
1992 3557 1344
1793 3533 1485
1720 3543 1971
1715 3563 2422
1688 3596 2839
1548 3658 3262
1579 3715 3616
1309 189 21
1311 0 354
1207 0 736
1164 0 1180
1065 2 1708
893 235 2184
463 629 2580
148 1000 2904
231 1228 3029
1406 551 23
1473 437 359
1450 235 842
1349 146 1372
1195 333 1916
953 589 2349
447 886 2652
191 1169 2942
277 1357 3064
1513 1034 40
1556 1015 342
1579 971 927
1570 849 1592
1302 980 2130
984 1141 2495
416 1300 2732
271 1475 2990
380 1617 3133
1662 1604 118
1648 1621 160
1646 1622 890
1612 1607 1622
1366 1633 2172
1061 1686 2548
488 1741 2789
371 1834 3018
508 1936 3197
1855 2143 298
1794 2165 305
1726 2182 831
1685 2184 1499
1476 2171 2106
1439 2151 2537
1239 2167 2895
566 2211 3110
687 2279 3296
2069 2581 573
2003 2590 583
1854 2598 795
1785 2597 1436
1728 2590 2028
1395 2584 2477
1366 2583 2846
1320 2588 3199
1258 2607 3453
2262 2932 861
2203 2932 883
2031 2926 909
1909 2917 1427
1862 2915 1961
1789 2919 2450
1274 2941 2815
1180 2971 3176
1101 2982 3560
2350 3258 1019
2304 3254 1095
2176 3242 1180
2005 3225 1437
1954 3223 1943
1923 3233 2410
1811 3264 2838
1236 3317 3192
1152 3370 3572
2342 3614 1037
2312 3609 1183
2222 3596 1340
2080 3573 1489
2018 3569 1979
2018 3581 2437
1996 3609 2853
1930 3668 3275
1907 3724 3638
1806 286 34
1809 1 333
1714 0 784
1608 0 1174
1567 2 1559
1538 42 2012
1539 399 2581
1394 947 3058
1267 1262 3172
1878 622 36
1944 435 319
1894 239 813
1745 11 1254
1667 10 1671
1705 358 2250
1629 775 2743
1403 1154 3109
1273 1396 3203
1977 1070 44
2035 1022 300
2062 966 889
2086 778 1497
2026 764 2038
1880 1021 2514
1681 1269 2883
1405 1500 3169
1292 1658 3261
2065 1596 101
2094 1585 244
2105 1579 899
2134 1559 1534
2160 1533 2177
1937 1653 2619
1701 1769 2948
1413 1889 3215
1315 1984 3327
2195 2135 271
2184 2148 277
2182 2156 862
2185 2153 1526
2178 2160 2183
1986 2179 2613
1762 2215 2959
1485 2269 3246
1392 2325 3401
2352 2598 535
2324 2613 556
2267 2632 819
2247 2620 1489
2237 2610 2090
2076 2608 2556
2025 2599 2921
1918 2607 3268
1638 2654 3489
2495 2972 807
2461 2978 848
2372 2987 913
2309 2969 1485
2287 2949 2019
2255 2939 2499
1995 2967 2878
1948 2987 3240
1895 2994 3601
2571 3308 957
2543 3307 1049
2462 3302 1164
2357 3286 1489
2323 3264 1987
2313 3255 2455
2254 3276 2869
1919 3342 3241
1851 3390 3635
2581 3668 972
2558 3664 1135
2497 3654 1313
2396 3632 1493
2348 3614 1999
2347 3607 2458
2343 3625 2880
2298 3677 3288
2285 3735 3664
2287 392 50
2291 13 293
2211 4 798
2056 0 1230
1948 5 1584
1928 49 1905
2006 222 2381
2082 627 2946
2041 1236 3207
2341 709 52
2401 450 277
2334 250 792
2169 58 1266
2039 10 1651
2012 76 1997
2108 380 2529
2159 1001 3069
2053 1370 3244
2432 1120 56
2481 1062 323
2508 973 858
2488 788 1447
2412 669 1954
2367 751 2366
2326 1119 2810
2208 1415 3176
2074 1646 3312
2494 1605 81
2528 1585 330
2556 1570 868
2572 1540 1475
2597 1459 2092
2543 1509 2553
2399 1692 2931
2229 1852 3248
2093 1990 3378
2558 2111 183
2574 2107 289
2591 2101 849
2589 2096 1463
2596 2101 2082
2595 2121 2608
2426 2199 2966
2242 2272 3274
2123 2344 3436
2651 2593 404
2643 2601 414
2632 2613 728
2631 2602 1452
2625 2594 2076
2607 2595 2609
2469 2616 2960
2297 2645 3288
2192 2679 3509
2755 3003 660
2737 3010 713
2692 3026 797
2667 3011 1457
2659 2983 2040
2651 2955 2546
2542 2970 2929
2503 2985 3281
2485 2991 3595
2827 3366 826
2808 3366 938
2757 3367 1078
2697 3355 1473
2683 3323 2020
2677 3290 2501
2656 3284 2905
2488 3346 3280
2449 3390 3675
2855 3737 861
2838 3734 1043
2793 3725 1245
2727 3707 1459
2693 3681 2007
2690 3655 2481
2695 3647 2911
2669 3686 3305
2653 3745 3695
2758 495 68
2773 110 285
2705 16 797
2542 7 1298
2354 13 1653
2286 75 1970
2321 224 2288
2469 595 2775
2524 1159 3138
2800 799 69
2855 592 305
2784 246 771
2635 129 1299
2442 40 1695
2366 100 2037
2395 284 2368
2544 706 2884
2552 1316 3185
2879 1182 70
2923 1119 343
2954 983 826
2904 839 1405
2777 583 1909
2669 596 2302
2640 757 2626
2682 1258 3063
2594 1609 3265
2947 1627 77
2977 1607 368
3018 1572 819
3007 1537 1433
2983 1427 2033
2900 1431 2498
2836 1537 2835
2757 1762 3174
2632 1967 3345
2983 2109 121
3005 2099 352
3044 2081 772
3037 2080 1413
3019 2070 2015
2978 2050 2557
2903 2103 2911
2791 2223 3228
2663 2338 3404
3028 2584 245
3039 2583 330
3058 2578 720
3053 2572 1402
3036 2568 1985
2996 2567 2548
2932 2570 2941
2821 2627 3259
2718 2681 3480
3086 3028 434
3079 3033 491
3063 3045 559
3056 3032 1354
3039 3009 1978
3007 2981 2534
2957 2949 2957
2882 2985 3297
2805 3016 3592
3142 3427 615
3128 3429 743
3095 3434 896
3062 3427 1376
3049 3396 1977
3033 3353 2509
3008 3304 2941
2950 3336 3308
2937 3377 3694
3177 3818 695
3163 3816 895
3131 3810 1117
3083 3796 1366
3063 3770 1985
3055 3733 2496
3043 3694 2937
3031 3695 3324
3027 3754 3724
3224 591 85
3270 370 323
3206 37 780
3056 25 1320
2851 37 1758
2690 121 2075
2666 297 2383
2727 617 2690
2828 1086 3046
3258 888 86
3307 732 336
3258 268 747
3134 197 1307
2932 124 1783
2764 144 2121
2730 342 2441
2778 687 2746
2866 1200 3076
3326 1249 83
3367 1185 363
3405 994 782
3344 868 1371
3175 492 1880
2968 323 2250
2869 469 2566
2891 857 2873
2938 1547 3173
3403 1660 80
3428 1640 387
3484 1574 754
3453 1538 1397
3386 1450 1981
3265 1364 2471
3138 1449 2812
3072 1602 3065
3001 1923 3264
3448 2118 94
3469 2107 388
3519 2078 688
3507 2077 1373
3462 2057 1968
3381 1997 2522
3238 2030 2895
3153 2114 3154
3057 2301 3348
3476 2590 140
3491 2585 362
3533 2571 597
3532 2566 1343
3509 2563 1932
3438 2549 2502
3304 2525 2942
3209 2557 3216
3127 2654 3446
3513 3051 233
3520 3052 357
3539 3052 492
3533 3043 1338
3515 3033 1928
3479 3021 2478
3388 2988 2972
3262 2944 3268
3206 2998 3554
3547 3491 359
3541 3493 498
3527 3499 648
3513 3496 1224
3495 3470 1892
3458 3432 2466
3400 3381 2961
3320 3315 3320
3303 3365 3676
3570 3909 475
3560 3908 694
3537 3906 929
3502 3897 1206
3488 3874 1917
3468 3838 2468
3437 3787 2957
3398 3728 3358
3395 3761 3752
3690 673 100
3733 519 354
3673 57 747
3557 51 1324
3378 72 1836
3170 169 2204
3036 371 2500
2999 680 2761
3019 1026 2988
3718 966 99
3757 858 362
3731 469 751
3647 498 1366
3489 494 1906
3279 529 2296
3101 605 2570
3042 856 2814
3074 1238 3045
3776 1314 94
3814 1253 382
3834 1033 734
3758 1048 1400
3629 1054 1967
3440 1095 2408
3264 1202 2708
3170 1342 2938
3155 1554 3128
3860 1698 85
3880 1679 400
3936 1589 691
3866 1577 1393
3754 1583 1984
3578 1607 2480
3384 1684 2801
3276 1777 3035
3243 1906 3220
3924 2133 81
3941 2123 408
3987 2091 723
3967 2073 1343
3875 2080 1964
3722 2092 2508
3513 2133 2882
3387 2186 3131
3343 2261 3326
3964 2600 90
3979 2594 397
4017 2577 706
4012 2565 1318
3981 2563 1906
3865 2562 2495
3663 2566 2956
3494 2586 3218
3440 2617 3431
4002 3074 113
4013 3072 361
4029 3065 617
4023 3057 1257
4004 3051 1885
3969 3044 2457
3839 3016 2982
3610 2972 3304
3544 2971 3541
4017 3542 166
4018 3542 362
4019 3544 562
4011 3539 1216
3988 3523 1893
3957 3504 2458
3918 3483 2976
3801 3418 3408
3653 3339 3653
3878 3842 1618
3877 3843 1848
3884 3853 2044
3902 3882 2137
3954 3954 2011
3930 3931 2477
3886 3886 2983
3831 3830 3417
3757 3756 3758
