assets/luts/LUTs by IWLTBAP (3DL)/07 - Utility/Divers/Cinema Base Rec709 (optimized) V2.3dl
# Copyright: (C) Copyright 2010-2020 by IWLTBAP SAS
# Cannot be resold, shared or otherwise redistributed
# Website: https://luts.iwltbap.com
0 64 128 192 256 320 384 448 512 576 640 704 768 832 896 960 1023
0 0 0
0 9 64
0 34 144
0 69 313
0 86 567
0 122 756
0 160 942
0 190 1122
0 225 1295
0 267 1455
0 333 1613
0 415 1770
1 518 1929
3 633 2083
10 756 2236
25 887 2390
55 1018 2538
34 184 6
0 197 159
0 200 332
0 218 463
0 234 629
0 251 810
0 268 992
0 289 1170
0 317 1335
0 360 1501
0 422 1660
0 504 1813
3 602 1972
6 712 2124
14 828 2268
34 952 2421
62 1075 2562
121 394 12
0 408 86
0 410 353
0 409 552
0 395 789
0 414 912
0 427 1070
0 443 1240
0 470 1412
0 512 1572
0 572 1720
3 646 1868
4 735 2018
11 833 2161
20 942 2316
44 1054 2461
77 1165 2595
197 638 17
18 644 30
0 657 319
0 657 579
0 653 796
0 632 1061
0 631 1249
0 662 1363
0 692 1511
0 731 1654
3 783 1805
4 849 1948
11 926 2093
20 1012 2235
36 1104 2378
63 1199 2514
104 1297 2649
291 910 22
62 906 16
0 927 247
0 936 555
0 933 834
0 931 1059
0 922 1308
0 907 1564
2 941 1677
3 986 1780
7 1033 1910
11 1086 2043
23 1149 2176
37 1218 2308
59 1293 2446
92 1370 2570
136 1452 2695
393 1199 30
162 1193 25
3 1201 145
4 1227 483
4 1229 836
4 1226 1110
4 1227 1327
4 1223 1564
7 1225 1785
14 1238 1981
20 1284 2062
30 1333 2160
47 1383 2278
65 1438 2400
93 1495 2514
136 1560 2642
189 1627 2761
531 1491 48
337 1485 43
24 1467 42
21 1505 415
21 1520 770
19 1513 1150
19 1511 1389
19 1513 1587
24 1515 1798
34 1523 2001
53 1532 2220
73 1563 2341
93 1609 2415
117 1656 2502
153 1704 2610
206 1757 2728
268 1812 2837
718 1773 92
554 1765 88
211 1743 76
67 1762 327
68 1787 720
66 1790 1090
64 1777 1459
64 1778 1654
72 1782 1830
86 1787 2020
106 1796 2215
135 1809 2396
181 1826 2590
218 1865 2670
261 1909 2742
314 1955 2826
383 2002 2928
953 2034 184
810 2026 175
523 2006 160
160 1989 224
167 2028 685
171 2038 1062
170 2035 1410
173 2021 1742
182 2026 1902
193 2032 2061
208 2039 2234
237 2048 2418
279 2064 2584
350 2079 2778
426 2109 2919
478 2148 2987
531 2189 3055
1200 2272 314
1076 2264 303
856 2248 286
431 2217 269
307 2242 661
315 2261 1053
324 2264 1396
335 2259 1707
341 2251 2004
350 2259 2133
360 2268 2280
378 2277 2441
414 2288 2614
471 2303 2784
542 2322 2943
637 2339 3138
688 2368 3225
1438 2485 478
1354 2479 470
1181 2466 453
838 2440 431
480 2430 590
496 2459 1057
512 2468 1395
528 2468 1700
539 2466 1970
536 2464 2234
542 2475 2345
547 2487 2484
561 2499 2638
597 2512 2804
650 2525 2975
710 2543 3123
789 2556 3313
1650 2676 654
1581 2671 648
1469 2662 638
1213 2642 619
726 2606 605
710 2637 1058
723 2651 1402
738 2656 1694
745 2656 1961
743 2658 2204
725 2663 2444
727 2677 2542
724 2693 2676
729 2708 2825
751 2722 2986
788 2735 3156
833 2749 3308
1835 2848 831
1778 2843 829
1686 2836 824
1501 2821 812
1190 2797 797
945 2800 1051
947 2818 1409
948 2825 1701
947 2829 1956
940 2833 2189
918 2840 2416
884 2855 2635
875 2872 2734
856 2892 2869
840 2910 3022
839 2926 3186
855 2939 3359
1921 3015 961
1879 3011 971
1806 3005 979
1676 2994 984
1454 2977 987
1137 2960 1033
1119 2982 1427
1110 2993 1700
1100 2998 1953
1088 3003 2187
1067 3012 2403
1029 3027 2619
980 3048 2825
959 3068 2932
925 3091 3074
892 3113 3234
875 3131 3404
1943 3183 1045
1909 3179 1071
1857 3175 1096
1763 3166 1120
1598 3153 1142
1356 3137 1163
1242 3147 1415
1221 3159 1705
1205 3166 1955
1189 3173 2185
1168 3182 2401
1137 3197 2606
1083 3220 2823
1021 3248 3019
990 3270 3138
946 3296 3290
901 3322 3460
1909 3356 1085
1881 3353 1130
1839 3348 1172
1767 3341 1215
1649 3331 1258
1484 3320 1300
1302 3316 1418
1276 3330 1719
1259 3341 1951
1241 3350 2181
1220 3360 2400
1192 3375 2606
1147 3395 2812
1079 3426 3033
1014 3459 3222
976 3483 3357
926 3513 3522
1832 3544 1089
1808 3541 1152
1775 3537 1216
1723 3532 1280
1634 3524 1343
1510 3513 1405
1356 3502 1488
1270 3508 1745
1248 3519 1978
1268 3533 2207
1253 3545 2420
1220 3559 2623
1162 3578 2824
1110 3606 3028
1055 3647 3256
961 3679 3442
960 3703 3595
178 4 2
159 2 177
62 20 381
4 43 584
0 69 764
0 108 912
0 144 1069
0 176 1231
0 216 1370
0 266 1522
0 336 1666
0 424 1823
3 530 1979
5 648 2136
14 776 2294
31 907 2443
62 1033 2570
189 201 11
176 200 182
87 215 395
6 218 613
0 227 781
0 242 934
0 259 1095
0 281 1255
0 313 1411
0 362 1555
0 428 1707
0 513 1860
4 612 2000
8 723 2151
15 841 2300
38 966 2455
71 1089 2594
255 413 16
202 422 103
112 428 378
77 415 629
0 407 851
0 416 992
0 424 1157
0 442 1310
0 472 1464
0 517 1616
0 579 1760
3 655 1906
6 747 2059
11 847 2199
25 953 2342
48 1064 2482
86 1177 2623
323 655 20
215 667 46
170 677 325
11 676 601
3 662 861
0 628 1152
0 643 1287
0 669 1413
0 698 1557
1 739 1702
4 792 1844
5 859 1987
11 935 2120
23 1021 2262
38 1112 2396
69 1208 2534
107 1303 2659
399 926 24
232 932 19
155 949 248
112 956 553
0 950 851
0 942 1103
0 927 1363
0 914 1603
2 952 1699
3 995 1811
8 1042 1943
14 1096 2075
25 1159 2204
40 1227 2335
62 1300 2458
99 1379 2591
148 1462 2722
490 1214 33
309 1215 29
121 1220 142
108 1246 476
42 1245 825
4 1239 1124
4 1236 1356
4 1230 1602
9 1229 1833
14 1248 1999
21 1293 2079
32 1341 2180
48 1391 2299
70 1446 2421
101 1504 2541
144 1567 2662
198 1634 2778
616 1505 51
448 1502 47
117 1484 42
95 1518 402
68 1533 756
22 1525 1137
19 1520 1399
20 1521 1606
25 1521 1824
37 1528 2030
58 1537 2248
76 1571 2353
96 1617 2428
123 1663 2521
162 1712 2632
210 1761 2734
279 1819 2855
802 1786 100
651 1780 92
333 1761 81
109 1768 302
105 1795 707
75 1799 1074
66 1786 1454
67 1785 1663
75 1789 1845
87 1792 2039
110 1801 2235
139 1813 2422
186 1832 2603
223 1871 2680
265 1914 2749
321 1960 2837
392 2007 2942
1012 2044 190
888 2038 183
644 2022 168
197 1994 195
181 2031 671
175 2043 1047
174 2041 1398
177 2028 1739
186 2032 1908
196 2038 2072
211 2044 2248
242 2053 2435
285 2068 2600
363 2083 2804
434 2114 2930
483 2153 2994
535 2193 3060
1247 2280 322
1153 2275 313
950 2261 297
524 2229 273
306 2243 621
315 2263 1035
329 2269 1380
340 2265 1698
346 2256 2005
355 2264 2138
364 2272 2288
382 2281 2451
420 2291 2628
476 2306 2796
550 2325 2960
645 2343 3152
696 2374 3238
1468 2491 484
1398 2487 477
1242 2475 462
929 2451 439
488 2429 537
498 2461 1029
516 2472 1376
532 2473 1686
543 2470 1965
540 2468 2234
546 2479 2350
550 2490 2490
565 2502 2646
601 2515 2815
655 2529 2987
715 2545 3135
793 2557 3322
1677 2681 660
1618 2677 655
1498 2668 645
1276 2650 627
810 2615 605
712 2639 1029
726 2654 1382
741 2659 1683
749 2660 1952
747 2661 2200
728 2666 2445
730 2681 2546
726 2696 2681
731 2711 2832
754 2725 2995
792 2738 3167
838 2752 3320
1855 2852 835
1806 2848 833
1718 2841 828
1561 2828 819
1250 2805 803
952 2799 977
951 2820 1386
956 2829 1676
954 2833 1943
946 2835 2185
925 2843 2413
891 2858 2637
882 2875 2737
864 2894 2874
849 2913 3029
850 2929 3194
867 2942 3369
1945 3018 963
1904 3015 973
1841 3010 983
1718 2999 988
1496 2982 990
1171 2962 1018
1138 2984 1388
1127 2995 1686
1117 3001 1943
1106 3006 2177
1085 3014 2399
1049 3029 2618
1000 3051 2827
979 3071 2935
946 3094 3078
915 3116 3239
899 3133 3410
1978 3186 1046
1944 3183 1072
1893 3178 1098
1805 3170 1122
1646 3157 1144
1421 3142 1166
1271 3147 1401
1252 3161 1687
1236 3169 1942
1222 3176 2174
1203 3185 2392
1171 3199 2603
1118 3222 2822
1056 3250 3020
1027 3272 3140
983 3298 3293
940 3324 3464
1959 3359 1085
1931 3356 1130
1890 3351 1173
1824 3345 1216
1713 3335 1259
1545 3323 1302
1348 3317 1407
1324 3332 1702
1305 3342 1947
1288 3351 2178
1270 3362 2393
1242 3376 2604
1199 3397 2810
1132 3428 3032
1068 3460 3224
1032 3485 3359
983 3515 3525
1898 3547 1088
1875 3544 1152
1847 3541 1215
1792 3535 1280
1704 3526 1344
1594 3517 1406
1442 3505 1480
1335 3509 1740
1340 3522 1977
1345 3534 2201
1343 3547 2417
1319 3561 2623
1263 3580 2824
1176 3606 3026
1094 3646 3254
1058 3680 3444
1036 3704 3597
367 16 4
337 3 169
325 0 353
266 4 625
149 29 889
4 56 1120
0 98 1274
0 149 1379
0 203 1490
0 265 1613
0 343 1761
0 438 1890
3 548 2044
6 671 2200
16 791 2318
36 921 2464
71 1053 2612
407 234 9
415 213 180
381 182 398
285 201 655
145 204 919
0 200 1145
0 226 1279
0 260 1397
0 304 1524
0 362 1653
0 438 1790
1 529 1925
4 632 2065
9 742 2204
20 860 2342
45 986 2495
83 1109 2636
429 434 19
426 437 126
397 427 400
302 429 661
148 415 933
0 398 1161
0 411 1303
0 434 1434
0 472 1564
0 524 1694
0 591 1838
3 673 1981
7 764 2112
15 867 2257
29 971 2381
59 1087 2538
98 1195 2658
493 677 24
441 690 61
417 693 347
327 694 636
289 674 925
108 648 1203
0 655 1374
0 675 1504
0 706 1644
3 750 1778
4 805 1902
7 875 2041
15 954 2176
26 1040 2314
46 1129 2439
77 1224 2569
124 1323 2706
560 947 28
453 960 25
410 977 270
377 982 571
182 980 890
153 962 1176
94 933 1455
2 932 1657
2 972 1749
6 1011 1870
10 1056 1993
17 1110 2120
29 1175 2254
47 1243 2381
70 1315 2498
109 1392 2623
155 1472 2740
646 1236 37
506 1243 35
389 1257 166
369 1279 491
315 1280 843
10 1259 1147
6 1251 1411
4 1242 1666
10 1235 1906
17 1265 2030
26 1310 2112
37 1355 2222
56 1405 2339
77 1458 2456
110 1516 2572
156 1580 2692
210 1645 2804
767 1527 59
627 1528 55
390 1523 56
367 1557 416
337 1571 767
245 1561 1149
21 1537 1418
22 1534 1642
29 1532 1873
41 1537 2082
64 1547 2288
82 1585 2374
102 1629 2451
132 1674 2548
173 1722 2659
225 1772 2762
292 1828 2875
933 1805 111
803 1803 103
548 1792 92
398 1807 325
381 1833 714
335 1837 1085
157 1808 1453
73 1798 1677
78 1799 1869
92 1802 2073
115 1809 2270
150 1819 2469
196 1842 2627
231 1881 2693
279 1926 2771
333 1968 2857
409 2017 2966
1130 2062 206
1021 2058 198
808 2046 184
477 2028 218
467 2065 679
443 2079 1051
372 2071 1404
187 2039 1737
191 2042 1919
203 2047 2091
219 2052 2274
251 2059 2464
297 2075 2631
381 2090 2839
443 2122 2941
493 2161 3006
551 2203 3082
1339 2295 337
1255 2291 329
1096 2281 314
717 2253 289
579 2271 633
572 2293 1037
534 2296 1383
416 2280 1695
353 2266 2001
362 2272 2147
371 2280 2302
388 2287 2471
428 2298 2652
488 2312 2818
565 2329 2987
655 2348 3169
703 2380 3246
1546 2503 497
1481 2500 491
1346 2491 479
1063 2469 454
702 2450 549
704 2481 1033
693 2492 1375
631 2488 1682
550 2477 1956
547 2475 2236
552 2486 2357
556 2497 2502
571 2508 2662
609 2520 2834
664 2534 3006
725 2550 3155
805 2562 3348
1734 2691 671
1682 2688 667
1576 2680 658
1374 2664 640
979 2634 616
832 2650 1027
841 2666 1377
812 2668 1676
756 2664 1943
753 2666 2194
735 2672 2445
735 2686 2552
730 2701 2690
735 2717 2845
758 2729 3011
798 2742 3185
844 2755 3335
1902 2861 842
1859 2857 841
1771 2850 837
1627 2839 829
1343 2817 813
963 2800 969
982 2823 1383
974 2831 1677
960 2835 1937
955 2841 2175
934 2847 2409
900 2862 2641
891 2880 2743
872 2899 2883
858 2918 3040
861 2933 3208
881 2945 3384
1991 3026 965
1954 3023 977
1896 3018 987
1775 3008 995
1575 2992 998
1252 2970 1007
1150 2985 1389
1141 2996 1681
1132 3003 1935
1124 3009 2169
1105 3018 2392
1070 3033 2614
1020 3055 2830
1000 3075 2939
967 3098 3085
937 3120 3249
923 3137 3422
2019 3192 1046
2001 3190 1073
1952 3186 1100
1856 3176 1125
1724 3165 1149
1498 3149 1171
1298 3149 1375
1278 3162 1685
1265 3171 1935
1252 3178 2167
1234 3188 2387
1206 3202 2599
1152 3225 2820
1091 3253 3023
1063 3276 3145
1020 3302 3300
978 3328 3473
2012 3365 1084
1997 3363 1128
1957 3358 1172
1889 3351 1217
1778 3341 1262
1620 3329 1305
1405 3319 1368
1369 3334 1689
1351 3344 1938
1335 3354 2169
1318 3364 2388
1292 3378 2599
1252 3400 2807
1186 3431 3031
1121 3464 3227
1087 3489 3363
1039 3518 3531
1965 3552 1086
1955 3551 1149
1922 3547 1214
1871 3541 1279
1792 3533 1344
1675 3522 1407
1543 3510 1477
1474 3517 1742
1481 3529 1981
1451 3538 2198
1443 3550 2415
1403 3564 2620
1394 3585 2827
1328 3611 3030
1179 3648 3254
1129 3682 3447
1278 3708 3602
576 43 8
572 3 174
526 0 340
516 0 542
465 0 855
346 19 1137
182 59 1357
27 101 1533
0 169 1679
0 256 1778
0 353 1887
1 460 2018
4 577 2144
10 699 2277
26 829 2417
51 957 2544
98 1092 2695
635 259 10
662 212 153
633 149 384
599 123 631
497 163 920
359 178 1189
174 190 1399
21 220 1570
0 284 1707
0 364 1806
1 454 1916
3 553 2047
5 661 2172
14 775 2297
31 896 2436
61 1019 2569
