assets/luts/LUTs by IWLTBAP (3DL)/07 - Utility/Divers/Cinema Base Rec709 (optimized) V2.3dl
# Copyright: (C) Copyright 2010-2020 by IWLTBAP SAS
# Cannot be resold, shared or otherwise redistributed
# Website: https://luts.iwltbap.com
0 256 512 768 1023
0 0 0
0 86 567
0 225 1295
1 518 1929
55 1018 2538
291 910 22
0 933 834
2 941 1677
23 1149 2176
136 1452 2695
953 2034 184
167 2028 685
182 2026 1902
279 2064 2584
531 2189 3055
1835 2848 831
1190 2797 797
947 2829 1956
875 2872 2734
855 2939 3359
1832 3544 1089
1634 3524 1343
1248 3519 1978
1162 3578 2824
960 3703 3595
808 93 12
727 0 756
226 132 1745
10 616 2309
131 1135 2784
1027 997 40
952 977 965
212 1018 1976
56 1232 2450
225 1529 2882
1477 2111 256
1118 2138 735
564 2108 1991
504 2101 2774
594 2232 3145
2053 2891 860
1660 2862 856
1438 2883 1932
919 2899 2765
919 2960 3451
2137 3575 1069
1992 3557 1344
1720 3543 1971
1688 3596 2839
1579 3715 3616
1806 286 34
1714 0 784
1567 2 1559
1539 399 2581
1267 1262 3172
1977 1070 44
2062 966 889
2026 764 2038
1681 1269 2883
1292 1658 3261
2195 2135 271
2182 2156 862
2178 2160 2183
1762 2215 2959
1392 2325 3401
2495 2972 807
2372 2987 913
2287 2949 2019
1995 2967 2878
1895 2994 3601
2581 3668 972
2497 3654 1313
2348 3614 1999
2343 3625 2880
2285 3735 3664
2758 495 68
2705 16 797
2354 13 1653
2321 224 2288
2524 1159 3138
2879 1182 70
2954 983 826
2777 583 1909
2640 757 2626
2594 1609 3265
2983 2109 121
3044 2081 772
3019 2070 2015
2903 2103 2911
2663 2338 3404
3086 3028 434
3063 3045 559
3039 3009 1978
2957 2949 2957
2805 3016 3592
3177 3818 695
3131 3810 1117
3063 3770 1985
3043 3694 2937
3027 3754 3724
3690 673 100
3673 57 747
3378 72 1836
3036 371 2500
3019 1026 2988
3776 1314 94
3834 1033 734
3629 1054 1967
3264 1202 2708
3155 1554 3128
3924 2133 81
3987 2091 723
3875 2080 1964
3513 2133 2882
3343 2261 3326
4002 3074 113
4029 3065 617
4004 3051 1885
3839 3016 2982
3544 2971 3541
3878 3842 1618
3884 3853 2044
3954 3954 2011
3886 3886 2983
3757 3756 3758
