assets/luts/LUTs by IWLTBAP (COSTYLE)/Windows/IWLTBAP Cinematic LUTs/75%/C-8120-STD-75.costyle
<?xml version="1.0"?>
<!--
Generated by IWLTBAP for the LUTs Color Grading Packs
Cannot be resold, shared or otherwise redistributed
Copyright (C) 2010-2020 IWLTBAP SAS
-->
<SL Engine="1000">
	<E K="ICCProfile" V="C-8120-STD-75.icc" />
	<E K="Name" V="C-8120-STD-75" />
	<E K="UUID" V="F573B195-A40A-419B-9F94-1F6E5EE93884" />
</SL>
