assets/luts/LUTs by IWLTBAP (COSTYLE)/Windows/IWLTBAP Cinematic LUTs/75%/C-9730-STD-75.costyle
<?xml version="1.0"?>
<!--
Generated by IWLTBAP for the LUTs Color Grading Packs
Cannot be resold, shared or otherwise redistributed
Copyright (C) 2010-2020 IWLTBAP SAS
-->
<SL Engine="1000">
	<E K="ICCProfile" V="C-9730-STD-75.icc" />
	<E K="Name" V="C-9730-STD-75" />
	<E K="UUID" V="F797474F-6916-4932-AA95-1834CE1725CC" />
</SL>
