assets/luts/LUTs by IWLTBAP (COSTYLE)/Windows/IWLTBAP Cinematic LUTs/75%/F-6800-STD-75.costyle
<?xml version="1.0"?>
<SL Engine="1000">
	<E K="ICCProfile" V="F-6800-STD-75.icc" />
	<E K="Name" V="F-6800-STD-75" />
	<E K="UUID" V="25304FB1-3A3A-4DED-83E3-65EA38719448" />
</SL>
