assets/luts/LUTs by IWLTBAP (COSTYLE)/Windows/IWLTBAP Cinematic LUTs/75%/H-9110-STD-75.costyle
<?xml version="1.0"?>
<!--
Generated by IWLTBAP for the LUTs Color Grading Packs
Cannot be resold, shared or otherwise redistributed
Copyright (C) 2010-2020 IWLTBAP SAS
-->
<SL Engine="1000">
	<E K="ICCProfile" V="H-9110-STD-75.icc" />
	<E K="Name" V="H-9110-STD-75" />
	<E K="UUID" V="DB5460FE-9180-4BCB-989D-091E36D01FB9" />
</SL>
