assets/luts/LUTs by IWLTBAP (COSTYLE)/Windows/IWLTBAP Cinematic LUTs/75%/W-8370-STD-75.costyle
<?xml version="1.0"?>
<!--
Generated by IWLTBAP for the LUTs Color Grading Packs
Cannot be resold, shared or otherwise redistributed
Copyright (C) 2010-2020 IWLTBAP SAS
-->
<SL Engine="1000">
	<E K="ICCProfile" V="W-8370-STD-75.icc" />
	<E K="Name" V="W-8370-STD-75" />
	<E K="UUID" V="7B9163D0-6926-425A-8EDA-DD88A14653B4" />
</SL>
