assets/luts/LUTs by IWLTBAP (COSTYLE)/Windows/IWLTBAP Cinematic LUTs/75%/X-6500-STD-75.costyle
<?xml version="1.0"?>
<SL Engine="1000">
	<E K="ICCProfile" V="X-6500-STD-75.icc" />
	<E K="Name" V="X-6500-STD-75" />
	<E K="UUID" V="86DF972C-4D0B-4729-9D21-D8054C2830A0" />
</SL>
