assets/luts/LUTs by IWLTBAP (COSTYLE)/Windows/IWLTBAP Cinematic LUTs/75%/X-9400-STD-75.costyle
<?xml version="1.0"?>
<!--
Generated by IWLTBAP for the LUTs Color Grading Packs
Cannot be resold, shared or otherwise redistributed
Copyright (C) 2010-2020 IWLTBAP SAS
-->
<SL Engine="1000">
	<E K="ICCProfile" V="X-9400-STD-75.icc" />
	<E K="Name" V="X-9400-STD-75" />
	<E K="UUID" V="53007E8D-14EC-4AC1-AC39-0BE85B0AAC66" />
</SL>
