assets/luts/LUTs by IWLTBAP (COSTYLE)/Mac/IWLTBAP Cinematic LUTs/50%/C-8120-STD-50.costyle
<?xml version="1.0"?>
<!--
Generated by IWLTBAP for the LUTs Color Grading Packs
Cannot be resold, shared or otherwise redistributed
Copyright (C) 2010-2020 IWLTBAP SAS
-->
<SL Engine="1000">
	<E K="ICCProfile" V="C-8120-STD-50.icc" />
	<E K="Name" V="C-8120-STD-50" />
	<E K="UUID" V="B51026E4-6AD0-4EDD-9B22-DE85945F2DF9" />
</SL>
