assets/luts/LUTs by IWLTBAP (COSTYLE)/Mac/IWLTBAP Cinematic LUTs/50%/C-9730-STD-50.costyle
<?xml version="1.0"?>
<!--
Generated by IWLTBAP for the LUTs Color Grading Packs
Cannot be resold, shared or otherwise redistributed
Copyright (C) 2010-2020 IWLTBAP SAS
-->
<SL Engine="1000">
	<E K="ICCProfile" V="C-9730-STD-50.icc" />
	<E K="Name" V="C-9730-STD-50" />
	<E K="UUID" V="4AD3D66C-2242-4AE6-A7E9-5FE5124F6DF4" />
</SL>
