assets/luts/LUTs by IWLTBAP (COSTYLE)/Mac/IWLTBAP Cinematic LUTs/50%/F-6800-STD-50.costyle
<?xml version="1.0"?>
<SL Engine="1000">
	<E K="ICCProfile" V="F-6800-STD-50.icc" />
	<E K="Name" V="F-6800-STD-50" />
	<E K="UUID" V="B98B3946-4B25-4D6D-8BF2-8A2DBF86E7FD" />
</SL>
