assets/luts/LUTs by IWLTBAP (COSTYLE)/Mac/IWLTBAP Cinematic LUTs/50%/F-8700-V2-STD-50.costyle
<?xml version="1.0"?>
<!--
Generated by IWLTBAP for the LUTs Color Grading Packs
Cannot be resold, shared or otherwise redistributed
Copyright (C) 2010-2020 IWLTBAP SAS
-->
<SL Engine="1000">
	<E K="ICCProfile" V="F-8700-V2-STD-50.icc" />
	<E K="Name" V="F-8700-V2-STD-50" />
	<E K="UUID" V="B233BE19-0AB2-4F39-A8FE-70D152CC97B8" />
</SL>
