assets/luts/LUTs by IWLTBAP (COSTYLE)/Mac/IWLTBAP Cinematic LUTs/50%/W-8370-STD-50.costyle
<?xml version="1.0"?>
<!--
Generated by IWLTBAP for the LUTs Color Grading Packs
Cannot be resold, shared or otherwise redistributed
Copyright (C) 2010-2020 IWLTBAP SAS
-->
<SL Engine="1000">
	<E K="ICCProfile" V="W-8370-STD-50.icc" />
	<E K="Name" V="W-8370-STD-50" />
	<E K="UUID" V="0B4BDEC6-68F7-4A47-BF02-894886C05AB2" />
</SL>
