assets/luts/LUTs by IWLTBAP (COSTYLE)/Mac/IWLTBAP Cinematic LUTs/50%/X-6500-STD-50.costyle
<?xml version="1.0"?>
<SL Engine="1000">
	<E K="ICCProfile" V="X-6500-STD-50.icc" />
	<E K="Name" V="X-6500-STD-50" />
	<E K="UUID" V="35306F58-AF84-4909-AC17-8D764C460480" />
</SL>
