assets/luts/LUTs by IWLTBAP (COSTYLE)/Mac/IWLTBAP Cinematic LUTs/50%/X-9400-STD-50.costyle
<?xml version="1.0"?>
<!--
Generated by IWLTBAP for the LUTs Color Grading Packs
Cannot be resold, shared or otherwise redistributed
Copyright (C) 2010-2020 IWLTBAP SAS
-->
<SL Engine="1000">
	<E K="ICCProfile" V="X-9400-STD-50.icc" />
	<E K="Name" V="X-9400-STD-50" />
	<E K="UUID" V="BA31E333-9341-49C7-9C73-4C1B70ACDE06" />
</SL>
