assets/luts/LUTs by IWLTBAP (3DL)/03 - V-Log/C-8120-VLOG.3dl
# Copyright: (C) Copyright 2010-2020 by IWLTBAP SAS
# Cannot be resold, shared or otherwise redistributed
# Website: https://luts.iwltbap.com
0 256 512 768 1023
0 0 0
16 84 1112
72 425 2007
133 598 2493
145 610 2505
0 506 120
0 626 1000
12 807 2533
142 616 2535
145 610 2505
112 1807 666
46 1839 953
0 2112 2674
0 1758 3071
0 1373 3035
245 2541 690
245 2541 690
44 2833 2027
0 2911 3437
0 2858 3397
257 2553 690
257 2553 690
128 2714 1453
4 2955 3469
16 2955 3469
646 273 132
595 128 1117
145 584 2467
151 607 2523
145 610 2505
393 554 67
158 580 850
49 759 2509
144 609 2528
145 610 2505
108 1825 558
56 1859 797
0 2076 2587
0 1710 3051
16 1327 3011
245 2541 678
245 2541 678
50 2813 1965
0 2899 3425
0 2833 3413
257 2553 690
257 2553 690
137 2682 1321
0 2951 3452
16 2955 3469
2208 996 731
2122 823 693
1738 550 2585
650 819 3091
490 827 3067
2335 1006 476
2315 1000 706
1658 568 2556
626 819 3087
482 813 3067
2272 2088 398
2212 2015 407
984 2035 2387
74 1521 3158
76 1152 3063
1791 2947 550
1598 2896 514
749 2965 1441
0 3041 3521
0 2869 3445
867 2762 482
797 2726 474
474 2774 964
0 3011 3479
8 2955 3469
3216 1449 1080
3204 1437 1077
3129 970 1855
2691 855 3312
2553 839 3296
3216 1449 1068
3204 1437 1068
3094 976 1706
2694 855 3312
2541 835 3296
3824 2114 365
3808 2027 373
3550 2218 1894
2777 1299 3428
2503 962 3312
3990 3248 710
3971 3244 706
3961 3372 1243
3538 3817 3950
3102 3579 3946
3906 3276 751
3894 3260 739
3866 3324 841
3259 3864 3820
2224 3742 3930
3228 1462 1092
3228 1462 1092
3059 1092 1172
2830 867 3324
2778 867 3340
3228 1462 1092
3228 1462 1092
3047 1124 1156
2842 876 3336
2778 867 3340
3678 1710 522
3649 1674 552
3416 1758 1345
2913 1022 3372
2786 883 3340
4027 3204 694
4027 3195 694
4039 3224 831
3736 3733 3860
3521 3312 3930
4015 3276 739
4015 3276 739
4015 3284 747
3938 3918 3513
4047 4047 4047
