assets/luts/LUTs by IWLTBAP (3DL)/03 - V-Log/C-8120-VLOG.3dl
# Copyright: (C) Copyright 2010-2020 by IWLTBAP SAS
# Cannot be resold, shared or otherwise redistributed
# Website: https://luts.iwltbap.com
0 128 256 384 512 640 768 896 1023
0 0 0
30 30 572
16 84 1112
16 195 1574
72 425 2007
102 584 2401
133 598 2493
145 610 2505
145 610 2505
0 185 14
0 215 418
0 262 1097
10 221 1579
58 424 2007
102 584 2401
133 598 2493
145 610 2505
145 610 2505
0 506 120
0 522 341
0 626 1000
0 747 1744
12 807 2533
138 702 2670
142 616 2535
145 610 2505
145 610 2505
0 988 327
0 973 339
0 1116 946
0 1287 1710
0 1331 2610
32 1193 3025
47 1066 3005
202 882 2952
135 660 2575
112 1807 666
88 1783 666
46 1839 953
3 1997 1689
0 2112 2674
0 1919 3091
0 1758 3071
0 1576 3050
0 1373 3035
183 2407 749
199 2407 740
175 2398 800
120 2511 1311
3 2757 2450
0 2700 3302
0 2503 3280
0 2395 3234
0 2236 3220
245 2541 690
245 2541 690
245 2541 690
193 2601 1020
44 2833 2027
0 3031 3292
0 2911 3437
0 2885 3425
0 2858 3397
257 2553 690
257 2553 690
257 2553 690
231 2578 838
90 2776 1740
0 3062 3201
4 2955 3469
16 2955 3469
16 2955 3469
257 2553 690
257 2553 690
257 2553 690
247 2553 721
128 2714 1453
0 3047 2985
4 2955 3469
16 2955 3469
16 2955 3469
199 46 32
152 76 564
24 80 1163
24 215 1593
72 425 2007
102 584 2401
133 598 2493
145 610 2505
145 610 2505
92 187 0
22 201 376
0 236 1072
11 211 1580
71 418 1995
102 584 2401
133 598 2493
145 610 2505
145 610 2505
3 497 90
0 508 243
0 597 957
0 719 1684
14 776 2485
117 681 2646
143 616 2535
145 610 2505
145 610 2505
0 978 297
0 970 311
0 1088 910
0 1241 1703
0 1310 2576
27 1167 3026
43 1054 2995
237 863 2936
135 650 2565
88 1807 650
81 1761 650
37 1831 922
0 1985 1642
0 2096 2622
0 1896 3089
0 1742 3071
0 1555 3035
7 1358 3025
215 2397 740
206 2391 738
171 2391 804
115 2497 1317
3 2741 2450
0 2692 3289
0 2489 3266
0 2383 3221
0 2237 3203
245 2541 690
245 2541 690
243 2541 690
188 2591 1006
45 2826 2026
0 3026 3292
0 2899 3425
0 2872 3423
0 2842 3413
257 2553 690
257 2553 690
257 2553 690
217 2579 822
90 2759 1694
0 3052 3167
4 2955 3469
16 2955 3469
4 2942 3456
257 2553 690
257 2553 690
257 2553 690
247 2553 711
137 2698 1365
0 3017 2915
3 2953 3455
16 2955 3469
16 2955 3469
646 273 132
630 197 247
595 128 1117
154 283 1742
145 584 2467
187 626 2600
151 607 2523
145 610 2505
145 610 2505
635 309 48
636 276 150
464 154 1060
130 280 1748
129 570 2427
160 605 2540
141 607 2511
143 610 2505
145 610 2505
393 554 67
368 554 117
158 580 850
1 676 1651
49 759 2509
150 639 2575
144 609 2528
145 610 2505
145 610 2505
94 1020 201
62 982 175
9 1063 741
0 1250 1630
0 1309 2539
34 1138 2998
42 1021 2982
240 828 2896
145 650 2565
108 1825 558
101 1804 550
56 1859 797
0 1970 1572
0 2076 2587
0 1887 3081
0 1710 3051
0 1542 3032
16 1327 3011
199 2412 694
201 2391 700
180 2375 751
108 2479 1255
3 2722 2380
0 2695 3276
0 2459 3255
0 2359 3221
0 2205 3198
245 2541 678
245 2541 678
245 2541 678
192 2590 982
50 2813 1965
0 3027 3279
0 2899 3425
0 2869 3423
0 2833 3413
257 2553 680
257 2553 689
257 2553 690
217 2567 798
90 2758 1638
0 3062 3145
1 2942 3456
16 2955 3469
2 2941 3455
257 2553 690
257 2553 690
257 2553 690
247 2553 711
137 2682 1321
0 3021 2869
0 2951 3452
16 2955 3469
16 2955 3469
1349 542 329
1293 497 304
1374 292 741
1030 279 1771
374 576 2556
528 801 3039
442 793 3034
384 711 2875
185 630 2565
1348 531 288
1298 511 297
1338 288 678
1067 251 1718
362 560 2538
518 791 3039
438 791 3013
368 695 2848
185 630 2565
1302 695 18
1318 688 18
1309 673 577
835 547 1605
242 668 2529
491 794 3020
477 794 3009
330 674 2810
185 623 2558
1094 1136 171
1068 1105 160
929 1092 503
425 1127 1467
36 1226 2520
117 1094 3041
142 979 3042
298 815 2938
175 650 2609
623 1927 320
636 1889 310
498 1856 450
142 1939 1284
0 2156 2520
0 1923 3109
0 1689 3063
0 1491 3041
24 1265 3016
476 2517 480
441 2499 495
416 2485 508
242 2552 998
16 2771 2215
0 2755 3280
0 2463 3258
0 2322 3218
0 2168 3178
427 2632 520
411 2632 536
366 2608 548
307 2658 794
88 2838 1801
0 3051 3236
0 2896 3425
0 2869 3423
0 2820 3403
301 2588 583
300 2588 596
288 2580 605
256 2578 719
106 2745 1546
0 3050 3068
0 2949 3463
8 2955 3469
2 2941 3455
257 2563 664
257 2553 654
257 2556 664
247 2553 680
153 2666 1224
0 3009 2796
4 2962 3457
16 2955 3469
16 2955 3469
2208 996 731
2154 973 731
2122 823 693
2172 567 1284
1738 550 2585
1093 799 3095
650 819 3091
552 835 3074
490 827 3067
2215 982 725
2152 963 715
2071 793 660
2124 540 1309
1686 558 2610
1019 799 3090
634 819 3091
535 834 3067
483 819 3068
2335 1006 476
2294 998 485
2315 1000 706
2195 666 1166
1658 568 2556
975 789 3068
626 819 3087
530 819 3067
482 813 3067
2476 1293 181
2389 1250 152
2526 1267 268
2267 1266 1129
1437 1077 2502
717 994 3107
503 911 3097
466 847 3075
456 808 3054
2272 2088 398
2278 2057 389
2212 2015 407
1901 2023 1049
984 2035 2387
200 1803 3194
74 1521 3158
49 1347 3097
76 1152 3063
2155 2859 573
2085 2842 552
2061 2815 556
1740 2827 832
652 2880 1937
80 2956 3338
0 2617 3405
0 2415 3300
0 2169 3209
1791 2947 550
1720 2924 544
1598 2896 514
1485 2903 623
749 2965 1441
53 3183 3182
0 3041 3521
0 2961 3471
0 2869 3445
1339 2848 473
1306 2834 482
1248 2831 488
1117 2806 490
662 2883 1142
26 3116 2880
0 3036 3511
0 2999 3497
0 2970 3469
867 2762 482
867 2739 474
797 2726 474
665 2706 489
474 2774 964
35 3027 2571
0 3011 3479
0 2970 3476
8 2955 3469
2987 1325 992
2987 1325 992
2949 1287 980
2790 1020 1039
2862 745 2281
2367 847 3216
1959 825 3237
1696 835 3198
1437 835 3192
2985 1325 992
2959 1325 982
2923 1279 954
2772 1033 1018
2865 747 2252
2353 832 3217
1937 825 3225
1639 840 3197
1417 821 3182
2974 1347 946
2958 1334 949
2956 1302 951
2794 1045 1001
2838 746 2214
2306 818 3208
1880 819 3224
1611 835 3192
1409 831 3182
3360 1448 400
3345 1421 410
3338 1419 491
3240 1485 1061
2994 1105 1981
2344 958 3218
1840 873 3230
1589 840 3200
1293 825 3156
3538 2083 265
3531 2056 250
3505 2029 244
3633 2106 605
3209 2132 1975
2297 1717 3327
1716 1341 3363
1408 1171 3284
1115 1014 3206
3604 2995 651
3576 2973 635
3553 2949 622
3505 2979 768
3108 3105 1869
2239 3158 3409
1627 2798 3718
974 2419 3607
378 2036 3409
3412 3225 759
3388 3212 771
3344 3200 759
3313 3216 791
3061 3344 1481
2130 3525 3088
899 3462 3812
338 3336 3760
218 3209 3686
3132 3214 766
3176 3229 765
3103 3212 749
3019 3202 755
2795 3270 1170
1495 3371 2567
407 3410 3738
172 3313 3699
57 3232 3647
2856 3162 730
2838 3162 717
2772 3162 705
2666 3123 695
2433 3163 914
1225 3252 2190
262 3324 3653
34 3210 3631
0 3158 3579
3216 1449 1080
3216 1449 1080
3204 1437 1077
3059 1244 1044
3129 970 1855
3012 831 3199
2691 855 3312
2608 855 3314
2553 839 3296
3216 1449 1080
3216 1449 1080
3207 1437 1080
3063 1247 1050
3108 972 1790
3009 814 3186
2691 855 3312
2606 853 3312
2543 835 3296
3216 1449 1068
3216 1449 1078
3204 1437 1068
3066 1262 1044
3094 976 1706
3035 814 3154
2694 855 3312
2596 842 3311
2541 835 3296
3481 1536 793
3477 1522 787
3434 1506 820
3302 1573 1171
3174 1203 1622
3076 876 3122
2678 863 3312
2578 839 3310
2489 835 3296
3824 2114 365
3815 2075 362
3808 2027 373
3811 2085 683
3550 2218 1894
3274 1607 3157
2777 1299 3428
2614 1113 3374
2503 962 3312
4009 2944 567
3982 2937 558
3991 2897 546
3976 2891 612
3957 3067 1556
3614 3204 3223
3132 2710 3783
2939 2381 3729
2674 2025 3617
3990 3248 710
3987 3248 710
3971 3244 706
3970 3232 716
3961 3372 1243
3650 3706 3021
3538 3817 3950
3369 3735 3974
3102 3579 3946
3946 3276 723
3961 3276 737
3957 3276 728
3932 3275 732
3937 3360 1010
3642 3668 2522
3440 3886 3936
3011 3867 3986
2663 3812 3975
3906 3276 751
3918 3276 751
3894 3260 739
3867 3264 739
3866 3324 841
3610 3583 2150
3259 3864 3820
2564 3812 3972
2224 3742 3930
3228 1462 1092
3228 1462 1092
3228 1451 1081
3137 1338 1048
3089 1030 1484
3129 799 3048
2804 879 3324
2778 867 3340
2778 867 3340
3228 1462 1092
3228 1462 1092
3228 1460 1091
3137 1333 1050
3089 1044 1489
3128 810 3071
2804 879 3324
2778 867 3340
2778 867 3340
3228 1462 1081
3228 1451 1091
3228 1462 1092
3167 1369 1060
3090 1046 1414
3128 809 3019
2804 878 3324
2778 867 3340
2778 867 3340
3349 1497 955
3325 1496 971
3307 1510 1001
3265 1465 1051
3082 1121 1310
3165 834 2972
2826 878 3324
2770 867 3332
2764 867 3326
3787 1928 427
3771 1900 419
3767 1877 431
3721 1837 540
3495 2008 1648
3305 1433 2905
2918 1149 3429
2825 992 3369
2794 921 3341
4009 2819 542
4001 2818 526
3993 2790 514
3993 2729 524
4001 2893 1286
3687 3090 3055
3262 2478 3736
3105 2082 3664
3017 1771 3589
4029 3230 710
4039 3221 710
4027 3220 696
4032 3218 708
4031 3311 1029
3875 3656 2734
3749 3795 3945
3730 3680 3988
3602 3515 3957
4015 3276 739
4015 3276 739
4015 3276 739
4015 3276 731
4031 3330 859
3967 3625 2241
3910 3974 3863
3951 3986 4015
3937 3970 4027
4015 3276 739
4015 3276 739
4015 3276 739
4015 3276 739
4015 3284 770
3977 3555 1854
3912 3945 3695
3939 4001 4017
3896 4001 4017
3228 1462 1092
3228 1462 1092
3228 1462 1092
3208 1425 1082
3059 1092 1172
3145 819 2869
2830 867 3324
2778 867 3340
2778 867 3340
3228 1462 1092
3228 1462 1092
3228 1462 1092
3192 1425 1066
3059 1122 1172
3147 799 2783
2846 867 3324
2778 867 3328
2778 867 3340
3228 1462 1092
3228 1462 1092
3228 1462 1092
3204 1425 1066
3047 1124 1156
3158 819 2768
2842 876 3336
2778 867 3337
2778 867 3340
3248 1462 1062
3248 1462 1055
3240 1462 1056
3224 1448 1072
3076 1191 1158
3165 825 2690
2846 872 3324
2778 867 3326
2778 867 3340
3678 1710 522
3663 1701 522
3649 1674 552
3627 1646 623
3416 1758 1345
3269 1256 2557
2913 1022 3372
2793 906 3348
2786 883 3340
3979 2618 480
3979 2649 464
3969 2638 464
3956 2559 442
3964 2634 919
3651 2790 2685
3189 2127 3611
3031 1772 3589
2933 1467 3521
4027 3204 694
4027 3204 694
4027 3195 694
4029 3180 687
4039 3224 831
3952 3503 2239
3736 3733 3860
3645 3544 3972
3521 3312 3930
4015 3276 739
4015 3276 739
4015 3276 728
4015 3262 725
4015 3284 763
4007 3541 1838
3907 3932 3725
3954 4001 4027
3956 3986 4017
4015 3276 739
4015 3276 739
4015 3276 739
4015 3276 739
4015 3284 747
4007 3479 1526
3938 3918 3513
3986 4017 4015
4047 4047 4047
