assets/luts/LUTs by IWLTBAP (3DL)/03 - V-Log/C-8120-VLOG.3dl
# Copyright: (C) Copyright 2010-2020 by IWLTBAP SAS
# Cannot be resold, shared or otherwise redistributed
# Website: https://luts.iwltbap.com
0 64 128 192 256 320 384 448 512 576 640 704 768 832 896 960 1023
0 0 0
15 0 218
30 30 572
19 90 856
16 84 1112
16 75 1346
16 195 1574
57 325 1798
72 425 2007
87 528 2242
102 584 2401
118 594 2478
133 598 2493
145 610 2505
145 610 2505
145 610 2505
145 610 2505
0 62 0
0 76 218
1 108 527
13 126 853
16 88 1112
16 75 1346
16 195 1574
57 325 1798
72 425 2007
87 528 2242
102 584 2401
118 594 2478
133 598 2493
145 610 2505
145 610 2505
145 610 2505
145 610 2505
0 185 14
0 200 86
0 215 418
0 257 732
0 262 1097
0 235 1356
10 221 1579
27 323 1796
58 424 2007
87 528 2242
102 584 2401
118 594 2478
133 598 2493
145 610 2505
145 610 2505
145 610 2505
145 610 2505
0 325 58
0 325 64
0 355 357
0 400 666
0 431 1025
0 468 1359
0 506 1700
9 554 2001
34 526 2137
87 535 2272
102 584 2409
118 594 2478
133 598 2493
145 610 2505
145 610 2505
145 610 2505
145 610 2505
0 506 120
0 466 105
0 522 341
0 555 632
0 626 1000
0 689 1358
0 747 1744
2 804 2151
12 807 2533
84 759 2687
138 702 2670
141 627 2557
142 616 2535
145 610 2505
145 610 2505
145 610 2505
145 610 2505
0 688 167
0 683 162
0 717 315
0 762 617
0 848 1000
0 929 1358
0 976 1735
0 1045 2188
8 1025 2602
79 963 2867
189 932 2983
236 864 2960
237 781 2850
142 661 2595
146 631 2548
155 620 2537
145 610 2505
0 988 327
0 978 317
0 973 339
0 1026 561
0 1116 946
0 1209 1313
0 1287 1710
0 1340 2191
0 1331 2610
11 1258 2892
32 1193 3025
38 1127 3023
47 1066 3005
92 980 2967
202 882 2952
222 773 2838
135 660 2575
41 1370 504
41 1370 504
25 1308 488
25 1370 628
2 1440 938
0 1530 1305
0 1623 1718
0 1687 2203
0 1687 2619
0 1622 2919
0 1527 3025
0 1454 3019
0 1392 3019
10 1302 3022
29 1192 3033
36 1092 3012
53 1008 2965
112 1807 666
112 1807 666
88 1783 666
82 1789 709
46 1839 953
13 1928 1283
3 1997 1689
0 2086 2184
0 2112 2674
0 2055 3018
0 1919 3091
0 1821 3075
0 1758 3071
0 1663 3051
0 1576 3050
0 1482 3043
0 1373 3035
168 2183 746
168 2183 746
159 2168 732
146 2167 730
114 2202 902
77 2262 1159
52 2335 1507
6 2427 1994
0 2507 2581
0 2500 3072
0 2339 3211
0 2226 3185
0 2164 3181
0 2093 3157
0 2012 3134
0 1918 3103
0 1801 3072
183 2407 749
214 2397 749
199 2407 740
199 2392 739
175 2398 800
162 2455 1007
120 2511 1311
42 2624 1798
3 2757 2450
0 2828 3071
0 2700 3302
0 2555 3295
0 2503 3280
0 2453 3249
0 2395 3234
0 2308 3220
0 2236 3220
230 2515 701
230 2515 701
230 2515 701
217 2502 701
214 2499 714
203 2534 883
162 2588 1147
93 2682 1582
10 2829 2256
0 2969 2979
0 2937 3344
0 2809 3390
0 2772 3378
0 2741 3352
0 2713 3339
0 2656 3338
0 2603 3318
245 2541 690
245 2541 690
245 2541 690
245 2541 690
245 2541 690
234 2552 772
193 2601 1020
147 2693 1418
44 2833 2027
2 2994 2788
0 3031 3292
0 2926 3427
0 2911 3437
0 2896 3425
0 2885 3425
0 2870 3424
0 2858 3397
257 2553 690
257 2553 690
257 2553 690
257 2553 690
257 2553 690
246 2564 711
218 2603 927
162 2690 1288
82 2807 1888
18 2986 2662
0 3056 3247
0 2964 3434
1 2942 3456
3 2942 3456
3 2942 3456
3 2942 3456
3 2942 3456
257 2553 690
257 2553 690
257 2553 690
257 2553 690
257 2553 690
246 2553 700
231 2578 838
176 2659 1170
90 2776 1740
17 2956 2520
0 3062 3201
0 2977 3445
4 2955 3469
16 2955 3469
16 2955 3469
16 2955 3469
16 2955 3469
257 2553 690
257 2553 690
257 2553 690
257 2553 690
257 2553 690
246 2553 690
232 2563 771
201 2628 1053
121 2745 1586
18 2931 2370
0 3067 3117
0 2994 3435
4 2955 3469
16 2955 3469
16 2955 3469
16 2955 3469
16 2955 3469
257 2553 690
257 2553 690
257 2553 690
257 2553 690
257 2553 690
257 2553 690
247 2553 721
216 2613 983
128 2714 1453
18 2884 2190
0 3047 2985
0 3009 3414
4 2955 3469
16 2955 3469
16 2955 3469
16 2955 3469
16 2955 3469
46 15 31
47 15 189
32 45 541
31 90 837
20 84 1096
16 75 1325
16 195 1574
57 325 1798
72 425 2007
87 528 2242
102 584 2401
118 594 2478
133 598 2493
145 610 2505
145 610 2505
145 610 2505
145 610 2505
31 62 15
2 77 172
1 80 467
13 93 832
16 84 1107
16 75 1330
16 195 1574
57 325 1798
72 425 2007
87 528 2242
102 584 2401
118 594 2478
133 598 2493
145 610 2505
145 610 2505
145 610 2505
145 610 2505
0 185 29
0 200 84
0 215 456
0 244 760
0 247 1086
0 220 1355
1 230 1579
27 323 1796
58 424 2007
87 520 2228
102 584 2401
118 594 2478
133 598 2493
145 610 2505
145 610 2505
145 610 2505
145 610 2505
0 325 61
0 325 64
0 339 362
0 397 669
0 431 1022
0 456 1347
0 505 1695
11 546 2001
43 498 2115
87 526 2249
102 584 2409
118 594 2478
133 598 2493
145 610 2505
145 610 2505
145 610 2505
145 610 2505
0 494 120
0 493 119
0 508 327
0 552 632
0 638 988
0 686 1343
0 735 1713
0 800 2138
19 791 2504
93 752 2671
131 706 2688
144 634 2564
150 616 2535
145 610 2505
145 610 2505
145 610 2505
145 610 2505
0 688 167
0 702 151
0 688 270
0 746 598
0 836 970
0 926 1339
0 976 1737
0 1045 2177
10 1027 2586
70 975 2867
164 943 2990
236 865 2960
225 785 2850
134 661 2595
145 631 2548
145 620 2527
145 610 2505
0 978 317
0 978 311
0 962 326
0 1025 583
0 1095 931
0 1193 1322
0 1277 1740
0 1340 2182
0 1325 2598
11 1248 2912
32 1173 3031
38 1124 3023
45 1056 3005
95 979 2972
234 875 2948
207 758 2793
135 650 2575
41 1370 495
41 1340 488
25 1350 488
12 1359 628
0 1433 922
0 1516 1294
0 1623 1715
0 1676 2163
0 1675 2626
0 1613 2917
0 1507 3025
0 1438 3019
0 1367 3023
10 1302 3034
35 1191 3033
36 1085 3005
53 992 2949
96 1799 650
97 1784 665
88 1775 658
81 1774 702
46 1852 934
5 1909 1241
0 2002 1668
0 2089 2156
0 2100 2646
0 2035 2985
0 1922 3089
0 1828 3083
0 1764 3081
0 1664 3050
0 1591 3043
0 1497 3042
0 1373 3012
143 2152 737
158 2173 745
158 2159 730
145 2158 730
130 2193 902
92 2238 1149
42 2324 1517
3 2424 2034
0 2518 2627
0 2495 3065
0 2339 3210
0 2219 3200
0 2158 3196
0 2092 3150
0 2012 3134
0 1918 3103
0 1816 3079
204 2397 749
214 2397 749
214 2397 739
202 2392 739
175 2398 790
162 2445 1007
130 2511 1311
57 2610 1789
3 2741 2436
0 2812 3035
0 2692 3287
0 2545 3298
0 2518 3289
0 2468 3258
0 2397 3234
0 2322 3219
0 2246 3198
230 2515 701
230 2515 701
230 2515 701
229 2502 701
218 2499 725
203 2534 872
171 2588 1150
106 2688 1562
18 2842 2230
0 2979 2958
0 2943 3322
0 2809 3383
0 2782 3378
0 2741 3352
0 2713 3339
0 2656 3338
0 2598 3297
245 2541 690
245 2541 690
245 2541 690
245 2541 690
233 2541 690
218 2576 772
187 2603 1016
143 2689 1404
57 2840 2049
2 3008 2815
0 3019 3303
0 2921 3425
0 2899 3425
0 2896 3425
0 2885 3425
0 2870 3424
0 2846 3397
257 2553 690
257 2553 690
257 2553 690
257 2553 690
247 2553 690
233 2554 701
218 2588 902
159 2674 1266
75 2807 1886
9 2980 2630
0 3048 3237
0 2964 3434
1 2942 3456
3 2942 3456
3 2942 3456
3 2942 3456
3 2942 3456
257 2553 690
257 2553 690
257 2553 690
257 2553 690
257 2553 690
246 2553 700
231 2578 838
176 2659 1156
105 2775 1725
10 2954 2504
0 3060 3169
0 2979 3435
3 2953 3467
14 2953 3467
16 2955 3469
16 2955 3469
16 2955 3469
257 2553 690
257 2553 690
257 2553 690
257 2553 690
257 2553 690
246 2553 690
232 2563 771
200 2628 1043
119 2736 1545
17 2909 2322
0 3051 3077
0 2994 3420
0 2939 3452
3 2942 3456
16 2955 3469
16 2955 3469
16 2955 3469
257 2553 690
257 2553 690
257 2553 690
257 2553 690
257 2553 690
257 2553 690
247 2553 711
216 2604 934
136 2698 1375
27 2868 2119
0 3047 2975
0 3004 3409
0 2939 3452
3 2942 3456
16 2955 3469
16 2955 3469
16 2955 3469
199 46 32
185 46 113
152 76 564
96 94 856
24 80 1163
0 105 1388
24 215 1593
57 325 1798
72 425 2007
87 528 2242
102 584 2401
118 594 2478
133 598 2493
145 610 2505
145 610 2505
145 610 2505
145 610 2505
151 92 16
164 64 57
137 78 486
80 92 819
22 84 1120
0 80 1370
24 186 1579
41 309 1782
72 417 2007
87 519 2226
102 584 2401
118 594 2478
133 598 2493
145 610 2505
145 610 2505
145 610 2505
145 610 2505
92 187 0
78 200 33
22 201 376
6 241 727
0 236 1072
0 192 1353
11 211 1580
27 311 1782
71 418 1995
87 519 2226
102 584 2401
118 594 2478
133 598 2493
145 610 2505
145 610 2505
145 610 2505
145 610 2505
50 352 44
34 339 45
0 341 286
0 385 623
0 400 988
0 447 1353
0 489 1699
12 518 1965
57 469 2053
87 520 2240
102 584 2402
118 594 2478
133 598 2493
145 610 2505
145 610 2505
145 610 2505
145 610 2505
3 497 90
3 494 90
0 508 243
0 552 581
0 597 957
0 674 1301
0 719 1684
0 778 2114
14 776 2485
81 732 2643
117 681 2646
131 619 2547
143 616 2535
145 610 2505
145 610 2505
145 610 2505
145 610 2505
0 688 120
0 671 145
0 676 206
0 744 549
0 820 923
0 899 1307
0 945 1686
0 1017 2134
8 1014 2551
73 959 2857
167 929 2978
225 861 2946
225 779 2855
134 650 2595
145 631 2547
145 610 2517
145 610 2505
0 978 297
0 971 287
0 970 311
0 1011 554
0 1088 910
0 1179 1285
0 1241 1703
0 1314 2161
0 1310 2576
9 1234 2892
27 1167 3026
32 1111 3007
43 1054 2995
105 952 2957
237 863 2936
153 717 2724
135 650 2565
25 1354 474
9 1338 458
25 1328 486
12 1349 607
0 1419 917
0 1487 1252
0 1582 1695
0 1668 2165
0 1667 2614
0 1591 2910
0 1494 3025
0 1422 3012
0 1351 3014
10 1257 3019
35 1162 3018
30 1055 2985
76 978 2955
88 1807 650
88 1783 643
81 1761 650
67 1758 672
37 1831 922
5 1885 1230
0 1985 1642
0 2094 2136
0 2096 2622
0 2028 2976
0 1896 3089
0 1800 3086
0 1742 3071
0 1640 3048
0 1555 3035
0 1467 3029
7 1358 3025
159 2167 731
159 2173 736
145 2145 730
130 2142 735
114 2159 880
84 2223 1135
42 2310 1496
3 2410 1988
0 2507 2583
0 2468 3050
0 2325 3209
0 2195 3196
0 2148 3181
0 2070 3150
0 1984 3118
0 1904 3096
0 1802 3087
215 2397 740
215 2392 743
206 2391 738
192 2391 746
171 2391 804
147 2426 1007
115 2497 1317
42 2598 1772
3 2741 2450
0 2812 3043
0 2692 3289
0 2535 3281
0 2489 3266
0 2443 3233
0 2383 3221
0 2308 3214
0 2237 3203
230 2515 701
225 2501 692
229 2499 700
217 2499 701
214 2499 721
203 2527 866
172 2579 1146
92 2673 1545
11 2827 2208
0 2963 2904
0 2937 3314
0 2806 3389
0 2772 3378
0 2754 3363
0 2699 3337
0 2656 3313
0 2598 3310
245 2541 690
245 2541 690
245 2541 690
245 2541 690
243 2541 690
232 2552 759
188 2591 1006
131 2674 1378
45 2826 2026
0 2994 2795
0 3026 3292
0 2921 3422
0 2899 3425
0 2896 3425
0 2872 3423
0 2869 3413
0 2842 3413
257 2553 690
257 2553 690
257 2553 690
257 2553 690
256 2553 690
244 2562 701
206 2593 916
158 2658 1269
73 2804 1874
9 2977 2650
0 3040 3252
0 2964 3434
1 2942 3456
3 2942 3456
3 2942 3456
3 2941 3455
0 2928 3453
257 2553 690
257 2553 690
257 2553 690
257 2553 690
257 2553 690
246 2553 699
217 2579 822
169 2643 1130
90 2759 1694
9 2940 2493
0 3052 3167
0 2977 3436
4 2955 3469
16 2955 3469
16 2955 3469
15 2954 3468
4 2942 3456
257 2553 690
257 2553 690
257 2553 690
257 2553 690
257 2553 690
246 2553 690
232 2577 732
186 2626 1022
105 2723 1522
10 2901 2268
0 3051 3064
0 2993 3422
3 2953 3466
14 2953 3467
16 2955 3469
16 2955 3469
16 2955 3469
257 2553 690
257 2553 690
257 2553 690
257 2553 690
257 2553 690
257 2553 690
247 2553 711
216 2604 909
137 2698 1365
27 2854 2066
0 3017 2915
0 2997 3367
3 2953 3455
14 2953 3467
16 2955 3469
16 2955 3469
16 2955 3469
413 148 45
413 148 54
410 84 370
364 107 811
238 93 1175
105 118 1434
66 277 1721
63 403 1979
72 447 2095
87 528 2263
102 584 2401
118 594 2478
133 598 2493
145 610 2505
145 610 2505
145 610 2505
145 610 2505
410 154 29
397 136 32
407 82 390
323 107 799
179 96 1155
95 116 1426
50 289 1732
69 400 1969
78 460 2085
87 526 2260
102 584 2401
118 594 2478
133 598 2493
145 610 2505
145 610 2505
145 610 2505
