assets/luts/LUTs by IWLTBAP (3DL)/03 - V-Log/C-9730-VLOG.3dl
# Copyright: (C) Copyright 2010-2020 by IWLTBAP SAS
# Cannot be resold, shared or otherwise redistributed
# Website: https://luts.iwltbap.com
0 256 512 768 1023
16 16 16
4 105 169
241 386 2320
1096 1305 3521
1108 1317 3533
0 349 12
4 438 181
120 978 2007
1084 1326 3497
1108 1317 3533
377 1863 972
343 1819 1004
622 2232 2100
1339 2796 3133
1156 2417 3156
1080 2750 1899
1080 2750 1899
1391 3021 2527
2313 3702 3814
2244 3657 3770
1092 2762 1911
1092 2762 1911
1252 2907 2208
2313 3702 3782
2457 3742 3854
333 76 0
305 76 117
393 363 2120
1105 1281 3518
1108 1317 3533
269 293 0
78 386 247
236 557 2132
1084 1299 3497
1108 1317 3533
373 1831 809
308 1783 895
574 2169 2013
1302 2752 3127
1120 2340 3170
1080 2750 1899
1067 2737 1887
1365 2999 2473
2297 3689 3811
2224 3657 3766
1092 2762 1911
1092 2762 1911
1215 2870 2140
2301 3702 3786
2457 3742 3854
2096 369 0
2164 317 6
1879 695 1566
2589 1385 3310
2200 1205 3477
1951 504 0
1983 369 0
1739 624 1524
2569 1371 3320
2178 1190 3485
2051 1783 137
2007 1722 137
1718 2106 2100
2167 2300 3593
1706 1778 3477
2302 3051 1556
2145 3027 1598
1904 3208 2574
2478 3718 3806
2252 3647 3766
1453 2859 1943
1401 2857 1943
1405 2931 2224
2329 3679 3770
2465 3742 3854
2830 887 0
2830 887 0
2835 1369 1692
3497 1839 3369
3469 1811 3397
2830 887 0
2818 878 0
2800 1313 1558
3487 1836 3340
3469 1807 3397
3148 2033 429
3134 1955 330
3164 2005 1842
3571 2202 3441
3485 1891 3445
3316 3217 1699
3319 3197 1689
3337 3279 2123
3581 3834 3931
3481 3763 3911
3276 3252 1658
3276 3261 1657
3238 3250 1779
3464 3866 3903
3425 3906 3975
2842 899 0
2842 899 0
2754 1092 843
3513 1867 3304
3597 1895 3469
2842 899 0
2842 899 0
2762 1094 775
3500 1867 3303
3597 1895 3469
3035 1582 145
3013 1522 98
2955 1473 895
3521 1987 3274
3597 1911 3461
3389 3136 1674
3376 3111 1662
3366 3087 1803
3721 3738 3791
3778 3605 3902
3389 3308 1831
3389 3308 1831
3389 3308 1855
3714 3850 3742
3806 3982 4079
