assets/luts/LUTs by IWLTBAP (3DL)/03 - V-Log/C-9730-VLOG.3dl
# Copyright: (C) Copyright 2010-2020 by IWLTBAP SAS
# Cannot be resold, shared or otherwise redistributed
# Website: https://luts.iwltbap.com
0 64 128 192 256 320 384 448 512 576 640 704 768 832 896 960 1023
16 16 16
16 16 16
30 30 0
19 61 13
4 105 169
0 210 443
46 309 955
156 305 1612
241 386 2320
433 679 2948
789 1072 3298
1043 1263 3479
1096 1305 3521
1108 1317 3533
1108 1317 3533
1108 1317 3533
1108 1317 3533
16 47 0
16 47 0
16 61 13
1 76 16
0 105 169
0 210 443
46 309 955
156 305 1612
248 393 2336
448 694 2963
804 1087 3313
1058 1278 3494
1096 1305 3521
1108 1317 3533
1108 1317 3533
1108 1317 3533
1108 1317 3533
2 92 0
2 92 0
14 123 0
16 152 0
14 225 140
0 314 401
37 335 909
142 319 1566
226 393 2259
417 656 2923
765 1042 3277
1033 1252 3468
1096 1305 3521
1108 1317 3533
1108 1317 3533
1108 1317 3533
1108 1317 3533
0 184 0
0 184 0
14 171 0
16 226 0
16 328 140
4 486 380
12 676 791
126 645 1464
212 552 2222
404 685 2897
750 1040 3260
1032 1252 3468
1096 1305 3521
1108 1317 3533
1108 1317 3533
1108 1317 3533
1108 1317 3533
0 349 12
0 306 0
3 316 0
4 350 35
4 438 181
1 584 393
0 818 753
30 970 1256
120 978 2007
289 1112 2618
680 1293 3082
1011 1318 3436
1084 1326 3497
1096 1317 3511
1098 1317 3522
1108 1317 3533
1108 1317 3533
0 527 38
0 522 38
0 511 22
0 524 89
0 588 293
0 686 453
7 884 798
23 1125 1228
143 1288 1845
303 1430 2507
652 1594 3030
973 1655 3343
1037 1585 3395
1079 1396 3477
1093 1349 3506
1097 1338 3511
1097 1317 3522
20 853 225
20 853 225
10 839 184
2 837 231
0 870 438
0 907 661
26 1030 929
121 1304 1325
267 1588 1817
410 1831 2405
709 1999 2921
997 2021 3254
1084 1958 3366
1092 1829 3431
1064 1712 3435
1035 1597 3393
1092 1387 3507
134 1333 558
134 1333 558
102 1278 496
87 1298 552
70 1299 681
68 1299 870
120 1372 1169
276 1635 1502
402 1910 1916
557 2170 2412
834 2394 2813
1076 2486 3026
1151 2447 3128
1132 2353 3199
1108 2195 3299
1078 1978 3355
1092 1856 3424
377 1863 972
377 1863 972
339 1810 940
337 1807 954
343 1819 1004
345 1834 1117
360 1859 1348
490 2034 1686
622 2232 2100
807 2474 2556
1082 2675 2913
1308 2786 3093
1339 2796 3133
1296 2739 3130
1256 2644 3130
1172 2533 3109
1156 2417 3156
643 2222 1284
643 2222 1284
629 2208 1270
627 2206 1268
639 2218 1303
648 2222 1356
676 2274 1469
746 2355 1791
859 2517 2255
1113 2762 2744
1380 2966 3102
1565 3110 3308
1598 3117 3348
1576 3073 3326
1521 2989 3280
1442 2910 3211
1380 2823 3167
823 2489 1554
823 2489 1554
823 2503 1554
810 2492 1528
807 2489 1526
818 2489 1564
869 2535 1672
981 2626 1956
1141 2786 2455
1402 3014 2916
1638 3222 3294
1794 3386 3520
1850 3412 3585
1808 3388 3570
1784 3331 3529
1713 3244 3452
1688 3188 3426
984 2665 1803
984 2665 1803
998 2679 1807
987 2668 1795
984 2665 1792
984 2665 1803
1027 2701 1903
1152 2797 2110
1348 2962 2561
1576 3180 3023
1827 3407 3449
2033 3558 3670
2108 3593 3729
2109 3599 3741
2080 3587 3737
2018 3546 3685
1967 3515 3665
1080 2750 1899
1080 2750 1899
1080 2750 1899
1080 2750 1899
1080 2750 1899
1080 2750 1910
1116 2784 2001
1225 2870 2174
1391 3021 2527
1627 3245 3018
1859 3448 3454
2169 3634 3715
2313 3702 3814
2329 3702 3826
2327 3700 3824
2303 3684 3797
2244 3657 3770
1092 2762 1911
1092 2762 1911
1092 2762 1911
1092 2762 1911
1092 2762 1911
1092 2762 1911
1110 2770 1983
1206 2858 2136
1393 3021 2448
1633 3217 2947
1856 3437 3402
2173 3646 3719
2360 3726 3826
2431 3729 3839
2444 3729 3841
2443 3729 3841
2431 3729 3841
1092 2762 1911
1092 2762 1911
1092 2762 1911
1092 2762 1911
1092 2762 1911
1092 2762 1911
1092 2762 1947
1174 2820 2074
1353 2977 2357
1579 3179 2852
1839 3424 3387
2140 3631 3717
2371 3728 3824
2444 3742 3841
2457 3742 3854
2457 3742 3854
2457 3742 3854
1092 2762 1911
1092 2762 1911
1092 2762 1911
1092 2762 1911
1092 2762 1911
1092 2762 1911
1092 2762 1936
1141 2811 2027
1299 2953 2285
1541 3140 2781
1786 3371 3288
2082 3605 3679
2358 3717 3813
2442 3741 3840
2456 3742 3853
2457 3742 3854
2457 3742 3854
1092 2762 1911
1092 2762 1911
1092 2762 1911
1092 2762 1911
1092 2762 1911
1092 2762 1911
1092 2762 1921
1126 2796 2011
1252 2907 2208
1478 3093 2666
1730 3330 3176
2037 3579 3648
2313 3702 3782
2399 3729 3825
2443 3742 3840
2457 3742 3854
2457 3742 3854
31 31 0
16 16 15
16 30 0
16 45 0
4 88 152
0 205 426
46 309 949
156 305 1604
233 386 2281
417 656 2923
764 1041 3276
1033 1252 3468
1096 1305 3521
1108 1317 3533
1108 1317 3533
1108 1317 3533
1108 1317 3533
16 47 0
16 47 0
15 47 0
15 49 0
14 88 168
14 205 442
51 309 955
156 305 1612
240 386 2319
432 678 2946
788 1071 3297
1043 1262 3478
1096 1305 3521
1108 1317 3533
1108 1317 3533
1108 1317 3533
1108 1317 3533
2 92 0
2 92 0
2 121 0
13 162 0
14 225 140
0 303 427
37 335 930
155 319 1572
233 393 2266
418 663 2924
787 1062 3296
1042 1262 3478
1096 1305 3521
1108 1317 3533
1108 1317 3533
1108 1317 3533
1108 1317 3533
0 184 0
0 168 0
0 184 0
13 229 0
16 327 140
0 468 366
12 662 778
135 644 1463
219 514 2221
387 663 2868
753 1045 3256
1021 1252 3455
1096 1305 3521
1108 1317 3533
1108 1317 3533
1108 1317 3533
1108 1317 3533
0 333 0
0 332 0
0 321 0
3 350 35
1 438 169
0 564 377
0 793 737
26 951 1231
120 960 1968
275 1097 2591
653 1301 3066
985 1329 3406
1084 1334 3497
1096 1317 3511
1098 1317 3522
1108 1317 3533
1108 1317 3533
0 527 38
0 527 38
0 511 22
0 515 80
0 562 267
0 667 448
0 868 783
18 1120 1218
143 1283 1829
303 1427 2493
651 1596 3039
968 1655 3338
1037 1585 3395
1079 1396 3477
1093 1349 3508
1097 1338 3521
1097 1317 3522
20 863 234
11 853 225
1 821 192
0 834 227
0 842 401
6 891 641
16 1028 926
117 1308 1315
279 1598 1836
432 1840 2455
715 1973 2971
1003 2029 3282
1084 1958 3386
1092 1814 3438
1050 1702 3428
1051 1582 3424
1082 1377 3507
125 1357 565
110 1303 534
109 1287 525
80 1285 539
65 1290 658
52 1283 848
116 1367 1169
255 1599 1478
406 1905 1915
559 2158 2409
843 2374 2824
1079 2478 3041
1135 2429 3141
1132 2323 3204
1102 2173 3284
1093 1993 3369
1092 1840 3424
361 1854 955
354 1832 948
339 1816 939
321 1792 939
327 1797 988
329 1818 1101
370 1869 1340
466 2010 1662
610 2220 2096
795 2451 2544
1088 2662 2913
1308 2778 3096
1339 2791 3133
1298 2730 3131
1264 2652 3139
1202 2556 3131
1148 2409 3147
643 2200 1268
650 2206 1283
636 2190 1268
618 2190 1268
634 2191 1275
634 2201 1340
660 2243 1458
726 2339 1823
877 2520 2310
1118 2762 2740
1389 2958 3102
1565 3084 3308
1594 3106 3341
1566 3065 3312
1513 2980 3273
1442 2910 3211
1373 2830 3167
823 2489 1554
823 2489 1554
823 2489 1540
818 2489 1519
817 2489 1516
833 2500 1569
878 2547 1677
969 2641 1953
1129 2778 2421
1378 2985 2872
1628 3222 3282
1793 3382 3510
1838 3425 3575
1835 3388 3568
1774 3332 3513
1727 3259 3457
1667 3197 3426
984 2665 1803
984 2665 1803
998 2669 1807
987 2666 1795
968 2665 1764
994 2675 1808
1042 2716 1913
1146 2812 2104
1329 2977 2540
1568 3174 3002
1816 3400 3423
2027 3558 3672
2111 3611 3740
2109 3599 3738
2080 3587 3713
2002 3545 3685
1946 3504 3654
1080 2750 1899
1080 2750 1899
1080 2750 1899
1070 2750 1889
1065 2747 1887
1072 2746 1910
1122 2782 2001
1234 2878 2174
1420 3035 2558
1654 3229 3020
1885 3467 3472
2179 3640 3729
2300 3698 3814
2325 3702 3824
2325 3700 3813
2287 3684 3797
2259 3669 3781
1092 2762 1911
1092 2762 1911
1092 2762 1911
1092 2762 1911
1080 2750 1899
1076 2746 1895
1109 2769 1978
1206 2858 2114
1383 3021 2448
1617 3216 2924
1845 3434 3398
2171 3642 3716
2360 3717 3824
2431 3729 3839
2444 3729 3841
2443 3729 3841
2431 3729 3841
1092 2762 1911
1092 2762 1911
1092 2762 1911
1092 2762 1911
1081 2752 1900
1078 2748 1897
1087 2757 1942
1173 2820 2074
1337 2976 2356
1571 3171 2837
1810 3403 3333
2129 3615 3690
2370 3716 3812
2444 3740 3841
2457 3742 3854
2457 3742 3854
2457 3742 3854
1092 2762 1911
1092 2762 1911
1092 2762 1911
1092 2762 1911
1092 2762 1911
1092 2762 1911
1092 2762 1936
1141 2811 2027
1290 2937 2270
1524 3130 2765
1776 3376 3272
2082 3600 3674
2347 3702 3798
2442 3729 3840
2456 3742 3853
2457 3742 3854
2457 3742 3854
1092 2762 1911
1092 2762 1911
1092 2762 1911
1092 2762 1911
1092 2762 1911
1092 2762 1911
1092 2762 1911
1110 2780 1987
1222 2883 2177
1454 3069 2610
1721 3321 3166
2037 3579 3653
2313 3702 3798
2399 3729 3825
2443 3742 3840
2457 3742 3854
2457 3742 3854
107 46 0
90 30 0
48 32 0
46 45 11
34 88 183
14 205 462
60 333 947
156 311 1598
241 386 2319
433 678 2947
788 1070 3297
1043 1261 3477
1096 1305 3521
1108 1317 3533
1108 1317 3533
1108 1317 3533
1108 1317 3533
77 48 0
61 47 0
32 32 0
30 32 0
19 84 169
16 205 432
52 310 916
156 305 1580
233 386 2269
401 641 2895
764 1032 3267
1032 1252 3468
1096 1305 3521
1108 1317 3533
1108 1317 3533
1108 1317 3533
1108 1317 3533
46 107 0
46 92 0
4 92 0
13 96 11
16 150 155
0 242 404
37 324 895
142 319 1552
220 380 2252
400 646 2907
777 1045 3280
1042 1252 3468
1096 1305 3521
1108 1317 3533
1108 1317 3533
1108 1317 3533
1108 1317 3533
17 172 0
17 168 0
0 182 0
13 211 11
6 283 139
0 448 379
12 624 790
126 570 1469
205 445 2214
387 661 2881
766 1054 3269
1030 1252 3455
1096 1305 3521
1108 1317 3533
1108 1317 3533
1108 1317 3533
1108 1317 3533
3 318 0
3 317 0
0 305 0
0 334 25
0 406 142
0 534 324
0 758 695
19 929 1197
114 923 1971
284 1078 2618
646 1259 3063
984 1312 3405
1084 1327 3497
1096 1317 3511
1098 1317 3522
1108 1317 3533
1108 1317 3533
0 527 24
0 511 22
0 511 12
0 511 64
0 547 237
0 652 429
0 854 753
10 1088 1177
115 1241 1796
277 1402 2475
626 1574 2993
955 1641 3326
1037 1575 3395
1079 1388 3468
1093 1349 3507
1097 1327 3512
1097 1317 3522
10 853 181
10 853 179
9 822 198
2 799 191
0 829 375
0 860 610
6 1003 905
102 1283 1296
262 1582 1817
405 1803 2395
699 1957 2917
982 2014 3256
1068 1942 3381
1082 1798 3423
1050 1690 3427
1051 1526 3411
1082 1368 3507
125 1303 514
109 1293 512
100 1263 503
85 1246 509
46 1246 637
38 1246 820
90 1334 1127
256 1600 1474
397 1905 1910
558 2166 2425
836 2371 2822
1075 2467 3042
1119 2411 3144
1108 2289 3217
1094 2148 3284
1094 1954 3370
1092 1796 3424
361 1840 948
353 1839 947
323 1794 917
308 1790 915
298 1791 972
310 1798 1082
340 1858 1298
474 2017 1644
598 2208 2054
796 2449 2529
1083 2647 2898
1294 2770 3083
1323 2780 3146
1266 2700 3115
1227 2623 3111
1180 2519 3132
1141 2387 3156
629 2206 1268
643 2206 1261
626 2191 1253
620 2168 1252
618 2165 1258
629 2187 1325
660 2247 1442
735 2346 1777
852 2512 2256
1087 2732 2709
1364 2927 3050
1551 3062 3294
1583 3097 3341
1546 3044 3310
1490 2966 3245
1428 2896 3210
1366 2816 3153
823 2489 1540
808 2489 1518
807 2489 1516
795 2477 1504
793 2474 1501
799 2486 1540
849 2526 1654
941 2622 1926
1109 2773 2431
1377 2983 2892
1620 3201 3272
1788 3352 3500
1837 3392 3575
1807 3380 3555
1766 3323 3505
1713 3244 3451
1673 3204 3418
998 2669 1807
984 2665 1792
971 2665 1779
968 2657 1753
960 2655 1750
958 2663 1785
1015 2701 1889
1131 2797 2088
1304 2957 2512
1542 3151 2965
1783 3378 3391
2019 3532 3659
2108 3589 3742
2109 3601 3742
2076 3582 3726
2002 3546 3685
1956 3514 3664
1080 2750 1899
1080 2750 1899
1071 2750 1888
1068 2750 1887
1067 2750 1887
1067 2750 1910
1107 2773 1989
1210 2863 2152
1393 3027 2523
1625 3224 3008
1856 3452 3450
2145 3619 3703
2300 3689 3803
2323 3701 3823
2315 3685 3808
2286 3684 3797
2225 3669 3766
1092 2762 1911
1092 2762 1911
1092 2762 1911
1092 2762 1911
1091 2761 1910
1090 2760 1909
1108 2770 1983
1202 2849 2120
1372 3007 2433
1593 3214 2936
1852 3456 3437
2167 3635 3712
2360 3717 3815
2431 3729 3839
2444 3729 3841
2442 3728 3840
2387 3715 3825
1092 2762 1911
1092 2762 1911
1092 2762 1911
1092 2762 1911
1091 2761 1910
1090 2760 1909
1091 2761 1944
1159 2811 2059
1337 2960 2340
1571 3161 2827
1809 3400 3328
2129 3615 3687
2369 3716 3812
2442 3740 3839
2455 3742 3853
2456 3741 3853
2443 3729 3840
1092 2762 1911
1092 2762 1911
1092 2762 1911
1092 2762 1911
1092 2762 1911
1092 2762 1911
1092 2762 1921
1127 2797 2012
1276 2923 2249
1501 3116 2714
1761 3354 3246
2052 3588 3657
2317 3702 3782
2429 3729 3827
2445 3742 3842
2457 3742 3854
2457 3742 3854
1092 2762 1911
1092 2762 1911
1092 2762 1911
1092 2762 1911
1092 2762 1911
1092 2762 1911
1092 2762 1911
1110 2780 1986
1221 2882 2176
1439 3062 2595
1694 3294 3115
1970 3533 3596
2301 3691 3787
2399 3729 3825
2443 3742 3840
2457 3742 3854
2457 3742 3854
200 48 0
184 60 0
178 32 0
151 45 2
124 88 181
104 192 451
115 306 892
227 305 1538
278 379 2249
424 649 2910
789 1049 3285
1043 1254 3470
1096 1305 3521
1108 1317 3533
1108 1317 3533
1108 1317 3533
1108 1317 3533
181 48 0
165 48 0
178 32 0
151 43 0
111 78 172
104 192 424
115 304 900
219 305 1557
247 385 2242
429 659 2912
787 1053 3282
1043 1252 3468
1096 1305 3521
1108 1317 3533
1108 1317 3533
1108 1317 3533
