assets/luts/LUTs by IWLTBAP (3DL)/03 - V-Log/C-9730-VLOG.3dl
# Copyright: (C) Copyright 2010-2020 by IWLTBAP SAS
# Cannot be resold, shared or otherwise redistributed
# Website: https://luts.iwltbap.com
0 128 256 384 512 640 768 896 1023
16 16 16
30 30 0
4 105 169
46 309 955
241 386 2320
789 1072 3298
1096 1305 3521
1108 1317 3533
1108 1317 3533
2 92 0
14 123 0
14 225 140
37 335 909
226 393 2259
765 1042 3277
1096 1305 3521
1108 1317 3533
1108 1317 3533
0 349 12
3 316 0
4 438 181
0 818 753
120 978 2007
680 1293 3082
1084 1326 3497
1098 1317 3522
1108 1317 3533
20 853 225
10 839 184
0 870 438
26 1030 929
267 1588 1817
709 1999 2921
1084 1958 3366
1064 1712 3435
1092 1387 3507
377 1863 972
339 1810 940
343 1819 1004
360 1859 1348
622 2232 2100
1082 2675 2913
1339 2796 3133
1256 2644 3130
1156 2417 3156
823 2489 1554
823 2503 1554
807 2489 1526
869 2535 1672
1141 2786 2455
1638 3222 3294
1850 3412 3585
1784 3331 3529
1688 3188 3426
1080 2750 1899
1080 2750 1899
1080 2750 1899
1116 2784 2001
1391 3021 2527
1859 3448 3454
2313 3702 3814
2327 3700 3824
2244 3657 3770
1092 2762 1911
1092 2762 1911
1092 2762 1911
1092 2762 1947
1353 2977 2357
1839 3424 3387
2371 3728 3824
2457 3742 3854
2457 3742 3854
1092 2762 1911
1092 2762 1911
1092 2762 1911
1092 2762 1921
1252 2907 2208
1730 3330 3176
2313 3702 3782
2443 3742 3840
2457 3742 3854
107 46 0
48 32 0
34 88 183
60 333 947
241 386 2319
788 1070 3297
1096 1305 3521
1108 1317 3533
1108 1317 3533
46 107 0
4 92 0
16 150 155
37 324 895
220 380 2252
777 1045 3280
1096 1305 3521
1108 1317 3533
1108 1317 3533
3 318 0
0 305 0
0 406 142
0 758 695
114 923 1971
646 1259 3063
1084 1327 3497
1098 1317 3522
1108 1317 3533
10 853 181
9 822 198
0 829 375
6 1003 905
262 1582 1817
699 1957 2917
1068 1942 3381
1050 1690 3427
1082 1368 3507
361 1840 948
323 1794 917
298 1791 972
340 1858 1298
598 2208 2054
1083 2647 2898
1323 2780 3146
1227 2623 3111
1141 2387 3156
823 2489 1540
807 2489 1516
793 2474 1501
849 2526 1654
1109 2773 2431
1620 3201 3272
1837 3392 3575
1766 3323 3505
1673 3204 3418
1080 2750 1899
1071 2750 1888
1067 2750 1887
1107 2773 1989
1393 3027 2523
1856 3452 3450
2300 3689 3803
2315 3685 3808
2225 3669 3766
1092 2762 1911
1092 2762 1911
1091 2761 1910
1091 2761 1944
1337 2960 2340
1809 3400 3328
2369 3716 3812
2455 3742 3853
2443 3729 3840
1092 2762 1911
1092 2762 1911
1092 2762 1911
1092 2762 1911
1221 2882 2176
1694 3294 3115
2301 3691 3787
2443 3742 3840
2457 3742 3854
333 76 0
347 44 0
305 76 117
232 303 805
393 363 2120
837 916 3246
1105 1281 3518
1108 1317 3522
1108 1317 3533
318 110 0
303 64 0
253 76 131
213 303 796
375 364 2171
809 941 3259
1105 1281 3519
1108 1316 3531
1108 1317 3533
269 293 0
226 301 0
78 386 247
35 557 805
236 557 2132
722 1061 3171
1084 1299 3497
1105 1317 3530
1108 1317 3533
73 893 35
33 865 35
2 856 247
0 978 839
223 1456 1767
683 1874 2918
1071 1889 3393
1050 1659 3415
1082 1367 3507
373 1831 809
347 1811 771
308 1783 895
325 1802 1219
574 2169 2013
1052 2626 2871
1302 2752 3127
1224 2599 3116
1120 2340 3170
821 2489 1542
819 2490 1512
798 2461 1499
835 2503 1620
1085 2749 2370
1584 3178 3220
1824 3379 3559
1736 3290 3475
1622 3160 3387
1080 2750 1899
1065 2740 1887
1067 2737 1887
1098 2762 1977
1365 2999 2473
1843 3435 3435
2297 3689 3811
2301 3684 3808
2224 3657 3766
1092 2762 1911
1092 2762 1911
1092 2762 1911
1091 2761 1944
1310 2954 2304
1795 3393 3306
2360 3705 3800
2455 3742 3852
2443 3738 3840
1092 2762 1911
1092 2762 1911
1092 2762 1911
1080 2750 1899
1215 2870 2140
1685 3298 3085
2301 3702 3786
2443 3742 3840
2457 3742 3854
938 116 0
893 80 0
901 102 18
702 297 624
789 382 1877
1571 883 3123
1791 1110 3501
1457 1132 3501
1168 1271 3523
915 104 0
876 90 0
885 90 9
662 268 561
756 369 1826
1531 855 3104
1764 1097 3487
1439 1125 3506
1168 1271 3508
743 333 0
754 314 0
806 237 20
511 331 709
677 359 1913
1424 862 3082
1695 1089 3468
1394 1125 3503
1161 1271 3517
776 825 0
756 801 0
669 800 32
326 924 880
444 1009 2047
1130 1453 3035
1439 1571 3412
1248 1414 3442
1128 1321 3503
871 1912 179
866 1858 160
692 1869 290
487 1902 1072
609 2153 1959
1137 2560 2833
1392 2669 3139
1230 2540 3126
1118 2242 3222
1020 2582 1481
1002 2561 1464
980 2539 1461
937 2525 1712
1153 2756 2284
1613 3149 3169
1827 3373 3546
1726 3258 3459
1618 3130 3368
1188 2760 1951
1160 2758 1936
1141 2752 1935
1174 2793 2030
1418 3013 2448
1838 3416 3388
2288 3689 3798
2291 3675 3787
2205 3650 3774
1111 2762 1921
1111 2748 1928
1109 2758 1910
1100 2761 1941
1313 2945 2292
1774 3379 3266
2344 3702 3798
2447 3733 3844
2443 3742 3840
1092 2762 1911
1092 2762 1911
1092 2762 1911
1086 2746 1895
1197 2851 2112
1672 3256 3037
2288 3678 3786
2443 3742 3840
2457 3742 3854
2096 369 0
2048 345 0
2164 317 6
1936 351 231
1879 695 1566
2562 1284 2828
2589 1385 3310
2452 1305 3424
2200 1205 3477
2104 361 0
2046 345 0
2076 304 0
1864 320 253
1855 678 1598
2540 1264 2857
2587 1386 3315
2403 1289 3425
2186 1198 3485
1951 504 0
1953 474 0
1983 369 0
1943 342 189
1739 624 1524
2477 1226 2847
2569 1371 3320
2383 1274 3455
2178 1190 3485
1762 946 50
1662 916 34
1750 877 42
1946 822 455
1736 937 1766
2340 1369 2943
2459 1437 3402
2305 1269 3472
2056 1158 3472
2051 1783 137
2045 1744 139
2007 1722 137
2031 2007 429
1718 2106 2100
2036 2305 3141
2167 2300 3593
1947 2038 3558
1706 1778 3477
2335 2804 711
2283 2803 727
2261 2785 681
1997 2774 1232
1862 2926 2391
1973 3311 3282
2093 3457 3614
1923 3313 3547
1704 3115 3372
2302 3051 1556
2248 3027 1560
2145 3027 1598
2027 3036 1845
1904 3208 2574
2120 3539 3446
2478 3718 3806
2405 3701 3816
2252 3647 3766
1917 2999 1731
1878 2985 1764
1803 2966 1788
1679 2929 1881
1673 3075 2415
1973 3452 3305
2464 3715 3806
2516 3742 3852
2458 3728 3840
1453 2859 1943
1453 2845 1935
1401 2857 1943
1344 2818 1940
1405 2931 2224
1755 3300 3013
2329 3679 3770
2465 3742 3840
2465 3742 3854
2595 689 0
2595 689 0
2583 650 0
2593 650 126
2617 1233 1623
3062 1578 2698
3202 1658 3200
3135 1613 3207
3037 1582 3202
2605 695 0
2590 679 0
2573 650 0
2589 636 121
2596 1204 1584
3035 1562 2673
3181 1646 3206
3109 1611 3197
2996 1572 3196
2600 756 0
2586 732 0
2578 672 0
2573 613 96
2578 1186 1548
3028 1546 2658
3168 1631 3194
3092 1594 3194
3013 1560 3196
2611 1188 32
2585 1172 31
2600 1138 20
2723 1100 276
2618 1345 1596
3003 1598 2661
3167 1648 3257
3095 1605 3201
2937 1546 3206
2892 1985 158
2883 1960 149
2843 1922 143
2914 1969 673
2904 2047 1975
3031 2127 2864
3220 2005 3529
3100 1810 3519
2904 1651 3417
2993 2807 1073
2972 2784 1036
2978 2762 1003
2935 2732 1215
2987 2967 2095
2945 3307 3294
2994 3441 3725
2884 3270 3703
2682 2999 3652
3003 3111 1502
2987 3115 1496
2970 3103 1480
2959 3097 1506
2988 3266 2083
2923 3664 3450
3022 3820 3900
2921 3814 3895
2747 3769 3863
2921 3127 1521
2921 3118 1489
2909 3125 1505
2881 3121 1514
2852 3225 1975
2805 3655 3332
2982 3832 3897
2959 3849 3930
2851 3832 3912
2822 3105 1483
2814 3091 1483
2796 3094 1499
2758 3102 1487
2665 3145 1884
2605 3551 3090
2795 3806 3858
2851 3832 3912
2742 3818 3898
2830 887 0
2830 887 0
2830 887 0
2804 962 176
2835 1369 1692
3255 1726 2754
3497 1839 3369
3497 1823 3409
3469 1811 3397
2830 887 0
2830 887 0
2830 887 0
2794 951 155
2806 1338 1615
3236 1696 2707
3497 1839 3372
3495 1821 3408
3469 1807 3397
2830 887 0
2818 887 0
2818 878 0
2804 946 117
2800 1313 1558
3206 1694 2664
3487 1836 3340
3495 1821 3407
3469 1807 3397
2928 1243 10
2913 1224 11
2896 1188 10
2848 1144 225
2836 1396 1475
3199 1722 2646
3489 1845 3356
3495 1821 3407
3443 1783 3370
3148 2033 429
3141 1987 371
3134 1955 330
3072 1898 759
3164 2005 1842
3259 2172 2743
3571 2202 3441
3551 2053 3501
3485 1891 3445
3272 2742 1377
3248 2719 1351
3255 2692 1323
3215 2645 1390
3334 2833 2067
3458 3239 3142
3642 3265 3687
3650 3113 3651
3573 2866 3547
3316 3217 1699
3320 3212 1699
3319 3197 1689
3306 3187 1696
3337 3279 2123
3510 3652 3234
3581 3834 3931
3570 3832 3970
3481 3763 3911
3304 3278 1713
3318 3278 1713
3314 3278 1711
3292 3263 1699
3308 3317 1990
3475 3650 3080
3566 3889 3962
3570 3908 4003
3511 3892 3990
3276 3252 1658
3288 3252 1685
3276 3261 1657
3236 3236 1640
3238 3250 1779
3374 3575 2795
3464 3866 3903
3501 3903 4003
3425 3906 3975
2842 899 0
2842 899 0
2842 899 0
2818 923 39
2777 1224 1257
3168 1668 2540
3539 1867 3360
3597 1895 3469
3597 1895 3469
2842 899 0
2842 899 0
2842 899 0
2817 920 39
2782 1216 1248
3187 1684 2599
3527 1867 3360
3597 1895 3469
3585 1883 3456
2842 899 0
2842 899 0
2842 899 0
2818 908 29
2789 1194 1164
3154 1665 2514
3535 1867 3356
3597 1895 3469
3583 1881 3455
2830 1057 0
2847 1045 0
2831 1006 0
2820 972 19
2782 1191 1049
3131 1664 2478
3510 1867 3318
3588 1886 3460
3583 1881 3455
3128 1863 276
3104 1832 253
3097 1787 238
3066 1714 302
3069 1776 1495
3190 1968 2536
3564 2131 3396
3605 2056 3489
3590 1956 3461
3276 2620 1293
3276 2602 1292
3261 2573 1248
3236 2523 1233
3286 2597 1760
3500 2998 2917
3698 3149 3614
3720 2987 3600
3689 2774 3531
3378 3194 1727
3387 3181 1715
3376 3178 1704
3376 3156 1701
3397 3192 2009
3595 3583 3061
3715 3808 3899
3770 3805 3974
3760 3728 3949
3389 3308 1831
3389 3308 1831
3389 3308 1831
3389 3308 1831
3374 3316 1971
3593 3633 2915
3730 3896 3932
3761 3938 4047
3760 3936 4047
3389 3308 1831
3376 3296 1818
3385 3304 1827
3389 3308 1822
3374 3308 1870
3556 3571 2710
3730 3878 3854
3762 3951 4047
3776 3952 4063
2842 899 0
2842 899 0
2842 899 0
2832 899 0
2754 1092 843
3105 1626 2395
3513 1867 3304
3597 1895 3469
3597 1895 3469
2842 899 0
2842 899 0
2842 899 0
2832 899 0
2761 1106 820
3083 1610 2349
3497 1855 3288
3585 1895 3456
3597 1895 3469
2842 899 0
2842 899 0
2842 899 0
2832 899 0
2762 1094 775
3045 1600 2308
3500 1867 3303
3594 1895 3465
3597 1895 3469
2826 929 0
2842 919 0
2835 919 0
2829 909 0
2778 1055 625
3047 1574 2262
3485 1839 3250
3583 1895 3455
3597 1895 3469
3035 1582 145
3019 1566 136
3013 1522 98
2995 1465 106
2955 1473 895
3053 1759 2233
3521 1987 3274
3589 1942 3461
3597 1911 3461
3240 2435 1050
3246 2445 1072
3231 2433 1060
3220 2377 972
3177 2322 1413
3434 2622 2584
3621 2881 3427
3704 2774 3531
3663 2519 3535
3389 3136 1674
3389 3124 1674
3376 3111 1662
3372 3095 1630
3366 3087 1803
3561 3427 2768
3721 3738 3791
3786 3738 3957
3778 3605 3902
3389 3308 1831
3389 3308 1831
3378 3297 1820
3374 3294 1817
3381 3294 1870
3570 3556 2682
3730 3877 3840
3774 3936 4047
3774 3936 4047
3389 3308 1831
3389 3308 1831
3389 3308 1831
3389 3308 1831
3389 3308 1855
3515 3485 2503
3714 3850 3742
3776 3952 4049
3806 3982 4079
