assets/luts/LUTs by IWLTBAP (3DL)/03 - V-Log/F-6800-VLOG.3dl
# Copyright: (C) Copyright 2010-2020 by IWLTBAP SAS
# Cannot be resold, shared or otherwise redistributed
# Website: https://luts.iwltbap.com
0 128 256 384 512 640 768 896 1023
0 0 0
9 45 66
20 160 233
16 338 482
0 583 836
0 909 1313
0 1370 1975
0 1662 2391
0 1685 2425
13 82 103
17 131 178
23 304 425
0 657 934
0 1273 1828
0 1627 2334
0 1649 2367
0 1671 2399
0 1694 2432
26 292 386
21 330 446
18 438 604
6 650 903
0 1091 1537
0 1682 2379
0 1708 2418
0 1725 2445
0 1743 2473
11 605 831
5 615 864
2 699 1000
0 867 1234
0 1104 1563
0 1641 2306
0 1807 2533
0 1820 2551
0 1834 2570
3 1036 1447
0 1017 1448
0 1058 1544
0 1219 1770
0 1446 2073
0 1751 2482
0 1987 2790
0 1986 2789
0 1986 2787
0 1628 2249
0 1588 2229
0 1565 2260
0 1664 2423
10 1940 2745
149 2285 3119
271 2489 3347
280 2504 3363
221 2467 3335
0 2116 2898
0 2098 2897
0 2080 2912
13 2112 2953
343 2381 3160
1055 2850 3539
1411 3106 3760
1449 3133 3782
1485 3158 3803
0 2156 2949
0 2147 2959
2 2138 2983
30 2177 3018
531 2499 3248
1299 2994 3645
1550 3172 3796
1585 3196 3817
1616 3219 3837
0 2182 2983
0 2174 2994
3 2167 3018
48 2215 3052
706 2602 3324
1464 3094 3720
1627 3208 3816
1661 3232 3837
1696 3257 3858
132 17 20
149 51 86
152 127 235
128 279 475
86 558 839
33 968 1390
6 1501 2143
3 1691 2415
1 1715 2449
167 98 104
138 136 181
105 303 457
49 678 971
7 1317 1878
2 1644 2348
2 1665 2379
2 1686 2411
2 1707 2442
66 388 490
79 387 496
68 470 635
31 723 1001
13 1198 1677
4 1725 2423
4 1744 2451
3 1762 2478
3 1781 2506
25 816 1117
23 778 1081
17 794 1131
14 961 1370
14 1254 1775
8 1769 2481
8 1870 2616
8 1880 2628
8 1890 2640
8 1335 1845
6 1318 1844
2 1289 1864
2 1394 2026
5 1658 2372
17 1966 2757
28 2159 3001
22 2142 2982
17 2125 2961
6 1946 2667
5 1927 2660
2 1882 2655
4 1909 2722
104 2159 2969
594 2584 3349
930 2869 3617
911 2868 3624
825 2832 3607
8 2138 2918
8 2132 2924
9 2118 2945
24 2140 2979
363 2388 3159
1108 2867 3542
1491 3141 3776
1522 3164 3796
1554 3187 3816
9 2165 2952
9 2159 2959
11 2147 2980
36 2176 3014
520 2484 3231
1296 2984 3633
1567 3176 3796
1601 3201 3817
1633 3224 3837
9 2191 2986
9 2185 2993
12 2175 3015
50 2211 3047
656 2565 3291
1458 3082 3706
1643 3212 3816
1678 3237 3837
1712 3261 3858
484 50 42
507 68 132
482 103 322
456 150 521
383 320 765
261 767 1237
113 1391 1972
57 1770 2483
58 1795 2518
737 119 62
641 137 176
550 181 449
477 329 825
210 1213 1756
86 1737 2429
75 1758 2459
63 1778 2488
53 1798 2518
582 354 236
521 392 319
401 436 536
274 680 931
127 1257 1716
47 1763 2443
40 1780 2470
34 1796 2498
28 1812 2525
127 820 1036
150 827 1034
167 790 1021
161 918 1221
100 1262 1721
44 1813 2501
37 1880 2596
34 1892 2616
30 1904 2635
21 1425 1951
24 1400 1923
21 1289 1818
27 1350 1911
37 1600 2246
47 1984 2757
55 2183 3016
50 2193 3032
43 2191 3032
15 2083 2839
14 2065 2822
11 1981 2755
14 1926 2722
132 2147 2938
644 2593 3343
1142 2968 3672
1212 3013 3707
1241 3035 3727
16 2147 2921
16 2144 2924
16 2129 2943
31 2143 2975
361 2376 3143
1118 2862 3531
1506 3144 3775
1539 3168 3796
1570 3192 3816
17 2174 2955
17 2170 2959
17 2157 2978
37 2173 3008
472 2449 3201
1291 2973 3618
1584 3181 3796
1618 3206 3817
1649 3229 3837
18 2200 2989
18 2197 2993
18 2185 3012
43 2203 3040
595 2523 3255
1453 3071 3692
1660 3217 3816
1694 3241 3837
1729 3266 3858
1021 55 20
1054 70 158
1035 108 449
973 143 804
894 138 1012
826 241 1216
677 950 1834
460 1699 2525
457 1772 2608
1652 99 10
1546 115 136
1359 172 568
1289 204 1177
1252 157 1569
1099 1210 2465
1035 1372 2561
985 1454 2600
894 1564 2638
1586 312 17
1410 356 92
1177 394 457
1007 420 892
899 608 1432
558 1747 2509
508 1809 2566
463 1844 2596
418 1877 2625
1222 696 266
1110 823 414
1024 854 637
811 911 1035
558 1275 1624
342 1917 2527
313 1969 2609
292 1981 2632
267 1992 2655
193 1391 1783
175 1467 1906
203 1372 1781
256 1333 1741
348 1566 2035
267 2006 2669
237 2167 2899
216 2166 2906
196 2163 2909
73 2098 2808
92 2126 2838
95 2056 2767
86 1962 2686
291 2138 2845
741 2558 3258
1096 2907 3604
1104 2927 3629
1087 2932 3643
47 2175 2930
61 2183 2935
75 2184 2953
124 2197 2982
509 2396 3111
1292 2898 3514
1659 3185 3773
1653 3200 3796
1658 3216 3816
32 2187 2959
38 2192 2963
47 2189 2980
88 2202 3009
512 2427 3153
1401 2989 3598
1710 3216 3796
1723 3235 3817
1721 3249 3837
28 2209 2992
28 2208 2994
33 2201 3011
61 2213 3038
518 2454 3188
1487 3059 3662
1748 3241 3816
1777 3264 3837
1793 3284 3858
1743 43 14
1802 58 173
1835 103 518
1847 200 1135
1737 192 1657
1608 109 1824
1571 125 2034
1610 635 2477
1666 786 2625
3021 202 25
2924 175 114
2704 180 567
2702 372 1659
2530 346 2629
2504 438 2959
2599 627 3187
2574 616 3180
2459 533 3100
2865 389 9
2696 410 38
2475 383 401
2233 473 1191
2203 496 2116
2138 423 2618
2160 476 2783
2133 465 2774
2106 462 2764
2821 717 6
2633 740 34
2373 799 225
2043 860 857
1857 885 1603
1721 1002 2334
1670 1344 2628
1593 1439 2667
1498 1548 2708
2190 1048 201
1960 1356 462
1854 1461 670
1786 1585 1158
1572 1687 1806
1138 2142 2607
1020 2324 2864
973 2326 2880
922 2327 2894
398 2129 2700
422 2226 2824
422 2200 2801
453 2111 2709
742 2156 2686
1224 2593 3117
1321 2901 3505
1255 2890 3514
1179 2866 3510
250 2285 2974
286 2301 2983
330 2316 2998
415 2329 3024
775 2447 3076
1630 2973 3485
1999 3282 3774
1952 3288 3801
1933 3297 3820
161 2268 2990
192 2283 2998
230 2295 3013
309 2307 3039
668 2430 3094
1634 3026 3559
2004 3301 3799
2000 3315 3820
1957 3317 3840
98 2260 3010
123 2273 3017
155 2283 3032
223 2295 3059
587 2423 3115
1632 3061 3608
1986 3309 3818
2019 3334 3839
2016 3348 3860
2727 82 17
2828 111 175
2911 174 544
2994 341 1316
3005 551 2402
2721 414 2906
2593 386 2941
2600 560 3146
2635 651 3249
3728 916 591
3722 910 688
3698 915 1103
3686 1077 2016
3483 1205 3384
3010 856 3343
2938 956 3446
2933 963 3457
2928 970 3466
3744 1113 604
3744 1157 647
3706 1113 1024
3639 1177 1775
3545 1390 3118
3100 1082 3363
2984 1092 3466
2967 1062 3470
2953 1043 3476
3782 1516 640
3761 1570 637
3691 1501 741
3563 1430 1367
3438 1534 2387
3240 1574 3266
3125 1534 3521
3110 1489 3532
3085 1450 3530
3818 1860 731
3781 1857 716
3699 1811 712
3542 1870 990
3327 1921 1773
3182 2059 2901
3109 1995 3409
3043 1906 3379
2947 1799 3317
3408 1774 476
3126 2078 677
2914 2296 862
2831 2493 1279
2874 2735 1974
2973 3015 3010
2844 3173 3501
2760 3157 3502
2661 3131 3495
872 2584 3077
890 2592 3079
911 2601 3081
948 2597 3113
1327 2711 3167
2342 3171 3465
2931 3589 3838
2780 3561 3857
2707 3550 3869
574 2461 3075
587 2466 3079
643 2490 3093
735 2514 3122
1082 2609 3163
2022 3073 3468
2735 3542 3848
2720 3553 3870
2549 3509 3874
388 2400 3070
439 2422 3083
495 2445 3097
589 2466 3125
914 2548 3154
1846 3038 3490
2499 3474 3845
2603 3525 3876
2549 3521 3890
3660 765 503
3705 851 768
3728 923 1143
3735 1054 1797
3709 1271 2855
3349 1097 3572
3059 854 3390
2991 973 3477
2978 997 3508
3771 990 662
3765 984 755
3746 989 1175
3735 1152 2081
3561 1296 3409
3080 908 3396
3002 1023 3494
2997 1031 3504
2992 1038 3514
3783 1145 673
3784 1180 717
3761 1157 1104
3740 1288 1937
3639 1489 3219
3178 1136 3422
3048 1159 3514
3030 1128 3519
3013 1100 3523
3819 1542 711
3830 1652 765
3821 1650 954
3776 1641 1624
3744 1861 2761
3478 1797 3431
3218 1633 3596
3181 1553 3591
3149 1486 3588
3872 1930 826
3886 2021 908
3891 2099 1026
3889 2283 1434
3844 2362 2288
3750 2528 3190
3516 2396 3750
3449 2259 3740
3402 2162 3731
3909 2195 1010
3891 2247 1038
3877 2296 1095
3879 2534 1481
3887 2913 2110
3873 3289 3061
3833 3344 3854
3788 3218 3907
3758 3150 3933
3400 3051 1441
3317 3330 1674
3298 3422 1764
3330 3474 1976
3440 3575 2427
3662 3757 3182
3908 3922 3924
3935 3940 3983
3939 3947 4014
2174 3388 2187
2082 3341 2328
2130 3357 2308
2214 3357 2470
2440 3379 2844
3236 3654 3328
3797 3937 3966
3866 3975 4014
3776 3947 4025
1039 2720 3164
1063 2731 3167
1095 2747 3166
1240 2806 3179
1624 2941 3237
2675 3363 3477
3524 3841 3951
3727 3940 4013
3706 3940 4029
3810 1022 758
3800 1012 950
3789 1030 1287
3784 1149 1950
3751 1361 3002
3375 1145 3637
3105 922 3436
3051 1047 3532
3042 1066 3555
3814 1066 735
3809 1060 826
3793 1066 1247
3785 1228 2138
3629 1383 3448
3146 970 3458
3065 1090 3538
3061 1100 3552
3056 1108 3562
3823 1184 745
3824 1210 788
3805 1193 1167
3790 1335 2044
3679 1531 3325
3229 1170 3478
3108 1213 3559
3093 1194 3567
3078 1172 3572
3857 1568 783
3865 1665 834
3856 1647 1028
3823 1650 1701
3789 1890 2922
3519 1809 3492
3276 1678 3642
3246 1622 3644
3214 1553 3640
3907 1970 888
3922 2068 973
3927 2135 1073
3923 2281 1479
3884 2341 2374
3782 2513 3280
3572 2428 3795
3519 2335 3802
3461 2209 3785
3956 2243 1086
3957 2313 1140
3950 2364 1199
3950 2572 1529
3957 2918 2116
3923 3226 3061
3880 3332 3892
3846 3258 3962
3791 3108 3978
3698 2486 1066
3548 2920 1384
3479 3170 1588
3494 3279 1844
3573 3460 2342
3740 3727 3118
3972 3946 3951
4000 3966 4030
4009 3941 4061
3359 3573 1849
3360 3579 1873
3362 3586 1899
3373 3618 2031
3443 3696 2399
3656 3818 3028
3922 3995 3907
4004 4031 4034
4022 4045 4067
3318 3705 1952
3319 3711 1976
3305 3715 1999
3323 3734 2091
3390 3788 2436
3619 3874 3048
3912 4020 3933
4000 4061 4061
4021 4075 4087
3852 1097 847
3844 1088 1052
3835 1113 1415
3832 1247 2110
3790 1447 3145
3386 1177 3693
3153 992 3484
3112 1119 3583
3106 1136 3602
3857 1143 807
3852 1136 915
3839 1145 1341
3834 1306 2206
3689 1465 3499
3206 1034 3523
3130 1152 3579
3124 1169 3599
3121 1178 3609
3864 1229 815
3864 1247 858
3850 1235 1229
3839 1386 2138
3722 1576 3419
3270 1196 3532
3165 1260 3600
3153 1252 3613
3141 1238 3619
3893 1579 854
3901 1673 904
3892 1646 1102
3870 1662 1771
3832 1917 3071
3538 1794 3556
3325 1701 3683
3302 1667 3691
3278 1617 3690
3942 2008 954
3957 2110 1035
3961 2162 1122
3956 2266 1542
3928 2327 2465
3810 2487 3378
3611 2424 3837
3573 2368 3851
3528 2278 3844
3996 2290 1153
4006 2374 1228
4007 2427 1280
4009 2613 1579
4013 2932 2147
3966 3155 3072
3912 3280 3938
3889 3258 4004
3850 3164 4032
3887 2355 1044
3749 2578 1167
3655 2888 1401
3652 3057 1693
3681 3330 2220
3806 3654 3016
4010 3932 3956
4035 3968 4041
4045 3953 4082
3472 3558 1852
3473 3564 1876
3474 3572 1902
3479 3610 2039
3535 3696 2407
3719 3830 3036
3946 4008 3893
4039 4053 4050
4056 4067 4094
3434 3712 1967
3435 3718 1991
3436 3724 2015
3438 3739 2084
3470 3792 2375
3639 3870 2895
3849 3998 3730
4034 4080 4063
4057 4092 4095
