assets/luts/LUTs by IWLTBAP (3DL)/03 - V-Log/F-6800-VLOG.3dl
# Copyright: (C) Copyright 2010-2020 by IWLTBAP SAS
# Cannot be resold, shared or otherwise redistributed
# Website: https://luts.iwltbap.com
0 256 512 768 1023
0 0 0
20 160 233
0 583 836
0 1370 1975
0 1685 2425
26 292 386
18 438 604
0 1091 1537
0 1708 2418
0 1743 2473
3 1036 1447
0 1058 1544
0 1446 2073
0 1987 2790
0 1986 2787
0 2116 2898
0 2080 2912
343 2381 3160
1411 3106 3760
1485 3158 3803
0 2182 2983
3 2167 3018
706 2602 3324
1627 3208 3816
1696 3257 3858
484 50 42
482 103 322
383 320 765
113 1391 1972
58 1795 2518
582 354 236
401 436 536
127 1257 1716
40 1780 2470
28 1812 2525
21 1425 1951
21 1289 1818
37 1600 2246
55 2183 3016
43 2191 3032
16 2147 2921
16 2129 2943
361 2376 3143
1506 3144 3775
1570 3192 3816
18 2200 2989
18 2185 3012
595 2523 3255
1660 3217 3816
1729 3266 3858
1743 43 14
1835 103 518
1737 192 1657
1571 125 2034
1666 786 2625
2865 389 9
2475 383 401
2203 496 2116
2160 476 2783
2106 462 2764
2190 1048 201
1854 1461 670
1572 1687 1806
1020 2324 2864
922 2327 2894
250 2285 2974
330 2316 2998
775 2447 3076
1999 3282 3774
1933 3297 3820
98 2260 3010
155 2283 3032
587 2423 3115
1986 3309 3818
2016 3348 3860
3660 765 503
3728 923 1143
3709 1271 2855
3059 854 3390
2978 997 3508
3783 1145 673
3761 1157 1104
3639 1489 3219
3048 1159 3514
3013 1100 3523
3872 1930 826
3891 2099 1026
3844 2362 2288
3516 2396 3750
3402 2162 3731
3400 3051 1441
3298 3422 1764
3440 3575 2427
3908 3922 3924
3939 3947 4014
1039 2720 3164
1095 2747 3166
1624 2941 3237
3524 3841 3951
3706 3940 4029
3852 1097 847
3835 1113 1415
3790 1447 3145
3153 992 3484
3106 1136 3602
3864 1229 815
3850 1235 1229
3722 1576 3419
3165 1260 3600
3141 1238 3619
3942 2008 954
3961 2162 1122
3928 2327 2465
3611 2424 3837
3528 2278 3844
3887 2355 1044
3655 2888 1401
3681 3330 2220
4010 3932 3956
4045 3953 4082
3434 3712 1967
3436 3724 2015
3470 3792 2375
3849 3998 3730
4057 4092 4095
