assets/luts/LUTs by IWLTBAP (3DL)/03 - V-Log/F-6800-VLOG.3dl
# Copyright: (C) Copyright 2010-2020 by IWLTBAP SAS
# Cannot be resold, shared or otherwise redistributed
# Website: https://luts.iwltbap.com
0 64 128 192 256 320 384 448 512 576 640 704 768 832 896 960 1023
0 0 0
3 15 22
9 45 66
16 93 137
20 160 233
23 242 346
16 338 482
8 453 646
0 583 836
0 730 1052
0 909 1313
0 1130 1632
0 1370 1975
0 1582 2277
0 1662 2391
0 1674 2408
0 1685 2425
5 26 32
6 41 56
13 87 123
22 182 260
22 315 448
5 494 703
0 714 1025
0 1013 1460
0 1379 1986
0 1604 2306
0 1619 2327
0 1631 2344
0 1642 2361
0 1654 2378
0 1666 2394
0 1678 2411
0 1690 2428
13 82 103
14 98 129
17 131 178
21 192 266
23 304 425
11 460 646
0 657 934
0 919 1317
0 1273 1828
0 1584 2272
0 1627 2334
0 1638 2351
0 1649 2367
0 1660 2383
0 1671 2399
0 1682 2415
0 1694 2432
22 174 223
20 186 244
20 216 291
23 266 363
25 339 465
18 464 641
3 634 886
0 851 1205
0 1167 1661
0 1524 2172
0 1652 2356
0 1662 2371
0 1671 2385
0 1681 2400
0 1691 2415
0 1701 2431
0 1711 2446
26 292 386
24 302 402
21 330 446
19 374 513
18 438 604
15 523 723
6 650 903
0 830 1163
0 1091 1537
0 1438 2032
0 1682 2379
0 1699 2405
0 1708 2418
0 1717 2432
0 1725 2445
0 1734 2459
0 1743 2473
19 435 585
18 439 596
14 460 633
10 499 696
9 556 780
6 634 890
3 733 1029
0 854 1200
0 1058 1487
0 1365 1918
0 1676 2356
0 1745 2453
0 1753 2464
0 1761 2476
0 1769 2488
0 1776 2500
0 1784 2512
11 605 831
9 603 835
5 615 864
3 646 919
2 699 1000
0 773 1104
0 867 1234
0 975 1384
0 1104 1563
0 1334 1882
0 1641 2306
0 1800 2525
0 1807 2533
0 1814 2542
0 1820 2551
0 1827 2561
0 1834 2570
5 805 1120
5 798 1118
1 799 1137
0 821 1183
0 866 1256
0 939 1359
0 1030 1484
0 1135 1627
0 1257 1792
0 1412 2006
0 1627 2300
0 1850 2601
0 1877 2635
0 1881 2641
0 1886 2646
0 1890 2651
0 1894 2657
3 1036 1447
1 1024 1439
0 1017 1448
0 1024 1482
0 1058 1544
0 1125 1643
0 1219 1770
0 1325 1912
0 1446 2073
0 1588 2263
0 1751 2482
0 1918 2701
0 1987 2790
0 1986 2789
0 1986 2789
0 1986 2788
0 1986 2787
0 1315 1827
0 1297 1813
0 1281 1814
0 1273 1832
0 1289 1878
0 1341 1963
0 1433 2091
0 1547 2240
0 1678 2407
0 1828 2593
6 1978 2780
17 2119 2957
23 2185 3038
22 2182 3036
18 2173 3026
15 2165 3016
12 2155 3005
0 1628 2249
0 1608 2232
0 1588 2229
0 1567 2233
0 1565 2260
0 1590 2317
0 1664 2423
0 1786 2571
10 1940 2745
58 2117 2936
149 2285 3119
233 2428 3278
271 2489 3347
279 2500 3358
280 2504 3363
253 2487 3350
221 2467 3335
0 1926 2650
0 1908 2634
0 1890 2630
0 1868 2629
0 1858 2643
0 1865 2671
1 1911 2733
20 2021 2846
123 2196 3008
357 2408 3197
617 2617 3388
825 2793 3553
917 2867 3620
936 2880 3631
954 2894 3643
973 2907 3654
935 2893 3648
0 2116 2898
0 2108 2894
0 2098 2897
0 2086 2902
0 2080 2912
3 2084 2927
13 2112 2953
88 2198 3020
343 2381 3160
711 2616 3344
1055 2850 3539
1319 3040 3703
1411 3106 3760
1431 3120 3771
1449 3133 3782
1467 3145 3792
1485 3158 3803
0 2143 2932
0 2140 2935
0 2134 2942
0 2127 2952
1 2124 2965
3 2130 2979
21 2159 3001
136 2251 3065
450 2449 3211
851 2697 3403
1205 2936 3600
1442 3103 3743
1512 3154 3786
1529 3166 3797
1545 3178 3807
1561 3189 3817
1577 3201 3827
0 2156 2949
0 2153 2952
0 2147 2959
0 2140 2970
2 2138 2983
4 2146 2996
30 2177 3018
176 2285 3092
531 2499 3248
945 2754 3446
1299 2994 3645
1502 3137 3766
1550 3172 3796
1567 3184 3807
1585 3196 3817
1600 3208 3827
1616 3219 3837
0 2169 2966
0 2166 2969
0 2160 2977
1 2154 2987
3 2153 3000
5 2161 3013
38 2195 3035
224 2320 3118
618 2550 3285
1033 2808 3487
1388 3049 3686
1555 3166 3786
1588 3190 3806
1606 3202 3817
1623 3214 3827
1640 3227 3838
1656 3238 3848
0 2182 2983
0 2180 2986
0 2174 2994
1 2168 3005
3 2167 3018
6 2177 3031
48 2215 3052
265 2349 3140
706 2602 3324
1124 2863 3529
1464 3094 3720
1603 3191 3803
1627 3208 3816
1644 3220 3827
1661 3232 3837
1679 3245 3848
1696 3257 3858
42 5 6
46 17 28
54 44 69
58 87 140
59 152 240
57 238 362
46 344 511
32 478 696
20 632 915
11 816 1177
6 1049 1512
2 1317 1894
1 1563 2246
0 1656 2379
0 1668 2396
0 1680 2413
0 1692 2430
51 31 34
44 43 58
48 92 134
48 185 273
41 316 458
20 496 710
8 719 1033
4 1020 1469
1 1386 1993
1 1608 2309
1 1623 2331
1 1635 2348
1 1646 2364
1 1658 2381
1 1670 2398
1 1682 2414
1 1693 2431
38 107 131
40 111 142
42 141 189
40 213 295
38 328 460
24 488 685
11 688 976
5 954 1362
2 1306 1868
1 1601 2290
1 1639 2344
1 1649 2360
1 1660 2376
1 1670 2391
1 1681 2407
1 1691 2423
1 1702 2439
47 232 293
45 230 296
41 246 327
40 295 399
38 380 520
29 510 705
15 681 950
8 903 1271
4 1226 1736
2 1571 2229
1 1670 2371
1 1679 2385
1 1689 2400
1 1698 2414
1 1707 2429
1 1717 2443
1 1726 2458
43 367 476
41 372 489
37 388 520
34 421 574
28 485 670
26 569 787
16 706 981
9 888 1241
6 1155 1620
3 1500 2110
2 1710 2408
2 1721 2425
1 1729 2438
1 1738 2451
1 1745 2463
1 1754 2476
1 1763 2490
32 525 702
29 526 709
24 537 736
20 568 791
17 619 870
14 692 975
13 789 1110
10 923 1297
8 1129 1584
5 1433 2011
3 1722 2413
2 1771 2481
2 1778 2491
2 1786 2502
2 1793 2513
2 1800 2524
2 1807 2535
20 714 976
18 710 978
15 711 994
11 731 1038
9 776 1112
8 846 1211
8 937 1337
8 1045 1485
8 1177 1667
6 1415 1994
4 1705 2394
4 1831 2565
3 1837 2572
3 1843 2580
3 1849 2587
3 1855 2595
3 1861 2603
11 930 1290
10 922 1286
7 915 1292
6 922 1324
5 958 1388
5 1024 1485
5 1113 1607
5 1220 1750
5 1340 1912
5 1487 2112
4 1713 2419
4 1905 2674
4 1920 2693
4 1923 2696
4 1925 2699
4 1928 2702
4 1931 2706
6 1188 1649
5 1175 1638
4 1158 1635
2 1150 1653
2 1170 1702
2 1226 1789
2 1317 1914
2 1425 2058
3 1550 2221
4 1693 2408
5 1849 2610
7 2016 2825
7 2062 2886
7 2058 2880
6 2055 2876
6 2051 2871
5 2048 2866
3 1494 2065
2 1478 2049
2 1454 2039
1 1435 2044
1 1433 2072
1 1465 2137
1 1544 2250
1 1660 2398
4 1799 2568
18 1962 2758
49 2121 2943
89 2264 3114
110 2330 3193
96 2317 3181
84 2304 3168
72 2290 3155
59 2274 3139
2 1803 2481
2 1785 2463
2 1760 2450
1 1738 2450
1 1722 2461
1 1730 2496
1 1782 2573
7 1894 2702
41 2055 2869
165 2249 3060
346 2441 3251
501 2606 3420
573 2681 3495
588 2694 3507
565 2686 3504
530 2668 3493
486 2646 3479
4 2058 2819
3 2047 2809
3 2031 2803
2 2015 2805
2 2001 2811
3 2003 2828
9 2030 2863
51 2115 2941
220 2284 3080
533 2507 3262
855 2736 3459
1122 2937 3636
1232 3019 3709
1252 3033 3721
1271 3046 3731
1279 3055 3739
1258 3048 3739
5 2134 2917
5 2133 2919
5 2126 2925
5 2119 2934
5 2114 2947
8 2117 2960
21 2140 2981
102 2217 3037
365 2393 3166
750 2632 3351
1108 2872 3548
1384 3067 3715
1481 3138 3776
1498 3150 3786
1513 3161 3796
1529 3173 3806
1545 3184 3816
5 2147 2934
5 2146 2936
5 2140 2942
5 2132 2952
6 2128 2964
8 2133 2978
25 2158 2999
137 2249 3061
442 2441 3202
848 2691 3396
1205 2931 3594
1445 3102 3740
1520 3156 3786
1538 3168 3797
1553 3180 3807
1569 3192 3817
1585 3203 3827
5 2160 2951
5 2159 2953
5 2153 2959
5 2146 2969
6 2142 2981
10 2149 2996
32 2176 3016
173 2278 3084
524 2491 3239
936 2745 3436
1297 2989 3639
1506 3137 3764
1558 3174 3796
1576 3186 3807
1593 3199 3817
1609 3210 3827
1625 3222 3837
5 2174 2967
5 2172 2970
5 2166 2977
5 2160 2987
7 2157 2999
11 2164 3013
41 2195 3033
207 2306 3106
610 2542 3277
1026 2799 3478
1385 3043 3679
1561 3167 3785
1597 3192 3806
1614 3204 3817
1631 3217 3827
1648 3229 3838
1664 3240 3848
5 2187 2984
5 2185 2987
5 2179 2994
5 2173 3004
8 2171 3016
11 2179 3030
49 2213 3049
247 2335 3128
687 2587 3310
1115 2853 3518
1461 3088 3713
1610 3193 3802
1635 3210 3816
1652 3222 3827
1670 3235 3837
1687 3247 3848
1704 3259 3858
132 17 20
142 29 44
149 51 86
155 77 143
152 127 235
141 191 346
128 279 475
110 402 636
86 558 839
58 742 1083
33 968 1390
15 1234 1763
6 1501 2143
4 1667 2381
3 1691 2415
2 1703 2432
1 1715 2449
196 45 45
176 53 69
175 81 126
180 139 255
152 247 433
116 427 667
70 679 994
29 1007 1441
8 1380 1970
5 1624 2320
4 1643 2347
4 1653 2363
3 1664 2378
3 1675 2395
2 1686 2411
1 1697 2427
1 1708 2443
167 98 104
154 110 126
138 136 181
124 198 296
105 303 457
79 464 677
49 678 971
22 960 1368
7 1317 1878
2 1608 2296
2 1644 2348
2 1654 2364
2 1665 2379
2 1675 2395
2 1686 2411
2 1696 2426
2 1707 2442
95 227 270
102 234 280
110 244 305
105 281 374
84 368 506
61 507 700
37 689 959
21 924 1299
8 1253 1771
3 1586 2249
2 1673 2373
2 1683 2388
2 1693 2403
1 1703 2419
1 1714 2434
1 1724 2449
1 1734 2464
66 388 490
72 388 491
79 387 496
80 411 543
68 470 635
49 570 782
31 723 1001
19 917 1278
13 1198 1677
5 1544 2168
4 1725 2423
4 1734 2437
4 1744 2451
4 1753 2465
3 1762 2478
3 1772 2492
3 1781 2506
45 586 776
44 578 769
42 561 755
45 570 780
43 613 848
31 692 966
23 805 1129
20 966 1354
15 1185 1661
10 1493 2091
6 1760 2461
6 1796 2511
6 1804 2521
6 1811 2532
5 1818 2541
5 1824 2551
5 1831 2561
25 816 1117
25 809 1111
23 778 1081
18 767 1083
17 794 1131
16 860 1228
14 961 1370
15 1090 1548
14 1254 1775
10 1497 2110
8 1769 2481
8 1866 2611
8 1870 2616
8 1875 2622
8 1880 2628
8 1884 2634
8 1890 2640
16 1051 1454
14 1058 1469
11 1038 1458
9 1010 1443
8 1014 1466
8 1066 1543
8 1157 1669
8 1279 1834
9 1423 2030
9 1581 2243
8 1804 2541
8 1965 2753
8 1971 2761
8 1972 2761
8 1972 2761
8 1973 2761
8 1973 2761
8 1335 1845
7 1341 1857
6 1318 1844
5 1297 1846
2 1289 1864
2 1315 1914
2 1394 2026
4 1510 2181
5 1658 2372
9 1811 2564
17 1966 2757
28 2131 2965
28 2159 3001
24 2150 2991
22 2142 2982
20 2134 2971
17 2125 2961
5 1649 2270
5 1652 2278
4 1628 2263
2 1600 2257
1 1582 2267
1 1596 2311
1 1655 2401
3 1765 2539
14 1912 2707
63 2092 2901
155 2267 3091
247 2422 3264
280 2486 3339
255 2470 3326
227 2453 3313
206 2436 3299
180 2416 3281
6 1946 2667
6 1948 2673
5 1927 2660
4 1901 2652
2 1882 2655
2 1878 2674
4 1909 2722
22 2000 2819
104 2159 2969
322 2366 3152
594 2584 3349
824 2778 3533
930 2869 3617
949 2883 3630
911 2868 3624
873 2853 3617
825 2832 3607
8 2117 2891
8 2117 2892
8 2108 2893
8 2096 2898
8 2086 2906
9 2084 2917
17 2102 2939
71 2170 2993
281 2330 3115
629 2555 3291
979 2791 3487
1278 3007 3673
1399 3096 3751
1419 3111 3763
1437 3124 3774
1444 3131 3781
1440 3133 3786
8 2138 2918
8 2138 2919
8 2132 2924
8 2124 2934
9 2118 2945
11 2121 2960
24 2140 2979
106 2215 3033
363 2388 3159
751 2629 3346
1108 2867 3542
1387 3066 3712
1491 3141 3776
1506 3152 3786
1522 3164 3796
1538 3175 3806
1554 3187 3816
9 2152 2935
9 2151 2936
9 2146 2942
9 2138 2951
10 2133 2963
13 2136 2977
31 2159 2997
132 2243 3055
436 2434 3195
842 2683 3387
1204 2927 3588
1450 3102 3738
1529 3159 3786
1546 3171 3797
1561 3182 3807
1577 3194 3817
1593 3205 3827
9 2165 2952
9 2164 2953
9 2159 2959
9 2151 2969
11 2147 2980
13 2151 2994
36 2176 3014
164 2269 3075
520 2484 3231
930 2737 3427
1296 2984 3633
1512 3137 3762
1567 3176 3796
1584 3189 3807
1601 3201 3817
1617 3212 3827
1633 3224 3837
9 2178 2969
9 2177 2970
9 2172 2976
9 2165 2986
11 2161 2998
14 2166 3012
43 2194 3031
196 2295 3096
592 2528 3264
1019 2791 3469
1382 3036 3672
1567 3167 3783
1605 3194 3806
1622 3207 3817
1639 3219 3827
1657 3231 3837
1673 3243 3847
9 2191 2986
9 2190 2987
9 2185 2993
9 2179 3003
12 2175 3015
15 2181 3029
50 2211 3047
230 2322 3117
656 2565 3291
1106 2844 3509
1458 3082 3706
1616 3193 3800
1643 3212 3816
1660 3225 3827
1678 3237 3837
1695 3249 3848
1712 3261 3858
280 35 34
294 44 64
303 59 109
299 81 179
297 108 262
286 147 361
264 208 472
239 311 607
206 461 787
159 656 1015
106 892 1302
59 1168 1662
29 1444 2043
16 1664 2356
13 1727 2445
12 1739 2462
12 1752 2479
445 65 53
420 70 81
387 85 144
379 111 259
386 152 417
338 261 609
264 509 888
155 897 1326
66 1329 1876
28 1646 2320
24 1693 2389
22 1703 2403
18 1712 2418
16 1722 2433
14 1732 2448
13 1742 2464
