assets/luts/LUTs by IWLTBAP (3DL)/03 - V-Log/F-8700-VLOG.3dl
# Copyright: (C) Copyright 2010-2020 by IWLTBAP SAS
# Cannot be resold, shared or otherwise redistributed
# Website: https://luts.iwltbap.com
0 64 128 192 256 320 384 448 512 576 640 704 768 832 896 960 1023
257 321 369
257 305 384
257 349 446
244 395 537
241 430 658
257 472 783
257 570 980
298 678 1238
329 835 1582
376 1015 1979
407 1164 2302
439 1263 2509
450 1321 2606
450 1333 2618
450 1333 2618
450 1333 2618
450 1333 2618
257 352 353
271 351 398
257 366 461
244 398 537
241 430 658
257 472 783
257 570 980
298 678 1238
329 835 1589
376 1015 1994
407 1170 2334
439 1278 2524
450 1321 2606
450 1333 2618
450 1333 2618
450 1333 2618
450 1333 2618
271 428 397
286 443 417
259 417 462
257 416 524
257 456 658
257 491 793
267 560 970
298 662 1214
321 811 1552
376 983 1963
407 1148 2294
439 1252 2509
450 1321 2606
450 1333 2618
450 1333 2618
450 1333 2618
450 1333 2618
273 534 415
288 521 417
286 534 489
259 492 564
270 504 687
270 535 823
272 618 999
298 712 1249
328 840 1592
376 983 1970
407 1148 2292
439 1252 2509
450 1321 2606
450 1333 2618
450 1333 2618
450 1333 2618
450 1333 2618
301 674 418
301 670 418
291 685 466
285 695 634
276 629 707
273 629 838
281 680 1042
310 774 1294
363 915 1646
404 1067 2028
424 1191 2337
439 1263 2517
450 1321 2606
450 1333 2618
450 1333 2618
450 1333 2618
450 1333 2618
316 799 418
305 799 406
291 813 437
289 873 638
300 871 853
284 785 905
317 784 1087
330 852 1345
375 994 1689
420 1149 2075
431 1277 2383
450 1355 2575
458 1366 2614
450 1342 2618
450 1333 2618
450 1333 2618
450 1333 2618
321 986 418
305 970 401
300 984 416
299 1049 548
327 1151 890
345 1129 1097
337 977 1161
343 962 1373
377 1066 1725
425 1227 2121
450 1359 2419
465 1451 2616
476 1485 2704
460 1450 2693
460 1418 2678
459 1377 2653
450 1343 2628
346 1212 418
346 1212 411
330 1196 417
330 1255 495
342 1375 812
380 1479 1196
377 1389 1417
371 1186 1501
386 1194 1786
434 1324 2192
465 1473 2491
496 1567 2688
507 1587 2783
504 1588 2786
491 1542 2762
490 1496 2731
475 1465 2709
402 1526 474
393 1526 466
385 1526 466
372 1532 487
369 1654 735
394 1819 1159
441 1903 1684
458 1731 1870
458 1514 1975
481 1511 2294
496 1608 2586
511 1691 2774
538 1726 2870
538 1696 2864
538 1652 2847
537 1629 2802
506 1598 2802
457 1876 537
448 1860 521
448 1860 521
435 1860 521
432 1918 701
432 2091 1079
493 2302 1728
557 2387 2295
559 2113 2383
528 1842 2457
543 1839 2703
555 1885 2879
585 1894 2957
582 1867 2964
553 1823 2926
552 1792 2911
528 1760 2879
510 2190 568
510 2190 552
510 2176 568
497 2161 568
494 2159 664
494 2281 1048
524 2461 1636
602 2707 2437
638 2619 2746
610 2290 2730
606 2127 2830
609 2123 2979
616 2126 3051
613 2092 3066
600 2035 3035
600 1990 3020
590 1953 2995
583 2397 599
583 2397 599
583 2397 599
570 2384 595
567 2377 627
556 2394 987
551 2553 1537
617 2833 2346
679 2900 2912
688 2629 2980
673 2414 3001
644 2320 3070
635 2298 3113
631 2286 3137
633 2255 3128
647 2228 3114
647 2182 3114
598 2477 630
598 2477 630
598 2477 630
598 2477 630
598 2465 642
595 2429 864
582 2599 1417
626 2879 2161
690 3041 2889
723 2857 3105
686 2592 3071
678 2471 3113
678 2414 3172
678 2405 3187
678 2403 3200
678 2392 3199
678 2360 3184
610 2489 643
610 2489 643
610 2489 643
610 2489 643
610 2477 643
599 2460 733
591 2551 1247
618 2802 1952
690 3055 2795
723 2935 3110
703 2661 3086
692 2514 3139
690 2460 3187
691 2463 3202
693 2476 3215
693 2476 3215
693 2476 3215
610 2489 643
610 2489 643
610 2489 643
610 2489 643
610 2478 643
599 2464 674
578 2485 1059
610 2711 1690
688 3016 2629
723 2957 3082
715 2685 3098
701 2527 3151
690 2473 3200
693 2476 3215
706 2489 3228
706 2489 3228
706 2489 3228
610 2489 643
610 2489 643
610 2489 643
610 2489 643
610 2489 643
599 2478 653
579 2452 870
595 2649 1473
673 2953 2402
722 2985 3032
706 2726 3084
702 2539 3125
691 2474 3200
694 2477 3215
706 2489 3228
706 2489 3228
706 2489 3228
610 2489 643
610 2489 643
610 2489 643
610 2489 643
610 2489 643
599 2478 643
584 2483 713
578 2608 1309
634 2899 2200
697 3021 2973
706 2782 3105
706 2555 3125
706 2489 3200
706 2489 3215
706 2489 3228
706 2489 3228
706 2489 3228
272 336 384
272 336 385
259 351 446
257 395 537
268 414 658
262 472 783
257 570 980
298 678 1238
329 827 1582
376 984 1963
407 1148 2292
439 1252 2509
450 1321 2606
450 1333 2618
450 1333 2618
450 1333 2618
450 1333 2618
272 367 368
273 352 399
259 353 417
245 395 534
242 429 658
257 472 783
257 570 980
298 678 1238
329 835 1582
376 1014 1978
407 1163 2303
439 1262 2509
450 1321 2606
450 1333 2618
450 1333 2618
450 1333 2618
450 1333 2618
286 459 399
287 444 417
259 400 446
255 413 536
255 444 671
256 486 797
257 574 970
298 669 1221
329 819 1567
376 1000 1964
407 1155 2317
439 1262 2509
450 1321 2606
450 1333 2618
450 1333 2618
450 1333 2618
450 1333 2618
288 552 401
289 536 417
272 520 475
269 491 540
270 504 675
270 535 800
280 618 1006
298 712 1242
329 827 1567
376 998 1942
407 1148 2289
439 1252 2496
450 1321 2596
450 1333 2618
450 1333 2618
450 1333 2618
450 1333 2618
301 674 414
301 674 417
289 674 451
289 693 633
285 629 709
273 629 827
283 680 1030
310 774 1267
336 911 1617
388 1055 2004
420 1184 2318
439 1270 2494
450 1321 2594
450 1333 2618
450 1333 2618
450 1333 2618
450 1333 2618
316 799 418
315 799 417
289 799 422
289 849 614
290 861 826
284 774 889
295 774 1060
325 852 1338
364 968 1684
420 1144 2081
434 1277 2398
450 1355 2574
460 1371 2638
450 1342 2618
450 1333 2618
450 1333 2618
450 1333 2618
321 986 418
320 985 417
301 985 418
299 1044 548
304 1126 848
313 1095 1054
325 967 1167
340 949 1380
374 1063 1725
425 1237 2136
440 1370 2434
465 1458 2641
476 1485 2718
475 1458 2693
473 1418 2668
459 1377 2653
450 1343 2628
361 1228 426
346 1212 417
346 1196 425
317 1245 495
342 1368 805
380 1477 1180
387 1402 1420
386 1183 1480
391 1194 1778
434 1320 2174
480 1480 2497
496 1567 2694
507 1587 2783
504 1588 2777
482 1528 2755
490 1511 2739
475 1465 2709
393 1533 473
393 1526 466
386 1519 472
371 1510 486
361 1630 700
399 1787 1120
453 1925 1682
461 1742 1873
458 1509 1963
472 1495 2274
496 1595 2577
511 1686 2769
526 1710 2868
535 1699 2858
522 1673 2856
522 1629 2832
506 1598 2802
448 1853 506
448 1859 520
448 1860 521
435 1860 521
432 1909 689
442 2061 1058
479 2286 1692
541 2352 2276
551 2074 2355
543 1848 2454
543 1837 2694
557 1878 2885
573 1887 2948
582 1870 2960
566 1836 2941
552 1792 2911
528 1760 2886
510 2189 552
510 2190 552
510 2176 553
497 2161 565
494 2159 645
504 2286 1039
526 2467 1611
602 2707 2415
638 2617 2749
621 2312 2759
604 2137 2839
600 2107 2975
604 2114 3057
613 2092 3069
598 2035 3050
585 1990 3020
585 1953 3011
567 2381 583
567 2381 583
581 2395 597
570 2384 586
551 2364 615
551 2401 981
551 2564 1524
612 2833 2299
679 2904 2903
688 2653 2995
673 2412 2992
636 2309 3062
635 2301 3124
631 2286 3137
632 2254 3139
636 2213 3109
636 2182 3109
598 2477 630
598 2477 630
598 2477 630
598 2467 630
587 2453 651
580 2429 899
578 2599 1423
621 2877 2151
694 3041 2912
727 2830 3105
692 2578 3079
690 2463 3124
687 2414 3172
678 2405 3187
678 2403 3198
678 2376 3184
678 2360 3184
610 2489 643
610 2489 643
610 2489 643
610 2489 643
598 2477 640
583 2460 691
578 2551 1189
612 2787 1916
697 3047 2799
735 2940 3111
708 2668 3100
701 2514 3137
690 2460 3187
691 2463 3202
693 2476 3215
693 2476 3215
693 2476 3215
610 2489 643
610 2489 643
610 2489 643
610 2489 643
600 2478 632
594 2464 661
593 2485 1018
603 2711 1683
673 3000 2611
723 2963 3075
717 2700 3101
701 2529 3126
690 2473 3198
693 2476 3215
706 2489 3228
706 2489 3228
706 2489 3228
610 2489 643
610 2489 643
610 2489 643
610 2489 643
610 2489 643
599 2478 653
594 2466 855
602 2639 1448
657 2936 2360
713 3007 3037
715 2756 3114
701 2549 3125
690 2473 3183
693 2476 3215
706 2489 3228
706 2489 3228
706 2489 3228
610 2489 643
610 2489 643
610 2489 643
610 2489 643
610 2489 643
599 2478 643
594 2474 713
593 2552 1251
611 2844 2060
697 3013 2947
706 2782 3105
701 2550 3121
690 2473 3168
693 2476 3215
706 2489 3228
706 2489 3228
706 2489 3228
347 367 399
347 367 385
291 381 446
287 398 521
277 440 642
262 476 768
257 570 971
298 678 1223
329 827 1575
376 999 1979
407 1163 2316
439 1263 2509
450 1321 2606
450 1333 2618
450 1333 2618
450 1333 2618
450 1333 2618
362 398 370
347 368 386
291 354 428
271 382 505
271 426 626
272 472 751
281 560 964
298 662 1207
329 819 1560
376 999 1942
407 1148 2293
439 1252 2509
450 1321 2606
450 1333 2618
450 1333 2618
450 1333 2618
450 1333 2618
321 431 399
334 443 400
289 412 458
284 441 536
260 458 656
257 490 782
281 560 955
298 662 1207
321 811 1553
376 983 1947
407 1148 2292
439 1252 2509
450 1321 2606
450 1333 2618
450 1333 2618
450 1333 2618
450 1333 2618
319 550 401
322 537 401
304 532 450
290 508 562
271 495 648
270 531 803
276 611 1012
298 700 1239
321 812 1556
376 983 1947
407 1148 2288
439 1252 2496
450 1321 2596
450 1333 2618
450 1333 2618
450 1333 2618
450 1333 2618
319 678 414
319 674 414
305 662 437
290 696 606
286 620 703
273 598 814
273 664 1018
310 767 1266
341 895 1616
378 1041 1992
407 1170 2294
439 1261 2482
447 1321 2594
439 1333 2618
440 1333 2618
450 1333 2618
450 1333 2618
335 799 418
320 799 418
305 783 418
289 846 583
289 847 806
273 754 873
294 759 1046
325 826 1299
352 962 1651
403 1129 2045
435 1264 2353
450 1355 2533
457 1364 2625
436 1342 2618
437 1333 2618
450 1333 2618
450 1333 2618
321 986 418
321 986 418
306 986 418
299 1007 515
310 1108 830
314 1099 1053
316 951 1133
340 941 1356
364 1051 1722
419 1221 2116
448 1355 2413
465 1451 2610
476 1471 2702
470 1458 2684
469 1417 2668
450 1354 2637
450 1343 2628
362 1196 427
360 1196 426
348 1196 427
329 1238 481
330 1359 786
357 1444 1151
381 1364 1381
387 1177 1471
398 1180 1788
448 1323 2196
465 1459 2485
480 1553 2680
495 1579 2775
504 1564 2763
482 1527 2747
481 1490 2724
475 1465 2701
393 1526 452
400 1526 479
377 1502 451
370 1508 464
360 1614 682
399 1774 1111
442 1904 1652
458 1770 1878
450 1510 1959
465 1491 2273
489 1603 2577
511 1684 2772
524 1696 2866
529 1677 2843
522 1644 2834
521 1615 2801
506 1584 2788
448 1860 513
454 1867 534
433 1845 506
426 1844 505
415 1878 659
437 2048 1044
491 2283 1688
543 2382 2277
543 2094 2361
528 1826 2434
542 1820 2683
558 1864 2863
578 1875 2948
581 1853 2955
544 1809 2919
537 1778 2910
528 1746 2872
510 2181 552
494 2160 552
494 2158 552
486 2145 552
484 2134 634
492 2270 1029
514 2462 1616
586 2687 2378
622 2599 2707
596 2283 2716
598 2131 2821
600 2104 2958
600 2104 3047
600 2082 3066
598 2035 3035
584 1981 3020
584 1944 2997
581 2395 597
567 2381 583
555 2368 575
551 2365 574
551 2361 613
541 2389 963
537 2550 1504
597 2813 2268
663 2897 2872
672 2658 2981
657 2408 2977
631 2309 3049
635 2301 3124
645 2286 3141
644 2255 3128
631 2226 3114
615 2182 3109
598 2477 630
598 2477 630
598 2468 630
598 2465 630
598 2453 644
587 2429 852
568 2577 1380
609 2851 2113
689 3039 2906
710 2839 3104
672 2572 3072
662 2444 3110
675 2414 3155
678 2405 3187
678 2403 3199
678 2386 3197
662 2344 3167
610 2489 643
610 2489 643
610 2489 643
610 2489 643
609 2477 643
597 2460 716
578 2550 1230
596 2781 1878
684 3047 2777
723 2928 3098
702 2645 3086
692 2514 3137
690 2460 3187
691 2463 3202
693 2476 3215
693 2474 3215
675 2433 3215
610 2489 643
610 2489 643
610 2489 643
610 2489 643
609 2478 643
599 2464 672
594 2477 1019
602 2681 1619
680 2998 2573
723 2964 3073
706 2701 3102
701 2529 3125
690 2473 3199
693 2476 3215
706 2489 3228
706 2488 3228
692 2475 3228
610 2489 643
610 2489 643
610 2489 643
610 2489 643
610 2489 643
599 2478 644
594 2467 800
593 2625 1426
642 2929 2345
713 3008 3025
707 2753 3115
701 2541 3125
691 2474 3197
694 2477 3215
706 2489 3228
706 2489 3228
706 2489 3228
610 2489 643
610 2489 643
610 2489 643
610 2489 643
610 2489 643
599 2478 643
584 2473 703
578 2543 1219
610 2835 2042
704 3042 2946
715 2818 3119
690 2573 3130
694 2487 3167
705 2487 3215
706 2489 3228
706 2489 3228
706 2489 3228
486 398 388
486 411 370
410 426 444
366 430 521
322 459 629
315 501 763
315 576 956
317 678 1192
329 814 1545
376 984 1950
407 1151 2294
439 1254 2509
450 1321 2606
450 1333 2618
450 1333 2618
450 1333 2618
450 1333 2618
486 414 370
470 398 356
423 410 444
353 414 518
319 430 616
302 472 760
312 569 955
318 675 1192
329 831 1545
376 1011 1959
407 1160 2292
439 1260 2509
450 1321 2606
450 1333 2618
450 1333 2618
450 1333 2618
