assets/luts/LUTs by IWLTBAP (3DL)/03 - V-Log/F-8700-V2-VLOG.3dl
# Copyright: (C) Copyright 2010-2020 by IWLTBAP SAS
# Cannot be resold, shared or otherwise redistributed
# Website: https://luts.iwltbap.com
0 64 128 192 256 320 384 448 512 576 640 704 768 832 896 960 1023
0 0 0
0 0 31
14 0 92
3 0 213
0 56 381
0 146 564
0 265 813
0 424 1152
0 610 1598
0 859 2090
38 1058 2475
85 1171 2718
117 1241 2814
129 1253 2826
129 1253 2826
129 1253 2826
129 1253 2826
0 0 0
0 0 31
0 0 92
0 12 213
0 56 381
0 146 564
0 265 813
0 424 1152
0 634 1606
7 883 2105
53 1073 2490
85 1197 2733
117 1241 2814
129 1253 2826
129 1253 2826
129 1253 2826
129 1253 2826
0 74 14
0 89 60
0 46 123
0 57 227
0 100 396
0 150 552
0 265 797
0 415 1112
0 610 1552
6 852 2050
28 1042 2445
85 1171 2708
117 1241 2814
129 1253 2826
129 1253 2826
129 1253 2826
129 1253 2826
0 226 29
0 213 50
0 223 179
0 181 261
0 183 411
0 222 590
0 336 839
0 465 1153
0 631 1592
7 852 2057
28 1042 2443
85 1171 2707
117 1241 2814
129 1253 2826
129 1253 2826
129 1253 2826
129 1253 2826
0 410 48
0 366 48
0 418 173
0 418 341
0 352 458
0 352 647
0 434 901
0 554 1215
0 719 1654
7 923 2107
50 1104 2479
85 1188 2718
114 1241 2811
117 1253 2814
118 1253 2816
129 1253 2826
129 1253 2826
0 580 48
0 559 37
0 608 126
0 661 357
0 646 592
0 544 718
0 548 962
0 647 1262
5 812 1716
45 1030 2187
81 1213 2566
120 1307 2794
121 1314 2830
96 1273 2805
115 1262 2812
129 1253 2826
129 1253 2826
0 829 48
0 813 32
0 818 43
0 900 259
0 1027 679
0 996 949
0 818 1059
0 784 1337
13 920 1766
65 1133 2248
113 1323 2630
132 1426 2849
137 1447 2931
133 1410 2926
139 1369 2885
129 1313 2846
129 1273 2836
0 1134 73
0 1127 73
0 1087 41
0 1164 184
7 1337 584
9 1471 1091
18 1329 1374
9 1089 1487
49 1103 1854
96 1272 2342
144 1453 2721
181 1556 2938
182 1587 3030
170 1565 3026
168 1519 2987
138 1457 2942
138 1435 2927
32 1526 129
32 1526 129
16 1486 120
16 1513 184
22 1666 500
43 1878 1058
108 1983 1708
128 1758 1939
120 1485 2084
152 1499 2457
183 1627 2816
206 1720 3028
219 1758 3135
225 1730 3137
223 1690 3111
192 1621 3058
185 1598 3035
101 1947 207
94 1931 198
101 1930 206
101 1922 214
85 1999 463
105 2218 962
183 2471 1759
246 2544 2437
240 2222 2566
230 1917 2658
245 1901 2951
267 1964 3164
280 1972 3253
284 1931 3269
255 1892 3237
254 1830 3197
232 1783 3160
179 2314 263
184 2298 263
185 2308 263
180 2294 263
179 2300 423
179 2429 902
215 2671 1638
328 2957 2599
355 2836 2983
338 2449 2993
323 2262 3109
336 2226 3277
343 2218 3346
340 2190 3382
317 2138 3362
316 2076 3330
285 2036 3284
283 2573 310
283 2562 310
283 2562 310
270 2553 310
255 2548 363
247 2584 835
256 2782 1504
353 3104 2495
433 3175 3193
437 2866 3280
394 2601 3283
390 2486 3376
386 2462 3435
374 2445 3450
374 2408 3461
373 2367 3435
358 2321 3420
309 2674 341
309 2674 341
309 2674 341
309 2674 341
309 2662 362
298 2619 688
285 2828 1367
364 3147 2287
450 3332 3162
482 3113 3417
445 2794 3393
436 2652 3446
422 2606 3493
422 2591 3521
422 2580 3521
421 2568 3520
393 2525 3509
321 2698 353
321 2698 353
321 2698 353
321 2698 353
321 2686 353
312 2653 455
308 2766 1142
351 3067 2033
439 3345 3041
482 3201 3424
463 2888 3408
450 2702 3463
450 2653 3524
453 2653 3536
453 2653 3536
453 2653 3536
453 2653 3536
321 2698 353
321 2698 353
321 2698 353
321 2698 353
321 2687 353
321 2673 396
311 2693 923
314 2968 1724
422 3313 2842
480 3254 3393
476 2915 3421
450 2723 3461
453 2666 3535
464 2666 3549
466 2666 3549
466 2666 3549
466 2666 3549
321 2698 353
321 2698 353
321 2698 353
321 2698 353
321 2698 353
321 2687 375
311 2645 693
314 2875 1468
393 3249 2578
472 3283 3320
475 2971 3421
449 2748 3447
449 2678 3525
453 2666 3548
466 2666 3549
466 2666 3549
466 2666 3549
321 2698 353
321 2698 353
321 2698 353
321 2698 353
321 2698 353
321 2687 353
311 2692 464
305 2825 1244
361 3164 2337
457 3319 3276
460 3033 3427
445 2769 3447
434 2678 3521
453 2666 3536
466 2666 3549
466 2666 3549
466 2666 3549
0 0 0
0 0 31
14 0 92
15 0 213
15 56 365
15 129 544
6 259 807
0 424 1144
0 618 1567
7 852 2058
28 1042 2444
85 1171 2708
117 1241 2814
129 1253 2826
129 1253 2826
129 1253 2826
129 1253 2826
0 0 0
0 0 60
0 0 94
0 0 213
0 56 380
10 129 548
6 259 807
0 424 1152
0 611 1597
0 859 2089
37 1057 2474
85 1172 2718
117 1241 2814
129 1253 2826
129 1253 2826
129 1253 2826
129 1253 2826
0 89 29
0 90 63
0 32 107
0 57 227
0 100 396
1 163 563
1 265 812
0 415 1113
0 610 1558
0 852 2066
38 1048 2473
85 1182 2718
117 1241 2814
129 1253 2826
129 1253 2826
129 1253 2826
129 1253 2826
0 241 44
0 228 51
0 220 179
0 180 261
0 183 411
0 225 580
0 314 837
0 459 1146
0 625 1560
0 836 2044
28 1032 2436
85 1171 2705
117 1241 2805
129 1253 2826
129 1253 2826
129 1253 2826
129 1253 2826
0 398 48
0 397 48
0 420 173
0 418 341
0 343 485
0 336 636
0 418 885
0 562 1208
0 734 1631
5 929 2082
50 1104 2467
85 1199 2702
114 1241 2799
117 1253 2814
118 1253 2816
129 1253 2826
129 1253 2826
0 564 37
0 578 37
0 585 101
0 643 344
0 644 581
0 535 702
0 548 932
0 650 1255
0 827 1693
31 1030 2171
81 1213 2556
120 1310 2794
121 1326 2837
96 1273 2805
104 1262 2812
119 1253 2826
129 1253 2826
9 813 32
0 813 32
0 813 37
0 900 243
0 1006 638
0 966 921
0 799 1053
0 780 1337
18 931 1775
65 1142 2257
96 1317 2628
138 1412 2861
137 1452 2921
131 1420 2910
113 1370 2872
123 1328 2871
129 1273 2836
15 1142 57
0 1119 57
0 1101 56
0 1157 170
0 1322 568
6 1464 1081
30 1358 1383
17 1099 1487
41 1099 1849
96 1272 2332
144 1453 2715
185 1553 2943
182 1587 3016
168 1571 3020
162 1519 2990
153 1471 2979
153 1426 2949
23 1510 112
16 1487 120
16 1485 120
9 1500 169
8 1644 484
35 1857 1014
116 2000 1707
124 1776 1947
116 1489 2076
152 1486 2436
183 1622 2806
206 1720 3031
219 1758 3125
225 1728 3129
223 1682 3112
199 1636 3074
192 1597 3050
101 1907 183
85 1922 197
99 1922 198
101 1922 212
73 1987 449
89 2180 931
186 2439 1727
250 2500 2427
240 2174 2550
230 1906 2654
245 1893 2940
260 1941 3148
275 1967 3244
284 1929 3253
268 1876 3230
239 1830 3191
238 1799 3175
184 2289 254
179 2298 262
184 2298 263
180 2285 267
163 2288 382
189 2431 891
221 2677 1613
328 2947 2579
355 2834 2983
338 2476 2993
323 2265 3105
326 2229 3272
336 2227 3352
340 2190 3364
325 2143 3343
307 2082 3341
294 2051 3314
283 2562 310
267 2562 294
281 2562 308
270 2549 306
251 2535 353
266 2584 829
271 2797 1493
353 3104 2474
433 3180 3166
436 2882 3258
402 2588 3283
394 2482 3381
386 2462 3450
374 2445 3459
374 2408 3437
373 2367 3435
347 2315 3419
309 2674 341
309 2674 341
309 2674 341
309 2674 341
309 2662 371
298 2621 712
285 2824 1371
361 3143 2277
448 3325 3177
470 3083 3395
451 2783 3369
444 2652 3435
422 2606 3493
422 2591 3521
422 2580 3521
421 2568 3521
405 2537 3520
321 2698 353
321 2698 353
321 2698 353
321 2698 353
321 2686 351
310 2656 428
292 2748 1101
322 3058 1960
439 3345 3033
482 3220 3418
463 2892 3408
450 2702 3463
450 2653 3524
453 2653 3536
453 2653 3536
453 2653 3536
453 2653 3536
321 2698 353
321 2698 353
321 2698 353
321 2698 353
321 2687 344
320 2673 383
311 2678 884
314 2952 1709
422 3311 2824
482 3261 3394
477 2945 3421
450 2732 3461
454 2666 3535
465 2666 3547
466 2666 3549
466 2666 3549
466 2666 3549
321 2698 353
321 2698 353
321 2698 353
321 2698 353
321 2698 353
321 2687 375
311 2645 668
314 2857 1427
392 3209 2520
487 3289 3324
490 2992 3421
450 2744 3447
453 2666 3521
464 2666 3536
466 2666 3549
466 2666 3549
466 2666 3549
321 2698 353
321 2698 353
321 2698 353
321 2698 353
321 2698 353
321 2687 353
311 2682 454
305 2785 1161
361 3117 2173
457 3325 3218
460 3043 3427
445 2769 3447
434 2667 3521
453 2666 3536
466 2666 3549
466 2666 3549
466 2666 3549
0 0 0
0 0 17
0 0 107
0 27 201
0 70 365
0 150 543
0 265 798
0 424 1138
0 626 1589
0 868 2088
38 1058 2473
85 1182 2718
117 1241 2814
129 1253 2826
129 1253 2826
129 1253 2826
129 1253 2826
0 29 0
12 13 32
0 0 77
0 11 197
0 56 339
1 130 529
1 259 791
0 415 1113
0 609 1553
0 837 2044
28 1032 2436
85 1171 2709
117 1241 2814
129 1253 2826
129 1253 2826
129 1253 2826
129 1253 2826
0 92 0
0 90 17
0 58 115
0 85 239
0 118 394
0 153 560
0 251 787
0 408 1105
0 596 1537
0 836 2035
28 1032 2458
85 1171 2718
117 1241 2814
129 1253 2826
129 1253 2826
129 1253 2826
129 1253 2826
0 230 31
0 215 18
0 223 124
0 188 272
0 170 402
0 222 592
0 312 839
0 448 1144
0 602 1542
0 836 2034
28 1032 2446
85 1171 2705
117 1241 2805
129 1253 2826
129 1253 2826
129 1253 2826
129 1253 2826
0 424 45
0 424 44
0 414 100
0 422 315
0 343 454
0 336 601
0 403 847
0 521 1180
0 710 1620
0 908 2077
36 1078 2452
85 1181 2702
114 1241 2799
117 1253 2814
118 1253 2816
129 1253 2826
129 1253 2826
0 583 37
0 569 46
0 579 57
0 634 313
0 633 550
0 527 686
0 532 915
0 630 1241
0 798 1672
29 1007 2161
76 1187 2545
98 1291 2770
114 1316 2837
96 1265 2805
113 1262 2812
118 1253 2826
118 1253 2826
0 813 32
0 813 32
0 813 32
0 871 223
0 986 632
0 965 898
0 789 1029
0 766 1323
7 917 1750
57 1118 2234
110 1306 2619
128 1413 2844
137 1447 2921
132 1406 2913
130 1369 2899
113 1299 2848
113 1273 2836
0 1112 57
0 1102 57
0 1102 43
0 1137 145
0 1307 575
0 1406 1027
17 1310 1333
10 1087 1475
52 1085 1847
104 1264 2336
144 1442 2717
175 1540 2929
186 1579 3014
183 1543 3012
168 1503 2979
138 1457 2944
138 1426 2929
30 1517 112
16 1502 120
8 1478 113
8 1469 133
8 1613 451
35 1830 990
107 1976 1642
124 1807 1954
105 1493 2040
136 1483 2413
176 1612 2801
198 1705 3023
214 1744 3119
224 1708 3114
216 1669 3090
192 1629 3066
179 1591 3037
101 1930 198
85 1931 191
85 1902 183
72 1890 176
62 1941 414
89 2161 914
174 2430 1703
244 2539 2420
236 2197 2538
221 1900 2635
235 1883 2935
275 1940 3147
285 1952 3242
279 1915 3239
269 1864 3222
239 1830 3191
239 1786 3162
185 2298 263
169 2282 252
164 2275 247
163 2268 237
163 2275 405
176 2417 909
216 2663 1623
322 2924 2551
355 2803 2954
332 2437 2973
321 2252 3094
322 2212 3256
330 2211 3348
331 2175 3364
326 2128 3352
307 2082 3321
301 2038 3291
283 2562 310
267 2551 308
255 2548 294
251 2538 294
251 2532 347
253 2557 797
257 2778 1470
344 3084 2410
428 3169 3155
421 2898 3274
391 2602 3274
374 2481 3354
374 2462 3440
374 2436 3462
374 2408 3459
373 2367 3435
358 2316 3420
309 2674 341
309 2674 341
309 2674 341
309 2674 341
309 2662 362
298 2607 668
291 2804 1336
346 3122 2228
438 3328 3153
470 3108 3409
448 2790 3379
422 2632 3419
422 2606 3493
422 2591 3521
422 2580 3521
421 2567 3520
405 2506 3509
321 2698 353
321 2698 353
321 2698 353
321 2698 353
321 2686 353
310 2652 447
303 2764 1140
315 3048 1940
426 3337 3023
482 3218 3417
460 2854 3408
437 2691 3463
440 2653 3524
450 2653 3536
453 2653 3536
452 2652 3536
439 2623 3536
321 2698 353
321 2698 353
321 2698 353
321 2698 353
321 2687 353
321 2673 395
311 2679 866
314 2937 1661
415 3302 2786
480 3262 3386
460 2946 3422
449 2733 3461
448 2667 3535
453 2666 3547
466 2666 3549
465 2665 3549
453 2652 3549
321 2698 353
321 2698 353
321 2698 353
321 2698 353
321 2698 353
321 2687 364
311 2658 566
306 2842 1392
378 3195 2505
472 3297 3323
460 3008 3451
445 2757 3455
434 2676 3520
453 2666 3536
466 2666 3549
466 2666 3549
466 2666 3549
321 2698 353
321 2698 353
321 2698 353
321 2698 353
321 2698 353
321 2687 353
311 2682 444
305 2760 1138
347 3108 2161
455 3332 3224
479 3077 3443
459 2783 3444
434 2676 3510
453 2666 3536
466 2666 3549
466 2666 3549
466 2666 3549
175 29 13
158 29 0
101 29 90
21 58 197
0 101 352
0 164 528
0 265 783
0 424 1107
0 618 1554
6 852 2048
38 1048 2462
85 1171 2718
117 1241 2814
129 1253 2826
129 1253 2826
129 1253 2826
129 1253 2826
158 32 0
161 29 3
75 40 101
7 55 199
0 98 349
0 163 527
0 277 783
0 427 1105
0 617 1551
0 852 2062
36 1047 2457
85 1171 2718
117 1241 2814
129 1253 2826
129 1253 2826
129 1253 2826
