assets/luts/LUTs by IWLTBAP (3DL)/03 - V-Log/F-8700-V2-VLOG.3dl
# Copyright: (C) Copyright 2010-2020 by IWLTBAP SAS
# Cannot be resold, shared or otherwise redistributed
# Website: https://luts.iwltbap.com
0 256 512 768 1023
0 0 0
0 56 381
0 610 1598
117 1241 2814
129 1253 2826
0 410 48
0 352 458
0 719 1654
114 1241 2811
129 1253 2826
32 1526 129
22 1666 500
120 1485 2084
219 1758 3135
185 1598 3035
309 2674 341
309 2662 362
450 3332 3162
422 2606 3493
393 2525 3509
321 2698 353
321 2698 353
361 3164 2337
434 2678 3521
466 2666 3549
446 88 4
171 133 325
0 630 1477
114 1241 2805
129 1253 2826
495 405 0
153 429 460
4 731 1654
104 1241 2802
129 1253 2826
289 1618 92
140 1631 332
104 1470 2008
215 1722 3106
177 1570 3023
372 2683 329
333 2671 350
429 3321 3097
409 2592 3481
405 2505 3509
321 2698 353
321 2698 353
333 3079 2084
434 2666 3509
466 2666 3549
2433 377 72
2330 434 267
1220 755 1132
343 1321 2606
249 1309 2714
2573 600 62
2476 558 177
1123 766 1151
339 1317 2610
249 1309 2712
3051 1803 124
2983 1726 124
1700 2192 2190
526 2006 3396
301 1678 3176
2943 3461 295
2819 3421 288
1945 3523 2132
657 2832 3672
486 2585 3589
2248 3236 289
2154 3204 257
1361 3320 1385
542 2804 3569
474 2682 3565
3718 727 229
3718 727 229
3565 1329 1168
3157 1836 2248
2971 1839 2357
3727 748 217
3718 739 216
3573 1309 1114
3145 1823 2208
2947 1839 2366
4059 2017 133
4057 1931 116
3975 2507 1732
3492 2497 2977
3063 2118 2716
4076 3497 422
4076 3478 422
4067 3674 813
3948 3925 3716
3747 3815 3842
4059 3633 462
4056 3633 462
4051 3742 630
3835 4032 3607
3429 3918 3926
3742 739 241
3742 739 241
3701 1188 803
3272 1815 2152
3244 1911 2361
3742 739 241
3742 739 241
3736 1160 773
3272 1815 2151
3244 1911 2361
4039 1606 72
4009 1562 66
4011 1770 719
3449 2128 2497
3268 1951 2409
4079 3380 422
4079 3352 418
4085 3434 564
4063 3843 3584
4007 3670 3766
4095 3581 434
4095 3581 434
4095 3589 458
4079 4003 3171
4079 4095 3870
