assets/luts/LUTs by IWLTBAP (3DL)/03 - V-Log/F-8700-V2-VLOG.3dl
# Copyright: (C) Copyright 2010-2020 by IWLTBAP SAS
# Cannot be resold, shared or otherwise redistributed
# Website: https://luts.iwltbap.com
0 128 256 384 512 640 768 896 1023
0 0 0
14 0 92
0 56 381
0 265 813
0 610 1598
38 1058 2475
117 1241 2814
129 1253 2826
129 1253 2826
0 74 14
0 46 123
0 100 396
0 265 797
0 610 1552
28 1042 2445
117 1241 2814
129 1253 2826
129 1253 2826
0 410 48
0 418 173
0 352 458
0 434 901
0 719 1654
50 1104 2479
114 1241 2811
118 1253 2816
129 1253 2826
0 829 48
0 818 43
0 1027 679
0 818 1059
13 920 1766
113 1323 2630
137 1447 2931
139 1369 2885
129 1273 2836
32 1526 129
16 1486 120
22 1666 500
108 1983 1708
120 1485 2084
183 1627 2816
219 1758 3135
223 1690 3111
185 1598 3035
179 2314 263
185 2308 263
179 2300 423
215 2671 1638
355 2836 2983
323 2262 3109
343 2218 3346
317 2138 3362
285 2036 3284
309 2674 341
309 2674 341
309 2662 362
285 2828 1367
450 3332 3162
445 2794 3393
422 2606 3493
422 2580 3521
393 2525 3509
321 2698 353
321 2698 353
321 2687 353
311 2693 923
422 3313 2842
476 2915 3421
453 2666 3535
466 2666 3549
466 2666 3549
321 2698 353
321 2698 353
321 2698 353
311 2692 464
361 3164 2337
460 3033 3427
434 2678 3521
466 2666 3549
466 2666 3549
0 0 0
0 0 107
0 70 365
0 265 798
0 626 1589
38 1058 2473
117 1241 2814
129 1253 2826
129 1253 2826
0 92 0
0 58 115
0 118 394
0 251 787
0 596 1537
28 1032 2458
117 1241 2814
129 1253 2826
129 1253 2826
0 424 45
0 414 100
0 343 454
0 403 847
0 710 1620
36 1078 2452
114 1241 2799
118 1253 2816
129 1253 2826
0 813 32
0 813 32
0 986 632
0 789 1029
7 917 1750
110 1306 2619
137 1447 2921
130 1369 2899
113 1273 2836
30 1517 112
8 1478 113
8 1613 451
107 1976 1642
105 1493 2040
176 1612 2801
214 1744 3119
216 1669 3090
179 1591 3037
185 2298 263
164 2275 247
163 2275 405
216 2663 1623
355 2803 2954
321 2252 3094
330 2211 3348
326 2128 3352
301 2038 3291
309 2674 341
309 2674 341
309 2662 362
291 2804 1336
438 3328 3153
448 2790 3379
422 2606 3493
422 2580 3521
405 2506 3509
321 2698 353
321 2698 353
321 2687 353
311 2679 866
415 3302 2786
460 2946 3422
448 2667 3535
466 2666 3549
453 2652 3549
321 2698 353
321 2698 353
321 2698 353
311 2682 444
347 3108 2161
479 3077 3443
434 2676 3510
466 2666 3549
466 2666 3549
446 88 4
369 88 78
171 133 325
4 293 769
0 630 1477
66 1055 2425
114 1241 2805
118 1253 2826
129 1253 2826
474 152 0
382 136 78
123 152 329
0 289 760
0 615 1490
37 1044 2423
117 1241 2802
129 1253 2826
129 1253 2826
495 405 0
459 405 8
153 429 460
3 473 926
4 731 1654
37 1054 2430
104 1241 2802
126 1253 2826
129 1253 2826
338 967 4
268 925 4
97 969 429
20 859 1062
21 931 1742
96 1291 2591
139 1436 2922
113 1357 2887
113 1265 2836
289 1618 92
266 1600 89
140 1631 332
128 1929 1527
104 1470 2008
175 1594 2788
215 1722 3106
200 1652 3082
177 1570 3023
434 2408 231
369 2350 225
232 2302 286
217 2600 1480
342 2817 2934
306 2226 3068
326 2188 3334
309 2100 3335
288 2001 3286
372 2683 329
351 2683 329
333 2671 350
302 2782 1266
429 3321 3097
448 2790 3364
409 2592 3481
420 2567 3521
405 2505 3509
321 2698 353
321 2698 343
321 2698 353
306 2646 793
393 3273 2701
470 2954 3420
450 2666 3524
466 2666 3549
452 2652 3549
321 2698 353
321 2698 353
321 2698 353
311 2682 434
333 3079 2084
464 3091 3427
434 2666 3509
466 2666 3549
466 2666 3549
1279 191 10
1198 186 5
977 248 302
491 381 684
120 655 1383
171 1070 2322
201 1271 2760
163 1279 2800
129 1253 2816
1276 187 0
1225 186 0
963 248 287
487 361 652
120 634 1361
162 1048 2296
193 1257 2748
153 1264 2786
129 1253 2816
1407 419 0
1388 399 0
1128 506 354
498 533 792
120 714 1471
161 1055 2323
177 1264 2749
153 1273 2798
129 1253 2816
1625 841 0
1570 817 1
1307 907 188
595 1005 1046
221 1081 1913
232 1391 2743
223 1499 3000
153 1342 2879
123 1263 2816
1554 1950 82
1568 1902 69
1300 1865 136
561 1962 1048
306 1714 2171
284 1720 2913
281 1793 3186
209 1644 3091
177 1550 3016
1678 2758 189
1636 2729 188
1534 2700 209
800 2780 1065
482 2928 2870
393 2334 3149
359 2225 3378
315 2103 3340
285 1975 3270
1655 3042 261
1593 3013 267
1513 2985 267
980 3078 910
534 3329 2856
477 2872 3409
429 2592 3487
420 2566 3520
405 2505 3509
1177 2919 286
1184 2917 281
1027 2890 285
619 2850 620
424 3235 2520
486 2999 3440
448 2674 3522
466 2665 3549
452 2652 3549
468 2728 327
462 2728 327
442 2721 327
405 2702 387
336 3006 1834
476 3127 3420
434 2685 3493
466 2666 3549
466 2666 3549
2433 377 72
2394 353 56
2330 434 267
1951 550 606
1220 755 1132
461 1122 2097
343 1321 2606
318 1317 2698
249 1309 2714
2440 369 57
2369 360 50
2251 396 229
1902 535 587
1085 747 1169
441 1113 2108
343 1314 2626
302 1309 2682
251 1309 2707
2573 600 62
2539 572 49
2476 558 177
2011 690 648
1123 766 1151
424 1106 2104
339 1317 2610
297 1311 2692
249 1309 2712
2887 950 82
2797 914 69
2763 939 116
2424 1200 795
1376 1311 1640
561 1471 2566
368 1520 2924
286 1343 2758
233 1295 2736
3051 1803 124
3049 1752 119
2983 1726 124
2638 2007 570
1700 2192 2190
794 2052 3115
526 2006 3396
413 1849 3304
301 1678 3176
3016 3137 284
2989 3122 275
2962 3090 283
2642 3133 736
1920 3179 2291
928 2733 3379
636 2497 3581
509 2336 3555
406 2110 3405
2943 3461 295
2898 3431 284
2819 3421 288
2633 3432 729
1945 3523 2132
845 3197 3583
657 2832 3672
559 2718 3655
486 2585 3589
2657 3353 281
2596 3355 280
2562 3338 280
2421 3317 388
1722 3464 1744
746 3275 3519
593 2867 3654
540 2764 3647
489 2689 3572
2248 3236 289
2249 3236 259
2154 3204 257
1989 3155 302
1361 3320 1385
647 3315 3411
542 2804 3569
450 2682 3587
474 2682 3565
3385 586 209
3378 586 209
3396 620 231
3350 885 600
2999 1080 1074
2464 1361 1641
1827 1674 2473
1338 1656 2595
881 1520 2648
3416 586 209
3374 586 209
3369 594 210
3358 864 554
2979 1070 1050
2449 1340 1626
1787 1666 2468
1271 1644 2614
851 1520 2648
3442 732 133
3444 696 141
3388 638 190
3348 866 536
2969 1058 1055
2361 1330 1620
1671 1667 2494
1233 1627 2625
832 1508 2648
3710 1258 64
3694 1228 65
3674 1202 68
3652 1418 518
3221 1663 1493
2575 1695 2009
1701 1799 2654
1169 1645 2674
731 1467 2660
3872 1903 118
3865 1876 118
3834 1840 100
3763 2200 507
3532 2549 2026
2985 2553 2850
2307 2498 3325
1606 2233 3257
900 1831 3065
3896 3027 335
3871 3014 322
3870 2960 311
3834 3109 493
3700 3344 1501
3342 3438 3267
2838 3288 3736
2262 3040 3748
1414 2628 3652
3838 3696 451
3825 3679 450
3796 3683 431
3784 3690 476
3655 3805 1503
3231 3837 3210
2608 3581 3842
1958 3320 3860
1384 3084 3796
3694 3720 419
3722 3720 430
3681 3719 418
3633 3710 440
3523 3810 1317
2986 3864 3078
1968 3496 3855
1456 3257 3883
1158 3130 3844
3591 3685 419
3577 3677 411
3533 3671 405
3471 3653 403
3296 3703 1041
2706 3790 2831
1382 3344 3789
1098 3129 3839
911 3043 3804
3718 727 229
3718 727 229
3718 727 229
3780 954 449
3565 1329 1168
3344 1538 1646
3157 1836 2248
3050 1871 2344
2971 1839 2357
3718 727 229
3718 727 229
3718 727 226
3780 950 405
3571 1313 1130
3328 1521 1613
3157 1827 2248
3048 1881 2355
2960 1839 2353
3727 748 217
3719 740 217
3718 739 216
3788 933 367
3573 1309 1114
3332 1502 1570
3145 1823 2208
3028 1869 2344
2947 1839 2366
3931 1299 66
3905 1285 56
3908 1253 61
3935 1325 283
3721 1656 1328
3397 1683 1774
3153 1848 2269
3030 1875 2381
2897 1839 2365
4059 2017 133
4062 1977 128
4057 1931 116
4030 2156 350
3975 2507 1732
3707 2609 2728
3492 2497 2977
3282 2319 2902
3063 2118 2716
4079 2907 323
4079 2898 313
4079 2860 316
4074 2929 411
4064 3278 1326
3976 3475 3158
3822 3408 3605
3708 3248 3623
3531 3067 3526
4076 3497 422
4078 3481 422
4076 3478 422
4072 3475 444
4067 3674 813
4042 3863 2621
3948 3925 3716
3872 3902 3840
3747 3815 3842
4069 3607 448
4067 3605 446
4067 3607 448
4068 3621 462
4066 3779 729
4030 3972 2367
3919 4044 3680
3788 4011 3870
3677 3965 3884
4059 3633 462
4059 3621 462
4056 3633 462
4057 3659 462
4051 3742 630
3983 3958 2033
3835 4032 3607
3629 3981 3896
3429 3918 3926
3742 739 241
3742 739 241
3742 739 241
3777 865 294
3616 1283 1007
3431 1481 1523
3272 1853 2219
3244 1911 2361
3244 1911 2361
3742 739 241
3742 739 241
3742 739 241
3766 852 295
3623 1281 1006
3427 1496 1531
3260 1841 2209
3244 1911 2361
3232 1899 2348
3742 739 230
3731 739 230
3742 739 241
3766 823 272
3656 1274 984
3431 1479 1513
3269 1840 2213
3244 1911 2361
3230 1897 2346
3885 1101 83
3868 1077 83
3843 1029 84
3831 993 173
3717 1328 941
3456 1520 1526
3279 1824 2188
3244 1902 2352
3230 1897 2346
4047 1833 94
4060 1787 95
4055 1757 84
4039 1781 122
4007 2195 1281
3737 2388 2414
3537 2347 2759
3406 2206 2728
3283 2012 2468
4089 2782 321
4079 2786 311
4080 2729 305
4086 2707 325
4083 3082 984
4033 3347 2913
3894 3302 3515
3819 3084 3479
3746 2895 3360
4083 3439 422
4083 3425 420
4095 3421 421
4081 3422 422
4079 3561 679
4075 3780 2277
4052 3900 3668
4049 3857 3810
4023 3770 3780
4095 3581 434
4095 3581 434
4095 3579 434
4095 3571 434
4080 3643 575
4086 3858 1590
4080 4017 3502
4075 4060 3838
4049 4049 3838
4095 3581 434
4095 3581 434
4095 3581 434
4095 3581 434
4088 3596 494
4079 3843 1191
4079 4017 3361
4049 4051 3822
4049 4065 3854
3742 739 241
3742 739 241
3742 739 241
3752 759 235
3701 1188 803
3451 1469 1431
3272 1815 2152
3244 1911 2361
3244 1911 2361
3742 739 241
3742 739 241
3742 739 241
3742 749 241
3740 1180 787
3451 1437 1410
3274 1815 2120
3244 1911 2348
3244 1911 2361
3742 739 241
3742 739 241
3742 739 241
3742 749 241
3736 1160 773
3458 1443 1415
3272 1815 2151
3244 1911 2357
3244 1911 2361
3762 799 205
3762 789 205
3762 789 205
3762 783 209
3760 1137 676
3467 1424 1377
3272 1775 2088
3244 1911 2346
3244 1911 2361
4039 1606 72
4023 1582 56
4009 1562 66
4007 1531 66
4011 1770 719
3704 2036 1940
3449 2128 2497
3283 1981 2469
3268 1951 2409
4089 2549 275
4080 2565 265
4079 2553 265
4079 2481 261
4074 2769 674
4011 3122 2597
3850 3083 3346
3758 2886 3356
3635 2668 3190
4079 3380 422
4079 3364 405
4079 3352 418
4087 3336 422
4085 3434 564
4079 3686 1797
4063 3843 3584
4021 3786 3782
4007 3670 3766
4095 3567 434
4095 3567 434
4085 3567 434
4081 3567 434
4081 3590 494
4079 3830 1190
4079 4003 3365
4079 4035 3808
4079 4049 3840
4095 3581 434
4095 3581 434
4095 3581 434
4095 3581 434
4095 3589 458
4079 3814 972
4079 4003 3171
4093 4065 3778
4079 4095 3870
