assets/luts/LUTs by IWLTBAP (3DL)/03 - V-Log/F-8700-VLOG.3dl
# Copyright: (C) Copyright 2010-2020 by IWLTBAP SAS
# Cannot be resold, shared or otherwise redistributed
# Website: https://luts.iwltbap.com
0 256 512 768 1023
257 321 369
241 430 658
329 835 1582
450 1321 2606
450 1333 2618
301 674 418
276 629 707
363 915 1646
450 1321 2606
450 1333 2618
402 1526 474
369 1654 735
458 1514 1975
538 1726 2870
506 1598 2802
598 2477 630
598 2465 642
690 3041 2889
678 2414 3172
678 2360 3184
610 2489 643
610 2489 643
634 2899 2200
706 2489 3200
706 2489 3228
695 442 369
498 474 602
369 819 1506
450 1321 2594
450 1333 2618
741 662 361
465 677 705
381 916 1634
449 1321 2594
450 1333 2618
542 1612 430
458 1614 600
442 1483 1929
522 1692 2838
490 1568 2776
640 2486 618
616 2462 627
684 3019 2849
676 2414 3172
662 2344 3167
610 2489 643
610 2489 643
602 2812 2003
690 2473 3167
706 2489 3228
2272 650 425
2200 682 554
1313 927 1221
618 1369 2417
562 1357 2529
2389 815 415
2321 777 485
1206 917 1224
612 1361 2425
562 1357 2511
2794 1755 462
2740 1682 450
1678 2076 2092
747 1925 3087
602 1666 2895
2708 3139 592
2604 3100 578
1897 3204 2022
853 2610 3308
717 2421 3240
2120 2939 578
2049 2909 570
1413 3011 1425
775 2600 3224
715 2497 3236
3344 903 546
3344 903 546
3220 1399 1234
2880 1791 2108
2738 1807 2232
3353 915 534
3344 912 534
3214 1363 1198
2870 1766 2079
2714 1807 2227
3693 1935 462
3663 1868 450
3562 2333 1698
3154 2331 2733
2808 2021 2519
3775 3158 678
3769 3156 678
3751 3319 973
3539 3526 3343
3385 3442 3469
3710 3284 702
3710 3284 702
3671 3382 811
3446 3630 3282
3107 3513 3545
3356 915 546
3356 915 546
3356 1293 980
2983 1779 2047
2955 1863 2232
3356 915 546
3356 915 546
3364 1244 931
2995 1779 2047
2955 1863 2232
3621 1606 417
3589 1566 418
3593 1718 891
3123 2045 2318
2971 1895 2272
3822 3055 678
3807 3043 678
3810 3107 799
3677 3469 3243
3605 3328 3397
3806 3228 690
3806 3228 690
3806 3236 707
3754 3585 2911
3710 3677 3485
