assets/luts/LUTs by IWLTBAP (3DL)/03 - V-Log/F-8700-VLOG.3dl
# Copyright: (C) Copyright 2010-2020 by IWLTBAP SAS
# Cannot be resold, shared or otherwise redistributed
# Website: https://luts.iwltbap.com
0 128 256 384 512 640 768 896 1023
257 321 369
257 349 446
241 430 658
257 570 980
329 835 1582
407 1164 2302
450 1321 2606
450 1333 2618
450 1333 2618
271 428 397
259 417 462
257 456 658
267 560 970
321 811 1552
407 1148 2294
450 1321 2606
450 1333 2618
450 1333 2618
301 674 418
291 685 466
276 629 707
281 680 1042
363 915 1646
424 1191 2337
450 1321 2606
450 1333 2618
450 1333 2618
321 986 418
300 984 416
327 1151 890
337 977 1161
377 1066 1725
450 1359 2419
476 1485 2704
460 1418 2678
450 1343 2628
402 1526 474
385 1526 466
369 1654 735
441 1903 1684
458 1514 1975
496 1608 2586
538 1726 2870
538 1652 2847
506 1598 2802
510 2190 568
510 2176 568
494 2159 664
524 2461 1636
638 2619 2746
606 2127 2830
616 2126 3051
600 2035 3035
590 1953 2995
598 2477 630
598 2477 630
598 2465 642
582 2599 1417
690 3041 2889
686 2592 3071
678 2414 3172
678 2403 3200
678 2360 3184
610 2489 643
610 2489 643
610 2478 643
578 2485 1059
688 3016 2629
715 2685 3098
690 2473 3200
706 2489 3228
706 2489 3228
610 2489 643
610 2489 643
610 2489 643
584 2483 713
634 2899 2200
706 2782 3105
706 2489 3200
706 2489 3228
706 2489 3228
347 367 399
291 381 446
277 440 642
257 570 971
329 827 1575
407 1163 2316
450 1321 2606
450 1333 2618
450 1333 2618
321 431 399
289 412 458
260 458 656
281 560 955
321 811 1553
407 1148 2292
450 1321 2606
450 1333 2618
450 1333 2618
319 678 414
305 662 437
286 620 703
273 664 1018
341 895 1616
407 1170 2294
447 1321 2594
440 1333 2618
450 1333 2618
321 986 418
306 986 418
310 1108 830
316 951 1133
364 1051 1722
448 1355 2413
476 1471 2702
469 1417 2668
450 1343 2628
393 1526 452
377 1502 451
360 1614 682
442 1904 1652
450 1510 1959
489 1603 2577
524 1696 2866
522 1644 2834
506 1584 2788
510 2181 552
494 2158 552
484 2134 634
514 2462 1616
622 2599 2707
598 2131 2821
600 2104 3047
598 2035 3035
584 1944 2997
598 2477 630
598 2468 630
598 2453 644
568 2577 1380
689 3039 2906
672 2572 3072
675 2414 3155
678 2403 3199
662 2344 3167
610 2489 643
610 2489 643
609 2478 643
594 2477 1019
680 2998 2573
706 2701 3102
690 2473 3199
706 2489 3228
692 2475 3228
610 2489 643
610 2489 643
610 2489 643
584 2473 703
610 2835 2042
715 2818 3119
694 2487 3167
706 2489 3228
706 2489 3228
695 442 369
660 446 435
498 474 602
354 588 941
369 819 1506
407 1148 2264
450 1321 2594
450 1333 2618
450 1333 2618
721 476 385
647 474 418
461 489 618
345 588 936
357 824 1514
409 1148 2265
450 1321 2594
450 1333 2618
450 1333 2618
741 662 361
710 650 379
465 677 705
358 709 1062
381 916 1634
401 1159 2261
449 1321 2594
447 1333 2618
450 1333 2618
615 1098 363
549 1074 369
432 1090 677
377 1015 1163
389 1057 1721
434 1343 2403
472 1466 2696
459 1396 2652
450 1343 2620
542 1612 430
520 1588 424
458 1614 600
457 1873 1539
442 1483 1929
492 1592 2565
522 1692 2838
522 1632 2802
490 1568 2776
639 2260 530
595 2217 538
547 2165 575
519 2411 1497
626 2603 2689
602 2108 2802
600 2086 3042
593 2022 3036
586 1927 2979
640 2486 618
631 2474 618
616 2462 627
578 2576 1337
684 3019 2849
674 2580 3064
676 2414 3172
678 2391 3198
662 2344 3167
610 2489 632
610 2489 632
610 2489 643
597 2455 940
661 2964 2495
706 2709 3100
690 2473 3187
706 2489 3228
692 2475 3228
610 2489 643
610 2489 643
610 2489 643
584 2473 703
602 2812 2003
717 2830 3127
690 2473 3167
706 2489 3228
706 2489 3228
1345 508 343
1276 517 373
1115 548 606
722 647 875
469 843 1425
492 1174 2180
520 1344 2535
486 1342 2578
450 1333 2608
1333 513 343
1298 508 353
1080 546 566
727 624 853
458 843 1408
492 1160 2162
500 1334 2527
484 1332 2578
450 1319 2594
1431 660 349
1417 660 353
1224 736 629
734 766 955
459 900 1512
477 1172 2178
499 1330 2537
484 1339 2578
450 1317 2592
1610 983 351
1574 964 348
1378 1027 490
812 1114 1148
530 1184 1862
534 1452 2530
525 1520 2755
486 1391 2666
450 1337 2608
1579 1876 436
1566 1835 422
1367 1803 456
779 1884 1166
578 1682 2075
571 1692 2661
572 1758 2913
520 1637 2841
498 1550 2754
1666 2546 520
1611 2524 494
1549 2501 516
944 2557 1160
734 2691 2645
645 2194 2879
627 2110 3063
596 1998 3019
584 1905 2969
1643 2785 558
1596 2771 564
1531 2740 566
1121 2820 1057
762 3031 2649
715 2637 3089
683 2414 3155
677 2387 3189
652 2335 3157
1261 2670 582
1280 2668 574
1163 2654 568
817 2616 837
679 2955 2356
717 2750 3109
692 2474 3182
705 2488 3228
692 2475 3219
721 2519 616
710 2519 616
701 2509 616
668 2497 663
615 2760 1804
723 2869 3115
694 2489 3167
706 2489 3228
706 2489 3228
2272 650 425
2240 634 433
2200 682 554
1865 783 813
1313 927 1221
703 1217 2001
618 1369 2417
594 1380 2483
562 1357 2529
2286 643 425
2232 618 420
2126 667 540
1836 763 800
1190 924 1248
692 1204 2009
619 1362 2434
592 1373 2481
562 1357 2513
2389 815 415
2359 785 411
2321 777 485
1930 862 857
1206 917 1224
681 1188 2001
612 1361 2425
578 1361 2489
562 1357 2511
2665 1078 426
2576 1054 430
2568 1069 442
2285 1278 972
1421 1366 1630
767 1494 2375
639 1529 2683
576 1398 2544
546 1362 2533
2794 1755 462
2792 1700 450
2740 1682 450
2449 1920 783
1678 2076 2092
960 1958 2846
747 1925 3087
663 1798 3007
602 1666 2895
2762 2873 573
2732 2857 565
2707 2826 577
2444 2856 921
1871 2894 2163
1071 2523 3067
823 2328 3245
750 2204 3204
656 2012 3085
2708 3139 592
2668 3107 571
2604 3100 578
2435 3109 927
1897 3204 2022
993 2927 3233
853 2610 3308
784 2505 3287
717 2421 3240
2443 3057 585
2419 3043 585
2392 3031 585
2265 3007 657
1719 3141 1718
931 2975 3194
821 2626 3278
759 2564 3296
722 2497 3243
2120 2939 578
2122 2940 571
2049 2909 570
1906 2883 590
1413 3011 1425
846 3019 3099
775 2600 3224
715 2489 3258
715 2497 3236
3073 799 520
3066 790 520
3071 811 542
3059 1032 807
2746 1183 1183
2307 1413 1613
1771 1652 2302
1389 1650 2420
1010 1514 2455
3098 790 520
3062 789 520
3058 796 527
3050 1017 783
2738 1173 1150
2292 1388 1598
1743 1644 2310
1322 1632 2421
980 1514 2454
3139 913 476
3117 891 490
3091 835 504
3046 1012 776
2711 1165 1161
2233 1377 1600
1667 1650 2339
1298 1620 2440
961 1509 2453
3354 1315 418
3349 1298 418
3321 1287 422
3300 1439 743
2939 1643 1503
2400 1675 1914
1675 1756 2467
1252 1641 2482
904 1481 2449
3489 1844 456
3482 1818 458
3447 1790 455
3396 2083 735
3196 2364 1944
2740 2369 2633
2179 2350 3026
1586 2106 2980
1029 1788 2798
3511 2774 610
3489 2749 596
3484 2714 594
3445 2840 727
3345 3042 1503
3035 3112 2977
2615 2986 3354
2161 2788 3380
1402 2417 3279
3455 3342 708
3453 3338 707
3421 3316 692
3401 3338 730
3306 3437 1520
2953 3454 2941
2444 3243 3452
1892 3013 3483
1388 2806 3427
3359 3367 703
3359 3366 693
3347 3360 689
3287 3335 682
3171 3420 1369
2758 3481 2809
1893 3172 3475
1444 2951 3463
1241 2860 3455
3242 3332 686
3228 3326 670
3207 3316 670
3164 3306 660
3018 3343 1173
2509 3437 2612
1410 3025 3420
1214 2854 3460
1042 2758 3429
3344 903 546
3344 903 546
3344 903 546
3421 1090 690
3220 1399 1234
3025 1556 1635
2880 1791 2108
2817 1833 2220
2738 1807 2232
3344 903 546
3344 903 546
3344 903 546
3423 1076 658
3220 1379 1214
3015 1528 1601
2870 1788 2120
2815 1833 2221
2727 1807 2223
3353 915 534
3344 913 534
3344 912 534
3417 1066 631
3214 1363 1198
3037 1512 1566
2870 1766 2079
2792 1810 2217
2714 1807 2227
3545 1358 419
3524 1335 417
3505 1317 407
3543 1366 575
3358 1635 1386
3084 1667 1723
2865 1814 2143
2771 1815 2234
2650 1787 2224
3693 1935 462
3680 1906 466
3663 1868 450
3639 2043 616
3562 2333 1698
3352 2433 2519
3154 2331 2733
2990 2182 2670
2808 2021 2519
3768 2677 606
3769 2650 594
3756 2625 589
3726 2684 670
3694 2986 1385
3567 3150 2879
3441 3081 3256
3344 2951 3266
3207 2800 3209
3775 3158 678
3777 3156 678
3769 3156 678
3763 3151 681
3751 3319 973
3686 3479 2443
3539 3526 3343
3471 3500 3458
3385 3442 3469
3752 3270 692
3752 3252 690
3752 3270 692
3720 3284 702
3719 3402 921
3637 3579 2233
3514 3628 3315
3417 3604 3481
3329 3577 3485
3710 3284 702
3710 3284 702
3710 3284 702
3677 3306 702
3671 3382 811
3595 3550 1971
3446 3630 3282
3280 3595 3511
3107 3513 3545
3356 915 546
3356 915 546
3356 915 546
3407 1002 590
3294 1340 1137
3094 1508 1536
2983 1805 2118
2955 1863 2232
2955 1863 2232
3356 915 546
3356 915 546
3356 915 546
3393 1001 585
3284 1346 1133
3114 1509 1546
2983 1792 2104
2955 1863 2232
2942 1851 2220
3356 915 535
3356 915 535
3356 915 546
3380 977 567
3306 1331 1104
3099 1485 1505
2983 1801 2103
2955 1863 2232
2941 1849 2218
3499 1196 430
3499 1185 430
3472 1157 438
3461 1105 482
3357 1379 1079
3140 1529 1537
2983 1790 2074
2955 1863 2223
2941 1849 2218
3659 1785 434
3664 1761 440
3658 1741 433
3631 1743 470
3595 2082 1331
3366 2223 2256
3186 2226 2564
3092 2103 2520
3001 1932 2309
3780 2577 606
3792 2562 589
3768 2525 589
3763 2497 604
3728 2819 1107
3622 3034 2695
3504 3005 3180
3447 2819 3147
3383 2646 3049
3806 3113 680
3806 3100 679
3809 3089 678
3806 3085 686
3818 3220 879
3785 3397 2166
3661 3510 3317
3633 3483 3425
3617 3398 3407
3806 3228 690
3806 3228 690
3806 3226 690
3806 3226 690
3828 3282 805
3819 3472 1600
3708 3603 3175
3665 3644 3451
3663 3631 3454
3806 3228 690
3806 3228 690
3806 3228 690
3806 3228 690
3813 3251 721
3824 3455 1248
3738 3615 3076
3677 3660 3439
3649 3647 3469
3356 915 546
3356 915 546
3356 915 546
3356 925 546
3356 1293 980
3145 1485 1467
2983 1779 2047
2955 1863 2232
2955 1863 2232
3356 915 546
3356 915 546
3356 915 546
3356 925 546
3363 1269 947
3131 1453 1445
2983 1767 2032
2955 1863 2220
2955 1863 2232
3356 915 546
3356 915 546
3356 915 546
3356 925 546
3364 1244 931
3129 1469 1451
2995 1779 2047
2955 1863 2229
2955 1863 2232
3376 955 510
3376 955 510
3376 955 510
3376 949 520
3396 1238 884
3129 1453 1403
2971 1740 1993
2955 1863 2218
2955 1863 2232
3621 1606 417
3614 1583 419
3589 1566 418
3605 1539 423
3593 1718 891
3334 1971 1891
3123 2045 2318
2986 1918 2317
2971 1895 2272
3764 2371 564
3770 2388 563
3758 2387 552
3750 2319 548
3714 2561 875
3616 2836 2438
3463 2828 3049
3383 2646 3050
3302 2473 2905
3822 3055 678
3810 3054 680
3807 3043 678
3808 3027 678
3810 3107 799
3798 3326 1765
3677 3469 3243
3621 3425 3409
3605 3328 3397
3806 3214 690
3806 3214 690
3806 3214 690
3806 3214 690
3813 3244 722
3831 3455 1236
3722 3587 3068
3679 3633 3439
3677 3631 3452
3806 3228 690
3806 3228 690
3806 3228 690
3806 3228 690
3806 3236 707
3838 3439 1102
3754 3585 2911
3694 3647 3439
3710 3677 3485
