assets/luts/LUTs by IWLTBAP (3DL)/03 - V-Log/H-9110-VLOG.3dl
# Copyright: (C) Copyright 2010-2020 by IWLTBAP SAS
# Cannot be resold, shared or otherwise redistributed
# Website: https://luts.iwltbap.com
0 128 256 384 512 640 768 896 1023
0 0 0
0 14 353
12 0 1028
32 0 1590
32 0 2722
42 0 3680
36 0 4039
48 0 4063
48 0 4063
233 92 0
38 154 247
12 92 969
16 5 1555
32 0 2692
42 0 3649
36 0 4039
48 0 4063
48 0 4063
763 337 0
623 393 3
138 535 622
20 379 1699
24 255 2676
47 108 3653
36 9 4036
48 0 4052
48 0 4063
1562 733 0
1526 706 0
1247 1003 146
401 1217 1287
19 803 2720
48 664 3605
48 500 4029
50 280 4031
48 50 4037
2642 1477 48
2597 1470 33
2519 1413 2
2005 2130 548
538 1995 2321
21 1518 3582
48 1329 4027
40 1110 4033
48 859 4047
3292 3473 327
3292 3468 332
3248 3353 287
3261 2900 179
2187 3329 1429
667 2838 3357
9 2269 3964
0 2098 4029
0 1907 4005
3601 3842 369
3601 3842 369
3580 3833 357
3490 3822 299
3142 3790 970
1926 3907 2652
721 3279 3978
259 2865 4015
157 2738 4003
3613 3854 369
3613 3854 369
3613 3854 369
3523 3854 329
3560 3429 365
2093 3962 2404
1068 3585 3976
643 3228 4063
643 3228 4063
3613 3854 369
3613 3854 369
3613 3854 369
3593 3854 359
3412 3846 450
2200 3940 2081
1345 3778 3886
643 3228 4063
643 3228 4063
247 0 14
201 0 236
143 0 832
35 0 1570
32 0 2721
42 0 3684
36 0 4051
48 0 4063
48 0 4063
269 90 0
185 133 170
52 82 885
17 1 1535
32 0 2686
42 0 3652
36 0 4039
48 0 4063
48 0 4063
753 289 0
651 336 3
159 520 575
18 355 1627
32 246 2644
32 83 3621
36 9 4027
48 0 4052
48 0 4063
1552 687 0
1516 685 0
1195 905 109
338 1138 1295
19 781 2724
35 644 3605
48 476 4019
50 263 4031
48 40 4047
2635 1468 31
2579 1423 18
2471 1342 0
2140 2036 485
651 2112 2309
8 1490 3582
40 1297 3997
43 1080 4017
56 829 4039
3287 3455 326
3260 3404 310
3216 3293 275
3253 2877 167
2158 3275 1421
650 2807 3326
5 2251 3964
0 2083 4013
0 1922 3999
3600 3842 368
3589 3833 357
3581 3830 357
3488 3823 297
3007 3807 982
1902 3915 2675
718 3276 3978
259 2855 4013
109 2730 3997
3613 3854 369
3613 3854 369
3612 3853 369
3563 3854 344
3557 3490 386
2120 3962 2329
1157 3647 3951
643 3228 4063
628 3214 4049
3613 3854 369
3613 3854 369
3613 3854 369
3593 3854 359
3355 3878 386
2264 3940 1973
1388 3806 3848
643 3228 4063
643 3228 4063
739 0 44
689 0 152
655 13 617
566 6 1502
448 6 2674
216 0 3625
66 0 4039
48 0 4063
48 0 4063
735 38 59
646 62 128
596 23 616
536 6 1475
399 6 2658
171 0 3632
54 0 4036
48 0 4052
48 0 4063
837 314 6
803 309 18
580 511 557
235 378 1516
306 277 2605
103 49 3593
54 0 4024
48 0 4060
48 0 4063
1640 661 0
1586 634 0
1331 749 83
541 1116 1192
42 756 2643
68 613 3566
60 458 4011
48 223 4047
48 40 4051
2634 1365 10
2593 1344 10
2509 1301 0
2095 1845 371
613 2014 2258
9 1471 3582
42 1258 3999
48 1048 4002
62 799 4045
3266 3369 283
3255 3347 285
3212 3266 273
3220 2860 166
2200 3237 1329
775 2894 3284
8 2224 3973
0 2029 4001
0 1863 4003
3601 3842 369
3589 3827 357
3580 3829 357
3480 3822 315
3272 3732 897
1906 3891 2639
705 3265 3985
251 2857 4003
108 2721 3999
3613 3854 369
3613 3854 369
3613 3854 369
3563 3853 345
3544 3573 404
2132 3956 2291
1161 3651 3950
643 3228 4063
628 3214 4049
3613 3854 369
3613 3854 369
3613 3854 369
3589 3842 359
3356 3866 373
2294 3933 1948
1377 3806 3855
643 3228 4063
643 3228 4063
1562 0 106
1518 0 128
1463 0 594
1359 10 1385
1239 29 2586
1058 40 3621
775 30 4019
490 26 4033
118 0 4063
1535 0 98
1492 0 106
1411 0 546
1327 12 1315
1208 25 2549
1014 26 3584
749 19 4014
453 9 4047
110 0 4039
1477 245 109
1478 217 102
1357 405 528
1245 362 1264
1149 214 2527
951 53 3567
699 26 4007
386 9 4047
108 0 4044
1748 668 52
1722 656 40
1569 778 291
1202 1067 1147
539 823 2558
762 740 3533
613 529 4007
312 193 4040
92 30 4040
2857 1197 0
2812 1164 0
2723 1148 4
2316 1453 300
1044 2053 2167
60 1445 3534
125 1227 3978
112 1025 4025
86 737 4031
3397 2932 221
3408 2963 237
3373 2922 225
3266 2431 65
2356 3101 1290
891 2829 3233
38 2216 3950
0 2001 3992
0 1823 3999
3728 3762 394
3724 3767 372
3683 3766 365
3605 3786 344
3438 3390 626
1976 3884 2538
765 3285 3935
233 2853 3993
98 2708 3991
3682 3835 379
3668 3821 378
3671 3834 378
3611 3841 354
3573 3708 469
2166 3956 2204
1192 3677 3927
641 3227 4062
628 3214 4049
3623 3854 369
3623 3854 369
3623 3854 369
3597 3838 359
3449 3851 366
2456 3904 1839
1465 3874 3822
656 3242 4063
643 3228 4063
2730 0 185
2692 0 169
2670 0 538
2598 0 1224
2497 32 2409
2318 64 3529
2013 56 4013
1731 56 4033
1301 40 4047
2738 0 185
2675 0 169
2601 0 494
2553 5 1225
2427 32 2429
2264 56 3531
2003 55 4008
1659 47 4031
1304 40 4047
2650 74 163
2633 62 155
2579 164 431
2489 191 1174
2388 71 2363
2225 63 3501
1975 54 3999
1626 54 4032
1255 40 4039
2678 591 294
2611 588 293
2584 646 413
2418 959 1106
2251 893 2265
2103 711 3464
1858 482 3999
1526 153 4034
1107 60 4031
2983 1281 112
2961 1258 108
2898 1259 130
2718 1550 779
2202 2021 2118
1048 1599 3556
948 1359 3993
1201 1229 4015
911 823 4031
3711 1796 0
3695 1817 0
3686 1769 0
3730 1761 130
3237 2514 1291
1799 3004 3176
435 2280 3941
106 1988 4033
38 1761 4026
3764 2694 26
3756 2722 26
3753 2778 32
3742 2756 51
3696 2541 420
2486 3827 2494
1488 3420 3882
814 2950 3968
421 2752 3982
3782 3005 65
3796 3050 60
3793 3111 69
3789 3227 116
3761 3050 227
2588 3844 2097
1700 3847 3830
907 3303 4047
737 3267 4041
3782 3413 225
3790 3388 217
3782 3461 257
3785 3577 304
3714 3569 309
2645 3735 1642
1704 3959 3709
741 3279 4047
674 3236 4055
3680 0 247
3682 0 247
3657 0 378
3601 0 1134
3547 40 2274
3459 48 3437
3354 73 3986
3143 72 4016
2885 70 4041
3704 0 247
3670 0 247
3633 0 342
3587 0 1098
3529 35 2232
3451 42 3421
3338 64 3978
3092 72 4031
2860 80 4030
3625 7 247
3633 0 235
3607 0 324
3563 19 1055
3493 49 2204
3416 48 3406
3288 71 3978
3068 72 4031
2850 80 4025
3611 388 247
3587 358 247
3581 348 272
3522 656 966
3448 727 2122
3360 493 3340
3233 270 3960
3030 124 4034
2738 70 4031
3778 1297 631
3778 1265 620
3719 1259 626
3599 1448 966
3391 1903 2010
3252 1769 3260
3117 1496 3945
2896 1165 4030
2608 767 4020
3972 1846 77
3956 1838 77
3933 1823 86
3890 1965 355
3699 2543 1646
3201 3042 3114
2427 2764 3967
2011 2437 4043
1568 2066 4041
4039 2190 0
4034 2180 0
4017 2164 0
4010 2143 20
4042 2527 975
3685 3366 2547
2877 3702 3793
2342 3359 3974
1934 3166 4003
3914 2255 0
3930 2241 0
3912 2247 0
3874 2281 0
4035 2351 466
3727 3313 2166
2888 3967 3668
2363 3687 4018
2008 3579 4031
3874 2489 0
3868 2489 0
3858 2563 0
3864 2606 0
3978 2293 95
3713 3086 1705
2681 3983 3420
2022 3622 4025
1696 3517 4031
4035 0 273
4035 0 273
4035 0 294
4023 0 943
4029 48 2100
4007 58 3350
3967 51 3963
3922 60 4043
3866 60 4043
4035 0 273
4033 0 273
4035 0 285
4023 0 899
4015 37 2022
3990 51 3303
3967 51 3963
3919 60 4041
3866 60 4031
4035 0 273
4023 0 273
4017 0 282
4023 0 835
4003 24 1973
3986 59 3253
3951 48 3923
3911 60 4033
3854 60 4031
4007 208 261
4004 182 257
4007 164 260
4011 339 784
3989 432 1911
3978 244 3201
3947 95 3940
3892 77 4038
3817 48 4038
4043 1130 592
4039 1056 544
4041 1024 532
4003 1118 779
3978 1590 1793
3948 1551 3094
3909 1204 3872
3864 901 4015
3806 556 4039
4068 1948 424
4063 1926 426
4063 1902 442
4058 1931 572
4017 2419 1629
3911 2966 2998
3863 2814 3812
3827 2590 4015
3715 2250 4015
4079 2192 0
4075 2192 0
4063 2180 0
4063 2177 17
4058 2626 901
4019 3381 2690
3827 3751 3778
3610 3690 4016
3421 3509 4027
4079 2218 0
4079 2218 0
4079 2218 0
4075 2204 0
4075 2516 464
4059 3262 2287
3932 3848 3607
3630 3924 3988
3489 3868 4000
4075 2204 0
4075 2204 0
4075 2204 0
4075 2176 0
4075 2338 108
4061 3080 1862
3885 3766 3403
3477 3908 3997
3360 3882 4015
4047 0 273
4047 0 273
4047 0 273
4037 0 640
4031 8 1749
4039 64 3109
4063 48 3933
4063 48 4031
4063 48 4031
4047 0 273
4047 0 273
4047 0 273
4031 0 624
4032 8 1732
4047 63 3131
4054 48 3922
4063 48 4031
4051 48 4031
4047 0 273
4047 0 273
4047 0 273
4037 0 586
4031 8 1690
4047 64 3062
4060 48 3928
4063 48 4031
4049 48 4031
4031 39 273
4031 31 258
4031 29 269
4015 34 476
4032 85 1568
4049 109 3005
4053 56 3880
4054 48 4031
4049 48 4031
4061 856 437
4032 813 414
4031 774 399
4030 739 446
4033 1188 1517
4031 1165 2911
4032 867 3818
4031 567 3993
4048 228 4030
4063 1845 599
4078 1860 574
4066 1823 617
4069 1795 653
4046 2136 1402
4031 2718 2777
4027 2606 3776
4018 2240 3983
4041 1905 3982
4075 2192 12
4074 2191 13
4064 2190 13
4075 2190 25
4068 2478 630
4057 3261 2461
4017 3700 3719
4029 3636 3968
4015 3465 3970
4063 2248 0
4063 2248 0
4063 2248 0
4063 2248 0
4064 2439 220
4064 3197 2011
4047 3837 3560
4015 3997 4011
4001 3986 4015
4063 2248 0
4063 2248 0
4063 2248 0
4063 2248 0
4070 2294 63
4063 3024 1628
4049 3768 3413
4045 4015 3983
4003 4017 4017
4047 0 273
4047 0 273
4047 0 273
4047 0 333
4047 8 1413
4047 58 2923
4063 48 3866
4063 48 4031
4063 48 4031
4047 0 273
4047 0 273
4047 0 273
4047 0 323
4047 0 1368
4033 48 2840
4063 48 3834
4063 48 4031
4063 48 4031
4047 0 273
4047 0 273
4047 0 273
4047 0 323
4049 8 1329
4031 64 2832
4063 60 3866
4063 48 4031
4063 48 4031
4037 10 273
4033 1 264
4035 0 271
4047 0 307
4047 15 1232
4031 51 2748
4047 53 3817
4063 48 4031
4063 48 4031
4039 522 305
4031 507 298
4031 486 305
4047 442 322
4031 743 1128
4031 756 2633
4035 538 3738
4047 211 4009
4055 112 4023
4063 1680 691
4068 1696 681
4065 1684 681
4067 1612 719
4055 1790 1137
4031 2357 2473
4031 2236 3664
4031 1905 3968
4047 1495 3993
4075 2164 36
4063 2164 36
4063 2161 36
4071 2152 44
4063 2300 380
4051 3033 2085
4034 3571 3598
4031 3491 3956
4031 3304 3982
4063 2248 0
4063 2248 0
4063 2238 0
4063 2234 0
4063 2295 70
4074 3001 1586
4059 3766 3416
4032 3970 4001
4031 3986 4015
4063 2248 0
4063 2248 0
4063 2248 0
4063 2248 0
4063 2272 24
4079 2885 1241
4063 3697 3244
4061 4001 3972
4047 4047 4047
