assets/luts/LUTs by IWLTBAP (3DL)/03 - V-Log/H-9110-VLOG.3dl
# Copyright: (C) Copyright 2010-2020 by IWLTBAP SAS
# Cannot be resold, shared or otherwise redistributed
# Website: https://luts.iwltbap.com
0 64 128 192 256 320 384 448 512 576 640 704 768 832 896 960 1023
0 0 0
0 0 125
0 14 353
0 3 735
12 0 1028
27 0 1190
32 0 1590
32 0 2138
32 0 2722
39 0 3285
42 0 3680
32 0 3938
36 0 4039
48 0 4063
48 0 4063
48 0 4063
48 0 4063
93 31 0
33 45 109
0 33 324
12 18 744
16 0 1031
27 0 1190
32 0 1590
32 0 2138
32 0 2737
48 0 3300
42 0 3701
32 0 3970
36 0 4051
48 0 4063
48 0 4063
48 0 4063
48 0 4063
233 92 0
213 166 50
38 154 247
3 124 532
12 92 969
16 54 1200
16 5 1555
25 0 2092
32 0 2692
39 0 3255
42 0 3649
32 0 3927
36 0 4039
48 0 4063
48 0 4063
48 0 4063
48 0 4063
458 197 0
445 205 3
304 344 61
78 335 341
19 263 804
16 204 1256
16 158 1588
18 108 2106
25 41 2698
39 0 3240
42 0 3639
32 0 3927
36 0 4039
48 0 4063
48 0 4063
48 0 4063
48 0 4063
763 337 0
704 337 0
623 393 3
410 582 177
138 535 622
37 424 1149
20 379 1699
16 325 2140
24 255 2676
39 181 3214
47 108 3653
32 29 3927
36 9 4036
48 0 4051
48 0 4052
48 0 4063
48 0 4063
1085 500 0
1064 489 0
1008 493 0
882 677 126
506 837 402
166 732 940
44 640 1599
30 557 2219
32 490 2714
39 425 3211
48 354 3626
48 262 3916
48 160 4024
48 40 4036
48 21 4038
48 10 4052
48 0 4052
1562 733 0
1546 707 0
1526 706 0
1431 762 22
1247 1003 146
863 1255 547
401 1217 1287
66 935 2095
19 803 2720
39 733 3214
48 664 3605
48 590 3890
48 500 4029
48 378 4031
50 280 4031
58 157 4031
48 50 4037
2097 1013 9
2097 1006 9
2050 974 0
2023 1008 0
1922 1080 30
1725 1446 241
1091 1776 893
369 1525 1820
82 1258 2608
40 1136 3211
39 1063 3610
39 975 3884
48 892 4035
48 783 4047
49 671 4046
55 531 4040
48 423 4040
2642 1477 48
2642 1469 48
2597 1470 33
2566 1426 18
2519 1413 2
2383 1487 66
2005 2130 548
1288 2327 1337
538 1995 2321
115 1674 3080
21 1518 3582
18 1417 3892
48 1329 4027
40 1219 4015
40 1110 4033
40 984 4047
48 859 4047
3057 2808 244
3057 2792 244
3049 2808 244
2990 2639 202
2972 2423 111
2896 2007 41
2771 2027 160
2239 2756 831
1497 2865 1773
660 2507 2870
139 2078 3514
5 1915 3838
9 1828 3983
0 1718 4025
11 1616 4038
25 1490 4039
25 1365 4015
3292 3473 327
3292 3473 327
3292 3468 332
3263 3417 320
3248 3353 287
3207 3226 260
3261 2900 179
3078 2858 408
2187 3329 1429
1499 3319 2420
667 2838 3357
119 2413 3812
9 2269 3964
0 2180 4026
0 2098 4029
0 1989 3999
0 1907 4005
3505 3762 358
3505 3762 358
3505 3752 358
3492 3738 345
3477 3723 330
3413 3708 310
3367 3581 240
3406 3254 287
2610 3630 1234
2045 3737 2113
1500 3643 3036
664 3106 3760
159 2696 3928
38 2566 4013
25 2523 4031
25 2445 4031
15 2373 4031
3601 3842 369
3601 3842 369
3601 3842 369
3591 3842 360
3580 3833 357
3566 3830 346
3490 3822 299
3451 3766 361
3142 3790 970
2385 3888 1836
1926 3907 2652
1450 3807 3691
721 3279 3978
381 2970 4005
259 2865 4015
246 2851 4003
157 2738 4003
3613 3854 369
3613 3854 369
3613 3854 369
3613 3854 369
3613 3854 369
3602 3854 358
3509 3854 319
3431 3824 306
3511 3626 698
2568 3878 1657
2061 3949 2473
1663 3957 3501
1025 3555 3985
640 3225 4050
603 3189 4050
602 3188 4050
590 3175 4050
3613 3854 369
3613 3854 369
3613 3854 369
3613 3854 369
3613 3854 369
3602 3854 358
3523 3854 329
3459 3793 265
3560 3429 365
2625 3842 1477
2093 3962 2404
1688 3968 3368
1068 3585 3976
670 3254 4063
643 3228 4063
643 3228 4063
643 3228 4063
3613 3854 369
3613 3854 369
3613 3854 369
3613 3854 369
3613 3854 369
3603 3854 359
3578 3854 344
3519 3845 331
3600 3792 528
2671 3882 1411
2135 3955 2232
1720 3963 3140
1178 3661 3929
685 3270 4062
643 3228 4063
643 3228 4063
643 3228 4063
3613 3854 369
3613 3854 369
3613 3854 369
3613 3854 369
3613 3854 369
3613 3854 369
3593 3854 359
3515 3845 337
3412 3846 450
2711 3893 1225
2200 3940 2081
1766 3962 3009
1345 3778 3886
798 3370 4050
643 3228 4063
643 3228 4063
643 3228 4063
93 0 0
77 0 94
33 0 308
19 12 672
16 4 993
16 0 1159
26 0 1584
32 0 2138
32 0 2714
39 0 3254
42 0 3648
32 0 3927
36 0 4039
48 0 4063
48 0 4063
48 0 4063
48 0 4063
111 31 0
93 60 78
35 18 264
19 3 669
16 0 1022
16 0 1148
26 0 1584
32 0 2138
32 0 2721
39 0 3284
42 0 3679
32 0 3939
36 0 4039
48 0 4063
48 0 4063
48 0 4063
48 0 4063
248 106 0
218 138 33
39 137 229
18 124 565
16 82 956
16 49 1193
25 5 1579
32 0 2108
32 0 2707
39 0 3270
42 0 3684
32 0 3953
36 0 4050
48 0 4063
48 0 4063
48 0 4063
48 0 4063
460 200 0
430 187 3
302 339 61
80 335 369
19 263 798
16 218 1228
26 141 1586
32 100 2097
32 22 2670
39 0 3212
42 0 3640
32 0 3918
36 0 4039
48 0 4063
48 0 4063
48 0 4063
48 0 4063
723 321 0
718 321 0
609 377 3
410 566 153
138 534 611
29 424 1105
18 369 1687
27 320 2140
32 272 2658
34 198 3185
35 130 3630
32 40 3911
36 9 4027
48 0 4051
48 0 4052
48 0 4063
48 0 4063
1064 484 0
1078 498 0
1000 493 0
857 673 73
518 860 357
194 755 904
39 635 1592
19 565 2219
32 505 2702
32 443 3174
39 373 3617
52 273 3911
56 160 4023
48 50 4046
48 21 4047
48 10 4052
48 0 4062
1562 716 0
1551 706 0
1501 706 0
1415 741 5
1214 954 121
806 1236 567
334 1135 1318
66 930 2112
31 800 2726
37 728 3220
45 654 3620
53 567 3897
60 492 4030
48 378 4043
50 273 4031
58 147 4046
48 50 4052
2121 1021 0
2097 997 0
2059 982 0
2008 981 0
1906 1056 23
1730 1457 265
1134 1783 870
461 1586 1796
93 1274 2577
35 1129 3194
39 1047 3621
53 956 3895
62 868 4030
48 767 4052
50 655 4031
63 524 4046
57 407 4047
2634 1438 25
2618 1475 40
2596 1448 26
2564 1416 18
2505 1386 2
2396 1462 66
2121 2119 532
1312 2335 1318
511 1983 2329
99 1650 3068
8 1505 3577
13 1406 3895
50 1313 4003
48 1206 4007
49 1123 4017
55 984 4038
55 843 4039
3011 2606 182
3055 2771 242
3012 2703 215
2987 2618 199
2929 2268 68
2862 1921 43
2753 2000 181
2105 2726 907
1433 2849 1836
613 2448 2867
121 2050 3504
5 1890 3853
2 1798 3997
8 1709 4018
8 1615 4045
10 1490 4024
40 1371 4023
3283 3428 308
3292 3456 327
3278 3438 318
3263 3414 317
3238 3333 289
3210 3230 275
3267 2981 229
3073 2810 403
2194 3307 1406
1520 3307 2346
671 2832 3323
119 2416 3806
9 2281 3964
0 2195 4030
0 2107 4022
0 2018 3999
0 1907 4014
3489 3746 342
3489 3746 342
3503 3750 356
3492 3738 345
3466 3729 337
3426 3721 325
3382 3623 273
3429 3332 333
2614 3650 1209
2050 3737 2056
1510 3643 2978
664 3107 3738
159 2696 3919
38 2563 4011
25 2509 4015
25 2454 4015
15 2373 4026
3589 3842 357
3589 3842 357
3600 3842 368
3591 3832 360
3586 3827 357
3573 3826 346
3489 3828 299
3432 3784 368
2998 3810 1006
2323 3881 1857
1900 3922 2715
1464 3818 3731
729 3279 3978
381 2970 4005
259 2855 4013
246 2851 3986
157 2738 3986
3613 3854 369
3613 3854 369
3613 3854 369
3613 3854 369
3601 3842 369
3586 3838 358
3506 3848 319
3431 3824 306
3496 3626 702
2564 3878 1626
2064 3957 2471
1665 3957 3490
1025 3555 3985
640 3225 4050
603 3189 4050
602 3188 4050
590 3175 4050
3613 3854 369
3613 3854 369
3613 3854 369
3613 3854 369
3603 3844 369
3588 3840 360
3553 3849 343
3465 3794 263
3550 3446 366
2631 3852 1470
2119 3962 2342
1705 3968 3256
1069 3585 3954
670 3254 4063
643 3228 4063
643 3228 4063
643 3228 4063
3613 3854 369
3613 3854 369
3613 3854 369
3613 3854 369
3613 3854 369
3603 3854 369
3578 3854 358
3526 3854 306
3551 3815 504
2707 3899 1363
2174 3955 2190
1734 3963 3128
1189 3662 3928
685 3270 4062
643 3228 4063
643 3228 4063
643 3228 4063
3613 3854 369
3613 3854 369
3613 3854 369
3613 3854 369
3613 3854 369
3613 3854 369
3593 3854 359
3506 3854 312
3350 3877 395
2795 3893 1131
2219 3940 2062
1770 3967 3009
1375 3805 3870
798 3370 4050
643 3228 4063
643 3228 4063
643 3228 4063
247 0 14
231 0 64
201 0 236
186 0 469
143 0 832
84 0 1109
35 0 1570
31 0 2124
32 0 2721
39 0 3283
42 0 3684
32 0 3953
36 0 4051
48 0 4063
48 0 4063
48 0 4063
48 0 4063
233 2 0
217 16 48
201 0 203
131 0 481
111 0 808
95 0 1078
36 0 1539
31 0 2101
32 0 2700
39 0 3225
42 0 3638
32 0 3927
36 0 4039
48 0 4063
48 0 4063
48 0 4063
48 0 4063
269 90 0
265 80 2
185 133 170
87 124 500
52 82 885
38 25 1147
17 1 1535
25 0 2087
32 0 2686
39 0 3237
42 0 3652
32 0 3927
36 0 4039
48 0 4063
48 0 4063
48 0 4063
48 0 4063
488 170 0
473 168 0
369 235 56
175 325 355
20 250 776
3 188 1240
24 129 1563
31 78 2080
32 13 2662
33 0 3224
34 0 3640
32 0 3918
36 0 4039
48 0 4063
48 0 4063
48 0 4063
48 0 4063
753 289 0
736 289 0
651 336 3
469 543 176
159 520 575
25 410 1056
18 355 1627
27 302 2105
32 246 2644
32 167 3186
32 83 3621
32 22 3900
36 9 4027
48 0 4051
48 0 4052
48 0 4063
48 0 4063
1094 454 0
1069 454 0
1017 458 0
875 595 62
511 817 336
166 718 873
34 610 1553
19 536 2186
29 481 2668
41 417 3176
47 340 3612
48 262 3889
48 149 4008
48 40 4032
48 21 4038
48 0 4052
48 0 4053
1552 687 0
1536 700 0
1516 685 0
1382 702 5
1195 905 109
811 1184 532
338 1138 1295
63 897 2093
19 781 2724
26 709 3197
35 644 3605
42 571 3884
48 476 4019
48 363 4031
50 263 4031
58 116 4039
48 40 4047
2083 983 0
2081 983 0
2050 965 0
1993 965 0
1855 1029 7
1670 1380 196
1087 1719 858
390 1523 1785
88 1258 2598
29 1107 3218
24 1017 3615
38 932 3890
48 844 4012
48 737 4031
50 626 4031
64 492 4033
57 390 4047
2635 1468 31
2626 1455 32
2579 1423 18
2556 1401 10
2471 1342 0
2359 1435 47
2140 2036 485
1361 2339 1283
651 2112 2309
117 1675 3064
8 1490 3582
13 1392 3888
40 1297 3997
41 1179 4015
43 1080 4017
56 960 4031
56 829 4039
3054 2797 240
3041 2746 235
2987 2640 198
2971 2542 156
2885 2132 48
2850 1895 35
2767 1964 158
2198 2717 844
1482 2864 1788
587 2422 2838
116 2045 3480
5 1882 3839
0 1797 3983
1 1686 4015
2 1586 4017
10 1480 4024
41 1364 4024
3287 3455 326
3270 3431 327
3260 3404 310
3248 3388 296
3216 3293 275
3202 3187 262
3253 2877 167
3049 2742 343
2158 3275 1421
1475 3276 2405
650 2807 3326
114 2386 3806
5 2251 3964
0 2170 4020
0 2083 4013
0 1989 3997
0 1922 3999
3503 3750 356
3489 3735 342
3480 3731 339
3478 3722 338
3466 3712 330
3414 3701 312
3383 3612 261
3430 3378 341
2631 3652 1176
2063 3723 2001
1514 3617 2904
649 3096 3728
151 2696 3922
38 2564 4025
25 2509 4029
24 2445 4029
5 2373 4030
3600 3842 368
3589 3842 357
3589 3833 357
3589 3830 357
3581 3830 357
3567 3829 346
3488 3823 297
3413 3791 358
3007 3807 982
2346 3881 1834
1902 3915 2675
1408 3771 3719
718 3276 3978
381 2970 4005
259 2855 4013
245 2851 4001
109 2730 3997
3613 3854 369
3613 3854 369
3613 3854 369
3613 3854 369
3612 3853 369
3600 3852 358
3510 3853 319
3434 3824 306
3484 3616 684
2554 3871 1651
2025 3958 2527
1653 3957 3528
1030 3561 3985
642 3225 4050
603 3189 4050
601 3187 4049
547 3132 4034
3613 3854 369
3613 3854 369
3613 3854 369
3613 3854 369
3612 3853 369
3600 3852 360
3563 3854 344
3480 3801 271
3557 3490 386
2632 3846 1460
2120 3962 2329
1707 3978 3251
1157 3647 3951
683 3266 4061
643 3228 4063
642 3227 4062
628 3214 4049
3613 3854 369
3613 3854 369
3613 3854 369
3613 3854 369
3613 3854 369
3603 3854 369
3578 3854 359
3526 3847 306
3537 3809 495
2711 3891 1315
2176 3955 2167
1765 3964 3075
1330 3765 3897
709 3281 4050
643 3228 4063
643 3228 4063
643 3228 4063
3613 3854 369
3613 3854 369
3613 3854 369
3613 3854 369
3613 3854 369
3613 3854 369
3593 3854 359
3506 3854 312
3355 3878 386
2858 3893 1091
2264 3940 1973
1810 3967 2864
1388 3806 3848
798 3370 4050
643 3228 4063
643 3228 4063
643 3228 4063
474 0 29
458 0 35
415 0 173
394 11 416
381 13 688
323 13 1023
253 5 1517
174 0 2078
102 0 2680
56 0 3243
42 0 3656
32 0 3929
36 0 4039
48 0 4063
48 0 4063
48 0 4063
48 0 4063
458 0 29
458 0 32
415 0 173
366 0 403
350 0 670
319 9 1016
265 12 1524
172 0 2077
83 0 2683
56 0 3258
42 0 3661
32 0 3927
36 0 4039
48 0 4063
48 0 4063
48 0 4063
