assets/luts/LUTs by IWLTBAP (3DL)/03 - V-Log/H-9110-VLOG.3dl
# Copyright: (C) Copyright 2010-2020 by IWLTBAP SAS
# Cannot be resold, shared or otherwise redistributed
# Website: https://luts.iwltbap.com
0 256 512 768 1023
0 0 0
12 0 1028
32 0 2722
36 0 4039
48 0 4063
763 337 0
138 535 622
24 255 2676
36 9 4036
48 0 4063
2642 1477 48
2519 1413 2
538 1995 2321
48 1329 4027
48 859 4047
3601 3842 369
3580 3833 357
3142 3790 970
721 3279 3978
157 2738 4003
3613 3854 369
3613 3854 369
3412 3846 450
1345 3778 3886
643 3228 4063
739 0 44
655 13 617
448 6 2674
66 0 4039
48 0 4063
837 314 6
580 511 557
306 277 2605
54 0 4024
48 0 4063
2634 1365 10
2509 1301 0
613 2014 2258
42 1258 3999
62 799 4045
3601 3842 369
3580 3829 357
3272 3732 897
705 3265 3985
108 2721 3999
3613 3854 369
3613 3854 369
3356 3866 373
1377 3806 3855
643 3228 4063
2730 0 185
2670 0 538
2497 32 2409
2013 56 4013
1301 40 4047
2650 74 163
2579 164 431
2388 71 2363
1975 54 3999
1255 40 4039
2983 1281 112
2898 1259 130
2202 2021 2118
948 1359 3993
911 823 4031
3764 2694 26
3753 2778 32
3696 2541 420
1488 3420 3882
421 2752 3982
3782 3413 225
3782 3461 257
3714 3569 309
1704 3959 3709
674 3236 4055
4035 0 273
4035 0 294
4029 48 2100
3967 51 3963
3866 60 4043
4035 0 273
4017 0 282
4003 24 1973
3951 48 3923
3854 60 4031
4043 1130 592
4041 1024 532
3978 1590 1793
3909 1204 3872
3806 556 4039
4079 2192 0
4063 2180 0
4058 2626 901
3827 3751 3778
3421 3509 4027
4075 2204 0
4075 2204 0
4075 2338 108
3885 3766 3403
3360 3882 4015
4047 0 273
4047 0 273
4047 8 1413
4063 48 3866
4063 48 4031
4047 0 273
4047 0 273
4049 8 1329
4063 60 3866
4063 48 4031
4039 522 305
4031 486 305
4031 743 1128
4035 538 3738
4055 112 4023
4075 2164 36
4063 2161 36
4063 2300 380
4034 3571 3598
4031 3304 3982
4063 2248 0
4063 2248 0
4063 2272 24
4063 3697 3244
4047 4047 4047
