assets/luts/LUTs by IWLTBAP (3DL)/03 - V-Log/W-8370-VLOG.3dl
# Copyright: (C) Copyright 2010-2020 by IWLTBAP SAS
# Cannot be resold, shared or otherwise redistributed
# Website: https://luts.iwltbap.com
0 256 512 768 1023
48 48 48
120 105 213
0 827 2128
1184 2288 3589
1220 2312 3613
305 341 117
111 281 293
0 799 2038
1172 2276 3586
1220 2312 3613
1662 2208 1092
1540 2154 1124
48 2003 2132
1411 2561 3617
1213 2296 3573
2798 3621 2626
2789 3621 2626
1114 3549 2638
425 3413 3650
1088 3388 3698
2810 3645 2650
2810 3645 2650
2240 3637 2698
56 3449 3609
980 3501 3742
671 76 129
363 76 245
0 771 2051
1184 2276 3577
1220 2312 3613
685 405 83
422 307 289
0 756 1961
1163 2252 3565
1220 2312 3613
1738 2184 1072
1642 2159 1111
143 1933 2044
1343 2497 3581
1232 2319 3587
2798 3621 2626
2786 3621 2614
1222 3546 2628
440 3409 3638
1056 3372 3698
2810 3645 2650
2810 3645 2650
2367 3637 2682
56 3449 3597
980 3501 3742
3653 1028 643
3402 909 763
2160 847 1714
1277 2090 3549
1221 2256 3581
3527 1170 626
3316 1006 686
2055 814 1651
1249 2091 3541
1202 2240 3565
2867 2344 1104
2822 2252 1056
1993 2033 1959
1443 2549 3565
1208 2280 3577
3477 3629 2710
3420 3611 2714
2707 3589 2798
328 3397 3609
1040 3356 3665
3164 3637 2722
3139 3629 2722
2842 3653 2762
42 3481 3561
964 3501 3726
4095 2047 1694
4095 2035 1691
3977 2132 2453
3669 2088 3453
3537 2088 3549
4095 2047 1694
4081 2035 1682
4005 2108 2383
3639 2073 3400
3525 2072 3546
4059 2965 2333
4073 2858 2244
3992 2670 2511
3536 2243 3374
3398 2064 3499
4007 3758 3156
3984 3743 3129
3941 3712 3101
3607 3686 3683
3445 3651 3750
4023 3826 3244
4023 3822 3228
4015 3818 3232
3642 3854 3705
3164 3810 3866
4095 2072 1718
4095 2072 1718
4079 2055 2104
3730 2144 3296
3758 2232 3581
4095 2072 1718
4095 2072 1718
4077 2076 2092
3742 2144 3295
3758 2232 3581
4079 2521 2031
4079 2467 1971
4079 2333 2076
3673 2168 3216
3734 2216 3557
3990 3685 3039
3990 3669 2999
3966 3651 2965
3810 3671 3641
3661 3412 3681
4079 3870 3356
4079 3870 3356
4063 3870 3356
4015 3954 3750
4031 3999 4015
