assets/luts/LUTs by IWLTBAP (3DL)/03 - V-Log/W-8370-VLOG.3dl
# Copyright: (C) Copyright 2010-2020 by IWLTBAP SAS
# Cannot be resold, shared or otherwise redistributed
# Website: https://luts.iwltbap.com
0 128 256 384 512 640 768 896 1023
48 48 48
32 48 80
120 105 213
60 291 851
0 827 2128
371 1712 3252
1184 2288 3589
1220 2312 3613
1220 2312 3613
48 48 48
32 48 78
105 105 209
60 291 821
0 797 2070
328 1672 3212
1186 2288 3591
1220 2312 3613
1220 2312 3613
305 341 117
219 311 130
111 281 293
112 461 837
0 799 2038
323 1646 3210
1172 2276 3586
1210 2302 3603
1220 2312 3613
965 1108 482
919 1071 456
622 1026 565
333 939 951
47 1306 2060
331 1727 3188
1124 2216 3563
1170 2238 3566
1194 2286 3587
1662 2208 1092
1638 2154 1069
1540 2154 1124
709 1999 1278
48 2003 2132
450 2424 3210
1411 2561 3617
1321 2413 3612
1213 2296 3573
2449 3252 2162
2449 3252 2162
2428 3249 2159
2024 3180 2184
187 3026 2427
41 3031 3243
1164 3156 3637
1548 3136 3667
1566 2999 3651
2798 3621 2626
2798 3632 2626
2789 3621 2626
2700 3611 2668
1114 3549 2638
0 3497 3290
425 3413 3650
1134 3429 3714
1088 3388 3698
2810 3645 2650
2810 3645 2650
2810 3645 2650
2790 3645 2650
1681 3623 2636
1 3552 3230
298 3451 3653
980 3501 3742
980 3501 3742
2810 3645 2650
2810 3645 2650
2810 3645 2650
2810 3645 2650
2240 3637 2698
90 3533 3045
56 3449 3609
952 3487 3728
980 3501 3742
48 48 48
46 48 48
88 105 193
60 291 837
0 826 2157
405 1706 3249
1196 2288 3601
1220 2312 3613
1220 2312 3613
61 61 61
46 46 48
105 105 193
60 291 806
0 788 2082
355 1690 3225
1184 2288 3589
1220 2312 3613
1220 2312 3613
341 355 120
277 311 106
111 272 265
117 411 772
0 771 1988
263 1604 3161
1164 2264 3577
1210 2302 3603
1220 2312 3613
945 1083 452
932 1074 472
596 968 534
318 899 922
43 1292 2056
299 1686 3161
1116 2208 3552
1146 2228 3571
1204 2286 3587
1660 2208 1100
1617 2132 1061
1523 2108 1087
749 2003 1236
68 1979 2075
500 2424 3198
1381 2537 3594
1313 2391 3603
1229 2313 3589
2449 3256 2166
2419 3226 2136
2406 3213 2143
2025 3158 2159
204 3003 2418
52 3019 3227
1175 3153 3635
1539 3113 3661
1573 3015 3661
2798 3632 2626
2798 3621 2626
2786 3621 2626
2709 3618 2654
1101 3543 2636
0 3486 3296
410 3409 3638
1065 3427 3712
1042 3383 3698
2810 3645 2650
2810 3645 2650
2810 3644 2650
2791 3636 2659
1749 3623 2650
1 3553 3183
138 3440 3614
978 3499 3740
966 3487 3742
2810 3645 2650
2810 3645 2650
2810 3645 2650
2810 3645 2633
2336 3637 2674
148 3557 2999
56 3463 3599
939 3487 3728
980 3501 3742
671 76 129
578 60 125
363 76 245
109 273 809
0 771 2051
311 1648 3198
1184 2276 3577
1220 2312 3613
1220 2312 3613
685 64 94
545 48 94
296 67 213
87 271 769
0 760 2050
349 1661 3206
1184 2276 3588
1220 2312 3613
1220 2312 3613
685 405 83
646 365 96
422 307 289
267 404 745
0 756 1961
254 1600 3150
1163 2252 3565
1220 2312 3611
1220 2312 3613
1233 1118 422
1168 1035 393
933 998 535
488 920 902
93 1262 2006
267 1659 3146
1123 2227 3563
1148 2232 3571
1209 2286 3595
1738 2184 1072
1720 2150 1047
1642 2159 1111
871 1987 1216
143 1933 2044
495 2403 3185
1343 2497 3581
1275 2355 3589
1232 2319 3587
2483 3258 2140
2452 3228 2135
2386 3191 2087
2038 3122 2107
223 2987 2357
30 2983 3177
1218 3138 3621
1555 3068 3651
1588 2989 3654
2798 3621 2626
2786 3621 2626
2786 3621 2614
2713 3619 2652
1222 3546 2628
0 3469 3270
440 3409 3638
1039 3427 3714
1056 3372 3698
2810 3645 2650
2810 3645 2650
2810 3645 2650
2797 3637 2659
1821 3623 2644
2 3552 3165
131 3440 3615
978 3499 3740
966 3487 3728
2810 3645 2650
2810 3645 2650
2810 3645 2650
2810 3645 2633
2367 3637 2682
158 3552 2983
56 3449 3597
938 3487 3728
980 3501 3742
2110 209 110
1959 169 84
1637 157 401
1074 283 822
344 737 1951
326 1608 3164
1174 2250 3571
1190 2281 3589
1220 2302 3603
2084 207 95
1981 177 85
1563 130 340
1056 257 765
303 713 1897
269 1587 3143
1160 2236 3549
1197 2287 3588
1206 2288 3597
1943 722 120
1950 693 118
1542 482 356
992 392 735
293 742 1870
237 1554 3130
1146 2234 3547
1204 2282 3582
1194 2286 3587
1749 1178 403
1709 1144 400
1545 1044 461
1165 955 898
671 1231 1910
236 1645 3105
1124 2206 3541
1173 2249 3565
1198 2283 3587
2190 2228 1033
2163 2151 995
2081 2111 980
1614 1998 1221
660 1918 1971
471 2345 3131
1316 2467 3549
1260 2347 3584
1213 2291 3581
2654 3190 2071
2634 3189 2063
2582 3162 2021
2335 3122 2096
466 2965 2333
55 2970 3177
1253 3132 3621
1548 3044 3665
1559 2957 3645
2951 3601 2658
2943 3605 2657
2923 3582 2638
2849 3605 2674
1504 3574 2668
0 3466 3229
337 3409 3625
1036 3405 3695
1104 3362 3704
2911 3621 2676
2888 3614 2662
2886 3626 2670
2834 3638 2664
2003 3632 2666
23 3558 3119
105 3439 3610
968 3490 3732
966 3487 3728
2820 3635 2650
2820 3629 2650
2820 3634 2650
2804 3629 2644
2480 3621 2674
201 3563 2945
56 3465 3597
938 3487 3728
980 3501 3742
3653 1028 643
3600 998 619
3402 909 763
2904 718 1100
2160 847 1714
1458 1462 3067
1277 2090 3549
1260 2234 3581
1221 2256 3581
3653 1043 650
3589 989 604
3334 881 710
2843 716 1078
2096 831 1734
1392 1470 3072
1266 2090 3559
1220 2208 3572
1188 2224 3566
3527 1170 626
3526 1134 621
3316 1006 686
2804 742 1030
2055 814 1651
1338 1434 3028
1249 2091 3541
1229 2234 3565
1202 2240 3565
3411 1788 802
3357 1752 760
3298 1652 782
2804 1293 1075
1946 1081 1663
1324 1637 3011
1197 2137 3530
1203 2211 3557
1165 2230 3568
2867 2344 1104
2864 2315 1094
2822 2252 1056
2623 2133 1226
1993 2033 1959
1591 2449 3100
1443 2549 3565
1286 2361 3569
1208 2280 3577
3230 3228 2067
3219 3243 2085
3191 3182 2009
3069 3119 2023
2294 3021 2351
1077 2998 3107
1341 3095 3621
1586 3025 3665
1648 2939 3677
3477 3629 2710
3462 3627 2703
3420 3611 2714
3355 3613 2718
2707 3589 2798
369 3466 3169
328 3397 3609
1055 3394 3698
1040 3356 3665
3343 3637 2730
3322 3644 2731
3309 3644 2729
3251 3642 2729
2838 3650 2796
382 3569 3078
76 3474 3592
954 3493 3711
909 3494 3719
3164 3637 2722
3158 3637 2722
3139 3629 2722
3084 3621 2698
2842 3653 2762
431 3575 2923
42 3481 3561
906 3487 3712
964 3501 3726
4085 1676 1287
4084 1676 1287
4045 1622 1255
3984 1545 1564
3503 1612 2189
3130 1510 2826
2846 1891 3517
2536 2006 3589
2056 2038 3639
4085 1676 1286
4076 1666 1259
4053 1614 1255
4002 1551 1539
3493 1614 2162
3117 1495 2787
2824 1893 3513
2445 2015 3611
2032 2036 3632
4075 1688 1255
4062 1675 1258
4050 1617 1236
3969 1510 1474
3483 1571 2120
3080 1474 2777
2754 1919 3524
2430 2023 3616
2009 2040 3629
4049 2058 1443
4045 2027 1414
4029 1978 1384
3944 1834 1517
3436 1665 2081
3003 1499 2689
2669 1913 3497
2355 2035 3625
1919 2089 3639
3852 2839 1944
3849 2822 1939
3836 2776 1904
3792 2748 1988
3472 2448 2303
2865 2106 2816
2616 2412 3547
2303 2398 3653
1865 2243 3623
3637 3279 2239
3621 3257 2218
3602 3241 2183
3562 3215 2183
3417 3165 2427
2865 3089 3077
2770 3262 3617
2522 3192 3713
2165 3016 3706
3866 3724 2911
3862 3708 2904
3838 3692 2871
3812 3681 2865
3743 3669 2921
3037 3613 3260
2166 3558 3675
1736 3501 3732
1491 3401 3716
3834 3738 2917
3848 3737 2917
3828 3730 2909
3811 3732 2909
3746 3734 2970
2944 3712 3242
1639 3610 3644
1262 3575 3746
1103 3542 3745
3794 3722 2888
3780 3722 2878
3752 3712 2846
3726 3696 2831
3670 3706 2872
2836 3683 3137
1113 3575 3575
983 3540 3738
998 3529 3732
4095 2047 1694
4094 2047 1694
4095 2035 1691
4083 2015 1827
3977 2132 2453
3667 2060 2891
3669 2088 3453
3604 2104 3537
3537 2088 3549
4095 2047 1694
4092 2047 1694
4095 2035 1682
4083 2014 1816
3993 2102 2412
3669 2042 2851
3658 2088 3442
3602 2102 3547
3537 2072 3535
4095 2047 1694
4086 2047 1694
4081 2035 1682
4080 2009 1807
4005 2108 2383
3656 2042 2824
3639 2073 3400
3579 2094 3537
3525 2072 3546
4079 2224 1812
4080 2209 1781
4079 2199 1770
4079 2137 1850
3993 2072 2313
3618 2039 2797
3630 2069 3415
3552 2081 3541
3469 2027 3507
4059 2965 2333
4070 2916 2289
4073 2858 2244
4064 2804 2223
3992 2670 2511
3585 2389 2875
3536 2243 3374
3481 2161 3504
3398 2064 3499
3936 3413 2634
3920 3389 2612
3939 3383 2612
3911 3370 2598
3883 3375 2822
3686 3224 3177
3430 2991 3447
3379 2891 3572
3270 2716 3561
4007 3758 3156
3991 3746 3132
3984 3743 3129
3979 3734 3092
3941 3712 3101
3834 3697 3312
3607 3686 3683
3592 3730 3797
3445 3651 3750
4049 3840 3282
4049 3840 3282
4040 3840 3270
4023 3826 3259
4013 3841 3276
3978 3832 3451
3753 3866 3776
3622 3880 3874
3428 3834 3860
4023 3826 3244
4023 3826 3244
4023 3822 3228
4023 3810 3197
4015 3818 3232
3964 3832 3343
3642 3854 3705
3370 3852 3864
3164 3810 3866
4095 2072 1718
4095 2072 1718
4095 2061 1708
4095 2039 1747
4048 2055 2253
3742 2162 2845
3728 2144 3393
3758 2232 3581
3758 2232 3581
4095 2072 1718
4095 2072 1718
4095 2070 1717
4085 2029 1736
4047 2054 2257
3732 2159 2852
3715 2144 3382
3758 2232 3581
3758 2220 3569
4095 2072 1718
4094 2072 1718
4095 2072 1718
4088 2029 1706
4058 2068 2237
3742 2161 2838
3726 2144 3385
3758 2232 3581
3758 2218 3567
4063 2116 1738
4063 2102 1738
4079 2092 1700
4079 2045 1701
4060 2055 2170
3748 2168 2818
3705 2134 3331
3750 2223 3572
3744 2218 3567
4079 2762 2186
4071 2726 2149
4079 2694 2135
4075 2628 2084
4056 2525 2361
3743 2378 2849
3673 2220 3286
3704 2234 3509
3704 2192 3510
3997 3389 2683
3988 3378 2667
3994 3346 2649
3991 3318 2626
3963 3310 2752
3831 3180 3129
3607 2940 3415
3632 2770 3558
3641 2618 3523
4007 3740 3156
4007 3740 3142
3994 3728 3101
3997 3716 3088
3995 3696 3092
3920 3712 3327
3808 3733 3686
3727 3661 3770
3651 3511 3712
4079 3870 3356
4079 3870 3356
4077 3868 3355
4071 3870 3347
4057 3856 3318
4041 3890 3496
3986 3967 3834
3951 3952 3938
3924 3937 3937
4079 3870 3356
4079 3870 3344
4079 3870 3353
4079 3870 3348
4063 3870 3349
4057 3890 3459
4011 3954 3788
3984 3982 3966
3984 3984 3984
4095 2072 1718
4095 2072 1718
4095 2072 1718
4095 2056 1712
4079 2055 2104
3776 2182 2794
3730 2144 3296
3758 2232 3581
3758 2232 3581
4095 2072 1718
4095 2072 1718
4095 2072 1718
4095 2045 1712
4065 2085 2105
3781 2189 2774
3714 2128 3268
3758 2220 3569
3758 2232 3581
4095 2072 1718
4095 2072 1718
4095 2072 1718
4088 2045 1712
4077 2076 2092
3792 2172 2778
3742 2144 3295
3758 2229 3578
3758 2232 3581
4095 2082 1728
4079 2082 1718
4079 2074 1718
4081 2062 1718
4071 2058 2003
3796 2188 2752
3714 2102 3239
3758 2218 3567
3758 2232 3581
4079 2521 2031
4079 2504 2007
4079 2467 1971
4079 2423 1933
4079 2333 2076
3785 2282 2741
3673 2168 3216
3704 2194 3527
3734 2216 3557
3997 3270 2600
4011 3275 2589
4001 3264 2576
4013 3250 2560
4021 3224 2635
3887 3024 2943
3613 2759 3299
3641 2618 3514
3665 2465 3533
3990 3685 3039
4005 3685 3038
3990 3669 2999
3979 3658 2981
3966 3651 2965
3932 3649 3194
3810 3671 3641
3677 3541 3697
3661 3412 3681
4079 3870 3342
4079 3870 3342
4065 3856 3342
4065 3856 3342
4049 3863 3349
4033 3871 3435
3997 3940 3778
3952 3952 3921
3940 3952 3954
4079 3870 3356
4079 3870 3356
4079 3870 3356
4079 3870 3356
4063 3870 3356
4047 3876 3413
4015 3954 3750
3999 3982 3938
4031 3999 4015
