assets/luts/LUTs by IWLTBAP (3DL)/03 - V-Log/W-8370-VLOG.3dl
# Copyright: (C) Copyright 2010-2020 by IWLTBAP SAS
# Cannot be resold, shared or otherwise redistributed
# Website: https://luts.iwltbap.com
0 64 128 192 256 320 384 448 512 576 640 704 768 832 896 960 1023
48 48 48
32 48 79
32 48 80
61 48 123
120 105 213
129 162 453
60 291 851
7 506 1417
0 827 2128
42 1229 2769
371 1712 3252
954 2112 3489
1184 2288 3589
1220 2312 3613
1220 2312 3613
1220 2312 3613
1220 2312 3613
48 48 48
47 48 49
32 48 78
61 76 110
105 108 209
129 162 453
60 291 851
7 506 1426
0 842 2175
42 1238 2800
424 1724 3258
1017 2142 3530
1196 2288 3601
1220 2312 3613
1220 2312 3613
1220 2312 3613
1220 2312 3613
48 48 48
32 48 63
32 48 78
45 61 110
105 105 209
113 162 411
60 291 821
7 481 1364
0 797 2070
29 1192 2731
328 1672 3212
947 2102 3491
1186 2288 3591
1220 2312 3613
1220 2312 3613
1220 2312 3613
1220 2312 3613
77 148 61
74 148 64
50 122 78
48 107 120
105 122 212
129 180 409
60 291 803
7 481 1344
0 788 2050
28 1177 2715
323 1662 3210
943 2101 3489
1184 2288 3589
1220 2312 3613
1220 2312 3613
1220 2312 3613
1220 2312 3613
305 341 117
262 329 105
219 311 130
111 296 165
111 281 293
121 334 461
112 461 837
14 583 1356
0 799 2038
28 1158 2712
323 1646 3210
931 2089 3489
1172 2276 3586
1208 2300 3601
1210 2302 3603
1220 2312 3613
1220 2312 3613
576 667 248
571 662 248
541 621 262
407 606 317
248 575 416
213 541 552
190 631 851
102 795 1371
13 971 2058
28 1211 2739
306 1638 3206
889 2049 3478
1113 2202 3569
1175 2243 3582
1195 2287 3588
1209 2301 3602
1209 2301 3602
965 1108 482
950 1102 476
919 1071 456
858 1057 522
622 1026 565
425 984 687
333 939 951
278 1080 1414
47 1306 2060
32 1504 2718
331 1727 3188
857 2006 3450
1124 2216 3563
1172 2251 3565
1170 2238 3566
1147 2239 3571
1194 2286 3587
1304 1615 740
1304 1615 740
1249 1545 707
1250 1565 771
1128 1548 814
793 1517 859
473 1428 1097
351 1412 1503
109 1608 2081
88 1862 2719
589 2074 3220
989 2179 3482
1193 2285 3578
1223 2298 3590
1219 2294 3589
1140 2232 3565
1156 2232 3565
1662 2208 1092
1662 2208 1092
1638 2154 1069
1625 2158 1082
1540 2154 1124
1297 2114 1178
709 1999 1278
241 1939 1640
48 2003 2132
42 2213 2748
450 2424 3210
1205 2582 3496
1411 2561 3617
1360 2469 3628
1321 2413 3612
1251 2335 3596
1213 2296 3573
2043 2769 1588
2043 2769 1588
2036 2761 1580
2020 2744 1572
1990 2758 1607
1839 2749 1640
1366 2677 1688
477 2613 1849
58 2544 2243
4 2577 2752
165 2721 3230
972 2882 3510
1532 2957 3637
1672 2950 3668
1629 2847 3652
1548 2714 3651
1446 2605 3627
2449 3252 2162
2449 3252 2162
2449 3252 2162
2433 3242 2152
2428 3249 2159
2338 3241 2185
2024 3180 2184
1116 3095 2194
187 3026 2427
3 2993 2853
41 3031 3243
391 3090 3510
1164 3156 3637
1494 3165 3662
1548 3136 3667
1548 3039 3661
1566 2999 3651
2718 3521 2503
2718 3521 2503
2718 3525 2513
2705 3513 2501
2690 3498 2487
2626 3486 2487
2452 3473 2483
1790 3431 2487
462 3383 2593
32 3338 2948
6 3328 3309
101 3285 3542
704 3311 3641
1162 3322 3669
1312 3313 3684
1278 3257 3698
1336 3226 3682
2798 3621 2626
2798 3621 2626
2798 3632 2626
2798 3624 2626
2789 3621 2626
2778 3621 2637
2700 3611 2668
2285 3596 2665
1114 3549 2638
144 3522 2905
0 3497 3290
46 3424 3550
425 3413 3650
927 3416 3684
1134 3429 3714
1049 3416 3713
1088 3388 3698
2810 3645 2650
2810 3645 2650
2810 3645 2650
2810 3645 2650
2810 3645 2650
2810 3645 2659
2772 3637 2686
2457 3623 2677
1428 3592 2640
202 3567 2860
0 3553 3244
29 3483 3510
319 3440 3654
899 3475 3716
980 3488 3729
980 3488 3729
980 3488 3729
2810 3645 2650
2810 3645 2650
2810 3645 2650
2810 3645 2650
2810 3645 2650
2810 3645 2650
2790 3645 2650
2579 3638 2666
1681 3623 2636
249 3575 2813
1 3552 3230
24 3495 3509
298 3451 3653
900 3488 3729
980 3501 3742
980 3501 3742
980 3501 3742
2810 3645 2650
2810 3645 2650
2810 3645 2650
2810 3645 2650
2810 3645 2650
2810 3645 2650
2800 3645 2650
2692 3645 2682
1984 3637 2690
358 3583 2777
12 3542 3132
0 3508 3482
106 3441 3613
868 3487 3728
979 3500 3741
980 3501 3742
980 3501 3742
2810 3645 2650
2810 3645 2650
2810 3645 2650
2810 3645 2650
2810 3645 2650
2810 3645 2650
2810 3645 2650
2765 3645 2691
2240 3637 2698
736 3583 2708
90 3533 3045
0 3523 3461
56 3449 3609
662 3472 3697
952 3487 3728
980 3501 3742
980 3501 3742
48 48 48
47 48 49
32 48 78
45 60 123
89 105 197
124 162 437
60 291 851
7 506 1417
0 812 2104
29 1191 2738
325 1671 3210
943 2101 3489
1184 2288 3589
1220 2312 3613
1220 2312 3613
1220 2312 3613
1220 2312 3613
48 48 48
48 48 48
32 48 78
45 61 122
119 105 212
129 166 426
60 291 846
7 506 1418
0 827 2128
42 1228 2769
372 1711 3250
956 2112 3490
1185 2288 3590
1220 2312 3613
1220 2312 3613
1220 2312 3613
1220 2312 3613
48 48 48
32 48 63
32 48 78
45 74 110
106 108 209
113 166 435
60 291 836
7 481 1371
0 797 2096
42 1214 2745
406 1708 3241
998 2126 3517
1196 2288 3600
1220 2312 3613
1220 2312 3613
1220 2312 3613
1220 2312 3613
106 135 61
62 135 48
50 124 78
48 109 120
105 122 212
126 175 396
72 303 782
7 481 1340
0 782 2053
29 1152 2702
317 1650 3200
940 2089 3483
1186 2279 3591
1220 2312 3613
1220 2312 3613
1220 2312 3613
1220 2312 3613
282 341 117
276 340 116
220 311 130
120 296 165
122 281 282
148 324 440
132 438 828
25 575 1349
6 789 2002
23 1142 2674
284 1624 3174
879 2057 3450
1172 2264 3577
1208 2300 3601
1210 2302 3603
1220 2312 3613
1220 2312 3613
571 667 248
585 677 262
527 607 253
382 588 292
245 575 390
213 541 544
196 629 862
115 801 1378
21 973 2033
28 1195 2705
310 1633 3198
888 2049 3468
1124 2228 3566
1175 2255 3584
1195 2287 3597
1209 2301 3602
1209 2301 3602
959 1102 476
955 1097 471
904 1070 450
828 1057 508
590 989 537
388 946 672
332 925 963
268 1079 1425
47 1311 2070
32 1504 2737
350 1721 3203
885 2038 3456
1130 2222 3557
1194 2266 3581
1147 2229 3578
1164 2240 3556
1204 2286 3587
1310 1615 748
1288 1591 724
1258 1574 707
1236 1560 757
1112 1533 798
777 1496 843
479 1426 1097
344 1398 1475
118 1607 2048
76 1850 2707
575 2061 3204
991 2183 3466
1171 2275 3554
1214 2298 3590
1206 2282 3588
1195 2271 3573
1202 2278 3580
1639 2200 1107
1654 2177 1084
1632 2161 1070
1602 2138 1061
1543 2130 1095
1310 2109 1152
731 2024 1283
229 1941 1640
56 1988 2132
50 2189 2714
460 2424 3202
1216 2585 3488
1403 2566 3601
1354 2466 3615
1329 2421 3620
1281 2373 3596
1221 2304 3573
2019 2738 1565
2042 2760 1587
2026 2745 1564
2012 2744 1563
1990 2739 1579
1832 2711 1635
1347 2657 1677
362 2565 1873
34 2506 2279
4 2562 2766
170 2714 3236
1015 2877 3509
1568 2954 3650
1686 2922 3668
1644 2840 3667
1549 2745 3652
1468 2621 3642
2440 3242 2152
2448 3251 2161
2448 3247 2157
2436 3235 2153
2421 3222 2146
2360 3239 2199
2058 3199 2211
1159 3111 2227
195 3029 2430
3 2982 2813
39 3024 3226
378 3087 3498
1122 3156 3617
1525 3163 3669
1560 3127 3677
1559 3065 3677
1597 3014 3677
2718 3521 2503
2718 3521 2503
2718 3534 2513
2705 3523 2501
2677 3497 2474
2658 3509 2508
2486 3499 2518
1846 3462 2517
517 3391 2590
41 3338 2919
0 3328 3284
98 3285 3542
722 3311 3641
1163 3322 3680
1246 3313 3693
1243 3257 3692
1305 3220 3662
2798 3621 2626
2798 3621 2626
2798 3632 2626
2788 3624 2626
2786 3621 2626
2783 3621 2634
2699 3611 2666
2289 3596 2671
1097 3549 2649
136 3511 2931
0 3497 3305
43 3424 3549
407 3409 3647
874 3416 3700
1119 3429 3714
988 3416 3698
1076 3388 3698
2810 3645 2650
2810 3645 2650
2810 3645 2650
2810 3645 2650
2799 3633 2638
2795 3629 2635
2777 3629 2683
2480 3620 2678
1437 3592 2634
202 3567 2849
0 3553 3241
25 3483 3508
306 3440 3644
888 3475 3716
980 3488 3729
967 3488 3729
967 3488 3729
2810 3645 2650
2810 3645 2650
2810 3645 2650
2810 3645 2650
2801 3635 2640
2797 3631 2636
2791 3631 2659
2579 3631 2666
1706 3623 2636
253 3575 2807
1 3554 3186
24 3497 3499
298 3451 3653
900 3488 3729
980 3501 3742
980 3501 3742
980 3501 3742
2810 3645 2650
2810 3645 2650
2810 3645 2650
2810 3645 2650
2810 3645 2650
2810 3645 2650
2809 3645 2659
2692 3645 2682
2023 3637 2667
416 3582 2745
22 3557 3117
0 3508 3482
106 3441 3613
868 3487 3728
979 3500 3741
980 3501 3742
980 3501 3742
2810 3645 2650
2810 3645 2650
2810 3645 2650
2810 3645 2650
2810 3645 2650
2810 3645 2650
2810 3645 2650
2774 3645 2682
2317 3630 2666
908 3568 2661
119 3533 3035
0 3523 3461
56 3449 3609
662 3472 3697
952 3487 3728
980 3501 3742
980 3501 3742
48 48 48
48 48 48
46 48 48
48 50 90
88 105 193
124 162 437
60 291 837
7 492 1411
0 826 2157
41 1220 2783
405 1706 3249
999 2126 3519
1196 2288 3601
1220 2312 3613
1220 2312 3613
1220 2312 3613
1220 2312 3613
48 48 48
48 48 48
34 48 48
32 50 53
88 105 177
113 162 396
60 299 829
7 481 1379
0 790 2092
29 1164 2725
327 1663 3212
945 2101 3490
1185 2288 3590
1220 2312 3613
1220 2312 3613
1220 2312 3613
1220 2312 3613
61 61 61
46 33 48
46 46 48
60 48 89
105 105 193
113 162 408
60 291 806
7 481 1357
0 788 2082
34 1176 2728
355 1690 3225
945 2111 3489
1184 2288 3589
1220 2312 3613
1220 2312 3613
1220 2312 3613
1220 2312 3613
161 150 75
143 133 75
90 121 61
76 94 93
95 121 193
113 167 409
60 293 795
7 481 1331
0 775 2040
34 1161 2718
349 1677 3219
935 2097 3480
1184 2279 3589
1220 2312 3613
1220 2312 3613
1220 2312 3613
1220 2312 3613
341 355 120
337 355 120
277 311 106
144 296 171
111 272 265
133 300 415
117 411 772
19 547 1313
0 771 1988
23 1139 2691
263 1604 3161
867 2048 3438
1164 2264 3577
1208 2300 3601
1210 2302 3603
1220 2312 3613
1220 2312 3613
620 667 238
586 642 238
559 619 232
420 590 294
237 559 385
197 509 518
185 576 805
116 768 1332
13 942 1996
22 1181 2684
272 1599 3157
837 1996 3432
1111 2201 3547
1175 2243 3574
1195 2287 3588
1209 2301 3602
1209 2301 3602
945 1083 452
940 1076 450
932 1074 472
820 1007 495
596 968 534
405 920 652
318 899 922
268 1053 1410
43 1292 2056
26 1472 2689
299 1686 3161
840 1992 3440
1116 2208 3552
1181 2256 3575
1146 2228 3571
1164 2240 3569
1204 2286 3587
1274 1585 709
1272 1583 707
1263 1552 728
1237 1538 745
1089 1503 789
767 1443 810
463 1378 1065
339 1405 1472
98 1600 2072
70 1851 2711
568 2041 3198
974 2148 3452
1177 2263 3557
1207 2290 3581
1189 2258 3565
1173 2258 3566
1195 2271 3581
1660 2208 1100
1638 2177 1069
1617 2132 1061
1601 2114 1052
1523 2108 1087
1314 2087 1141
749 2003 1236
251 1962 1614
68 1979 2075
56 2187 2684
500 2424 3198
1200 2558 3491
1381 2537 3594
1325 2445 3607
1313 2391 3603
1246 2330 3589
1229 2313 3589
2042 2767 1586
2027 2746 1565
2006 2729 1557
1989 2712 1540
1958 2712 1568
1820 2701 1621
1359 2651 1661
455 2583 1851
53 2507 2250
8 2550 2738
179 2709 3211
1015 2868 3500
1537 2953 3635
1658 2904 3651
1601 2810 3638
1534 2708 3637
1448 2614 3637
2449 3256 2166
2418 3227 2137
2419 3226 2136
2417 3217 2127
2406 3213 2143
2321 3201 2155
2025 3158 2159
1148 3076 2170
204 3003 2418
3 2968 2828
52 3019 3227
470 3087 3504
1175 3153 3635
1492 3152 3660
1539 3113 3661
1534 3041 3661
1573 3015 3661
2718 3535 2513
2707 3511 2503
2695 3511 2491
2688 3498 2476
2678 3494 2471
2647 3489 2482
2471 3477 2491
1887 3463 2500
578 3387 2560
50 3327 2885
4 3314 3267
117 3285 3529
724 3311 3637
1199 3327 3683
1302 3313 3695
1258 3257 3682
1329 3225 3682
2798 3632 2626
2798 3621 2626
2798 3621 2626
2788 3621 2626
2786 3621 2626
2786 3621 2634
2709 3618 2654
2317 3607 2656
1101 3543 2636
135 3521 2902
0 3486 3296
43 3415 3534
410 3409 3638
902 3424 3701
1065 3427 3712
999 3415 3698
1042 3383 3698
2810 3645 2650
2810 3645 2650
2810 3645 2650
2810 3645 2650
2810 3644 2650
2810 3643 2650
2782 3635 2677
2480 3620 2674
1442 3581 2642
204 3567 2864
0 3553 3260
24 3476 3523
292 3437 3639
888 3475 3716
968 3488 3729
966 3487 3729
950 3458 3729
2810 3645 2650
2810 3645 2650
2810 3645 2650
2810 3645 2650
2810 3644 2650
2810 3644 2650
2791 3636 2659
2588 3631 2666
1749 3623 2650
263 3575 2797
1 3553 3183
6 3483 3493
138 3440 3614
885 3486 3727
978 3499 3740
979 3500 3742
966 3487 3742
2810 3645 2650
2810 3645 2650
2810 3645 2650
2810 3645 2650
2810 3645 2650
2810 3645 2639
2810 3645 2633
2692 3645 2675
2040 3637 2666
478 3583 2722
42 3559 3107
0 3508 3471
76 3438 3610
841 3474 3714
966 3488 3729
980 3501 3742
980 3501 3742
2810 3645 2650
2810 3645 2650
2810 3645 2650
2810 3645 2650
2810 3645 2650
2810 3645 2639
2810 3645 2633
2774 3645 2675
2336 3637 2674
1026 3583 2669
148 3557 2999
0 3537 3403
56 3463 3599
648 3472 3697
939 3487 3728
980 3501 3742
980 3501 3742
281 48 120
253 60 91
181 48 90
98 48 96
105 91 231
128 162 426
73 291 822
7 482 1368
0 791 2087
35 1186 2740
361 1695 3239
949 2114 3492
1187 2288 3591
1220 2312 3613
1220 2312 3613
1220 2312 3613
1220 2312 3613
253 48 91
236 60 90
181 48 76
96 48 62
105 104 203
126 162 394
60 293 816
7 491 1375
0 790 2083
35 1208 2742
354 1697 3233
944 2110 3489
1184 2288 3589
1220 2312 3613
1220 2312 3613
1220 2312 3613
