assets/luts/LUTs by IWLTBAP (3DL)/03 - V-Log/X-6500-VLOG.3dl
# Copyright: (C) Copyright 2010-2020 by IWLTBAP SAS
# Cannot be resold, shared or otherwise redistributed
# Website: https://luts.iwltbap.com
0 256 512 768 1023
198 260 267
216 269 326
351 415 669
884 993 1593
1048 1180 1868
242 387 329
260 423 451
673 781 1237
1066 1214 1898
1082 1231 1925
670 1114 802
709 1210 964
913 1441 1643
1344 1733 2385
1320 1663 2342
1553 2551 1825
1587 2639 2017
1673 2883 2672
1839 3016 3224
1851 3024 3248
1598 2624 1883
1643 2735 2112
1738 3005 2877
1868 3095 3268
1878 3099 3289
351 290 290
388 310 350
408 378 642
847 949 1523
1053 1186 1874
427 390 342
367 441 453
764 876 1381
1078 1232 1918
1097 1252 1950
985 1629 1148
920 1539 1150
1040 1761 1822
1492 2066 2635
1494 2045 2639
1565 2569 1840
1595 2641 1978
1689 2901 2653
1849 3044 3240
1860 3048 3262
1600 2627 1886
1631 2702 2034
1730 2986 2798
1870 3100 3271
1881 3104 3293
1165 780 798
1316 886 912
1469 988 1076
1744 1149 1711
1643 1325 2189
1912 1295 1316
1787 1217 1240
1893 1296 1473
2185 1504 2333
2130 1493 2352
1723 1302 1198
1596 1329 1137
1592 1743 1772
1543 1833 2504
1500 1783 2475
1581 2588 1850
1597 2618 1902
1713 2888 2515
1882 3102 3274
1885 3093 3293
1608 2638 1893
1626 2676 1960
1729 2942 2596
1892 3142 3300
1901 3143 3320
2194 1490 1518
2215 1511 1541
2237 1539 1594
2388 1613 2002
2495 1641 2393
2228 1517 1539
2237 1530 1554
2289 1588 1682
2503 1659 2377
2506 1653 2410
2346 1651 1617
2402 1732 1667
2529 1920 1943
2679 1909 2631
2639 1831 2609
2799 2528 2002
2821 2598 2027
2887 2749 2170
3158 3515 3659
3124 3509 3704
1761 2628 1823
1796 2640 1834
2096 2826 2140
2539 3401 3504
2678 3451 3592
2232 1518 1545
2235 1526 1557
2261 1557 1619
2424 1634 2061
2519 1659 2393
2240 1524 1548
2247 1535 1561
2301 1593 1686
2519 1671 2360
2529 1670 2409
2338 1628 1609
2383 1690 1647
2480 1834 1879
2676 1874 2581
2661 1832 2600
2749 2304 1944
2840 2518 2027
2922 2687 2161
3294 3490 3661
3291 3485 3712
2882 2643 2066
2885 2651 2072
2920 2724 2128
3287 3485 3437
3273 3631 3787
