assets/luts/LUTs by IWLTBAP (3DL)/03 - V-Log/X-6500-VLOG.3dl
# Copyright: (C) Copyright 2010-2020 by IWLTBAP SAS
# Cannot be resold, shared or otherwise redistributed
# Website: https://luts.iwltbap.com
0 64 128 192 256 320 384 448 512 576 640 704 768 832 896 960 1023
198 260 267
199 260 272
202 261 282
207 263 298
216 269 326
227 285 375
243 302 436
279 337 525
351 415 669
445 515 843
576 655 1071
736 830 1343
884 993 1593
998 1123 1784
1037 1168 1849
1043 1174 1859
1048 1180 1868
199 268 271
199 271 278
204 272 294
218 278 334
240 303 419
296 358 561
432 502 820
651 736 1198
888 999 1601
1009 1137 1803
1017 1145 1816
1023 1152 1826
1028 1158 1835
1034 1165 1844
1039 1171 1854
1045 1178 1863
1050 1184 1872
203 288 279
202 290 288
203 295 302
214 298 330
238 316 398
273 343 509
387 459 734
573 655 1065
824 930 1492
1000 1127 1787
1021 1152 1823
1027 1158 1833
1032 1164 1841
1037 1170 1850
1042 1175 1858
1047 1181 1867
1053 1188 1876
213 324 295
212 326 305
212 332 323
218 340 353
237 353 401
271 375 494
350 438 663
506 591 947
743 844 1354
966 1093 1731
1035 1172 1846
1040 1177 1855
1044 1182 1862
1049 1188 1870
1054 1192 1878
1058 1198 1885
1063 1203 1893
242 387 329
239 388 338
238 395 360
241 406 396
260 423 451
290 443 522
337 469 637
471 581 884
673 781 1237
908 1036 1635
1052 1200 1877
1061 1210 1891
1066 1214 1898
1070 1218 1905
1074 1222 1912
1078 1227 1918
1082 1231 1925
298 487 396
297 488 404
298 496 426
298 509 464
306 529 526
333 549 604
377 566 698
462 631 867
646 796 1191
864 1006 1561
1054 1214 1879
1092 1258 1944
1096 1261 1950
1099 1265 1956
1103 1268 1961
1106 1271 1967
1109 1274 1973
375 622 489
375 626 498
378 639 521
381 657 559
389 683 622
410 718 715
459 744 836
535 780 987
656 882 1210
866 1074 1569
1051 1241 1878
1137 1332 2020
1139 1333 2024
1141 1334 2028
1144 1335 2031
1146 1336 2035
1148 1337 2039
496 823 615
494 823 622
500 842 649
513 875 695
526 909 763
548 964 876
582 1019 1024
651 1044 1189
760 1102 1384
922 1240 1669
1100 1395 1970
1209 1472 2147
1215 1471 2158
1213 1464 2154
1212 1457 2150
1210 1451 2147
1209 1444 2144
670 1114 802
667 1111 806
673 1127 832
687 1160 882
709 1210 964
738 1275 1084
767 1350 1251
819 1407 1448
913 1441 1643
1054 1521 1889
1208 1645 2154
1317 1730 2340
1344 1733 2385
1338 1716 2375
1333 1700 2366
1327 1682 2354
1320 1663 2342
901 1496 1057
896 1488 1057
904 1504 1084
921 1539 1138
945 1593 1224
978 1663 1346
1012 1745 1518
1047 1822 1724
1112 1878 1948
1229 1927 2186
1361 2001 2412
1462 2063 2584
1499 2086 2647
1496 2073 2643
1489 2050 2632
1482 2027 2620
1474 2002 2607
1178 1941 1368
1171 1931 1368
1176 1946 1395
1189 1975 1448
1212 2025 1533
1239 2088 1655
1270 2162 1814
1301 2239 2012
1341 2311 2240
1422 2370 2488
1529 2418 2701
1615 2455 2847
1647 2470 2900
1651 2475 2908
1653 2472 2912
1648 2448 2901
1641 2421 2889
1419 2332 1655
1413 2324 1658
1418 2337 1688
1427 2362 1742
1444 2403 1823
1467 2457 1938
1493 2523 2088
1520 2595 2274
1549 2672 2500
1600 2740 2742
1681 2786 2944
1746 2812 3072
1770 2824 3115
1774 2828 3122
1778 2832 3130
1782 2836 3137
1779 2818 3132
1553 2551 1825
1554 2554 1837
1561 2572 1875
1572 2601 1934
1587 2639 2017
1606 2687 2127
1629 2745 2273
1651 2810 2450
1673 2883 2672
1709 2948 2901
1771 2989 3083
1822 3010 3192
1839 3016 3224
1842 3019 3230
1845 3021 3236
1848 3022 3242
1851 3024 3248
1571 2580 1849
1575 2589 1866
1585 2611 1907
1598 2644 1971
1615 2686 2061
1634 2734 2174
1657 2794 2325
1679 2860 2510
1700 2933 2737
1738 2995 2964
1798 3033 3133
1840 3049 3221
1852 3053 3244
1855 3054 3250
1857 3055 3255
1860 3056 3260
1863 3057 3266
1580 2595 1860
1584 2604 1878
1594 2627 1921
1607 2659 1985
1624 2703 2080
1645 2753 2197
1668 2814 2353
1691 2884 2552
1713 2958 2785
1755 3018 3007
1815 3052 3166
1849 3064 3236
1857 3067 3252
1860 3068 3257
1862 3069 3263
1865 3070 3268
1868 3071 3273
1589 2609 1871
1593 2619 1891
1603 2642 1935
1616 2675 2000
1634 2719 2096
1655 2772 2222
1678 2833 2381
1701 2907 2591
1725 2982 2831
1770 3038 3046
1830 3069 3194
1857 3079 3249
1862 3081 3260
1865 3082 3265
1868 3083 3271
1870 3084 3276
1873 3085 3281
1598 2624 1883
1602 2634 1903
1612 2658 1949
1626 2691 2016
1643 2735 2112
1666 2791 2246
1689 2853 2409
1712 2928 2624
1738 3005 2877
1786 3059 3083
1842 3086 3216
1864 3094 3261
1868 3095 3268
1870 3096 3273
1873 3097 3278
1876 3098 3284
1878 3099 3289
210 261 267
210 261 272
213 262 282
218 264 300
226 270 330
237 286 383
253 306 451
299 357 562
386 451 733
503 576 945
676 763 1240
850 956 1536
986 1108 1763
1032 1162 1841
1038 1169 1851
1043 1175 1860
1049 1181 1869
212 269 268
209 272 277
213 273 298
224 280 340
245 306 425
301 363 568
436 506 826
655 740 1204
891 1002 1604
1010 1137 1804
1017 1146 1816
1023 1152 1826
1029 1159 1836
1034 1166 1845
1040 1172 1855
1046 1178 1864
1051 1185 1873
210 296 282
209 296 289
210 300 304
220 306 339
246 328 414
285 359 532
405 480 765
595 679 1102
840 949 1520
1007 1137 1799
1026 1159 1831
1031 1165 1840
1036 1170 1849
1041 1176 1857
1046 1181 1865
1051 1187 1873
1056 1192 1882
227 350 307
224 346 312
220 347 329
225 357 361
246 380 420
287 405 524
373 472 705
537 629 1001
776 884 1410
990 1124 1771
1043 1184 1861
1048 1190 1869
1053 1194 1876
1057 1199 1883
1061 1204 1891
1066 1209 1898
1070 1213 1905
269 433 359
269 435 365
265 438 384
263 444 418
278 468 479
307 489 554
367 517 689
508 634 948
717 837 1311
943 1080 1693
1068 1222 1902
1073 1228 1911
1077 1231 1918
1081 1236 1925
1085 1240 1931
1089 1244 1937
1093 1247 1944
335 552 441
336 555 447
336 562 466
337 575 502
342 598 563
362 624 647
410 642 750
506 701 942
700 878 1286
915 1077 1648
1083 1256 1929
1110 1286 1973
1113 1288 1978
1116 1291 1984
1119 1293 1988
1122 1296 1993
1125 1298 1998
432 716 548
432 720 555
437 735 578
443 759 617
451 786 678
470 830 777
510 874 913
580 895 1065
704 981 1290
933 1183 1686
1106 1327 1971
1166 1384 2071
1166 1380 2071
1167 1379 2072
1168 1377 2073
1169 1376 2075
1170 1375 2077
584 970 708
581 968 711
584 979 732
595 1008 777
614 1051 849
638 1108 961
665 1177 1116
723 1219 1302
824 1256 1490
974 1361 1754
1171 1523 2093
1266 1581 2248
1266 1570 2247
1262 1556 2239
1257 1543 2231
1253 1530 2222
1249 1520 2216
789 1312 933
785 1306 933
789 1316 953
801 1344 1001
823 1393 1080
855 1461 1197
889 1542 1362
924 1615 1564
1002 1659 1783
1129 1713 2016
1275 1808 2266
1391 1885 2465
1411 1880 2499
1404 1860 2489
1398 1841 2479
1391 1819 2466
1383 1797 2452
1059 1749 1232
1051 1737 1228
1051 1742 1246
1064 1769 1292
1085 1817 1373
1114 1883 1492
1148 1960 1653
1180 2039 1850
1225 2109 2077
1319 2161 2324
1440 2216 2548
1539 2264 2716
1577 2283 2779
1571 2259 2769
1564 2234 2758
1557 2209 2746
1549 2180 2732
1321 2172 1535
1312 2160 1531
1311 2164 1552
1321 2188 1599
1337 2226 1677
1361 2283 1789
1390 2351 1940
1418 2426 2129
1449 2502 2350
1508 2570 2598
1602 2617 2817
1682 2648 2964
1713 2661 3017
1718 2666 3026
1717 2652 3023
1712 2628 3014
1705 2602 3002
1511 2482 1771
1508 2477 1773
1510 2487 1802
1520 2512 1854
1533 2548 1932
1553 2596 2039
1577 2656 2182
1601 2723 2357
1625 2797 2575
1662 2866 2811
1729 2913 3013
1791 2938 3142
1814 2948 3186
1818 2951 3193
1821 2953 3199
1823 2952 3203
1821 2940 3201
1563 2567 1838
1566 2572 1848
1574 2592 1886
1587 2623 1945
1603 2663 2030
1623 2712 2140
1645 2770 2284
1667 2834 2461
1688 2906 2679
1721 2971 2910
1779 3014 3094
1831 3034 3204
1847 3040 3237
1850 3041 3243
1853 3042 3248
1856 3043 3253
1858 3044 3259
1572 2581 1849
1574 2587 1860
1583 2607 1899
1596 2638 1959
1612 2679 2045
1633 2731 2163
1656 2789 2311
1679 2858 2502
1700 2931 2728
1737 2995 2958
1797 3033 3130
1840 3050 3220
1853 3054 3245
1855 3055 3251
1858 3056 3256
1861 3057 3261
1863 3058 3267
1581 2596 1861
1583 2602 1872
1592 2623 1912
1605 2654 1973
1622 2695 2061
1643 2749 2187
1667 2809 2339
1690 2880 2539
1712 2956 2775
1753 3017 3000
1814 3052 3163
1849 3065 3236
1858 3068 3253
1860 3069 3258
1863 3070 3264
1866 3071 3269
1869 3072 3274
1590 2610 1872
1593 2617 1884
1602 2638 1925
1615 2669 1988
1631 2711 2077
1653 2767 2208
1677 2829 2366
1700 2901 2572
1725 2980 2822
1768 3038 3038
1829 3070 3190
1857 3080 3249
1863 3082 3261
1866 3083 3266
1868 3084 3271
1871 3085 3277
1874 3086 3282
1598 2625 1884
1602 2631 1897
1611 2653 1938
1624 2685 2003
1640 2727 2093
1663 2783 2225
1687 2848 2393
1711 2922 2604
1736 3002 2862
1784 3058 3075
1841 3086 3213
1864 3095 3261
1868 3097 3269
1871 3097 3274
1874 3098 3279
1876 3099 3285
1879 3100 3290
235 263 267
238 264 272
238 266 283
244 268 299
252 271 329
258 282 377
267 301 439
290 336 522
359 418 673
458 526 862
610 690 1127
788 887 1430
942 1059 1690
1029 1158 1835
1040 1171 1854
1046 1178 1863
1051 1185 1873
255 272 269
250 274 276
248 275 293
262 279 335
270 298 418
299 349 542
421 487 792
636 719 1170
876 986 1580
1009 1137 1803
1019 1148 1819
1025 1155 1829
1031 1161 1838
1036 1168 1848
1042 1174 1857
1047 1181 1867
1053 1187 1876
245 290 272
241 294 279
235 299 303
241 303 343
259 323 417
293 357 536
408 480 769
598 681 1107
842 951 1523
1006 1135 1797
1024 1156 1829
1030 1163 1838
1035 1169 1847
1041 1175 1856
1046 1181 1864
1051 1186 1873
1056 1192 1882
234 343 302
235 345 306
234 343 323
235 351 357
253 373 420
291 400 533
386 479 726
553 644 1028
793 902 1439
996 1131 1783
1043 1184 1861
1049 1190 1869
1054 1196 1878
1059 1201 1886
1063 1207 1894
1068 1212 1902
1073 1217 1910
276 443 366
275 442 368
267 432 376
259 433 408
273 455 465
309 487 556
379 528 710
530 659 987
745 870 1359
969 1112 1737
1075 1234 1915
1081 1239 1924
1085 1244 1932
1090 1249 1940
1094 1254 1947
1099 1259 1954
1103 1263 1961
359 595 470
356 591 470
348 580 474
337 575 498
338 590 556
362 627 645
420 668 766
534 743 992
744 939 1362
961 1141 1725
1109 1296 1973
1128 1317 2005
1131 1319 2010
1134 1321 2015
1136 1322 2019
1139 1324 2023
1142 1326 2027
496 822 614
493 818 614
478 800 615
470 801 640
466 809 690
484 852 788
531 923 939
613 981 1121
762 1083 1388
1000 1297 1803
1164 1424 2072
1202 1450 2135
1200 1443 2131
1199 1437 2129
1198 1431 2126
1197 1426 2124
1197 1423 2124
675 1122 808
684 1138 820
681 1137 831
668 1126 848
668 1139 902
685 1183 1003
716 1261 1163
779 1348 1375
891 1426 1604
1044 1514 1872
1244 1659 2216
1326 1703 2354
1323 1687 2348
1317 1670 2338
1311 1653 2327
1305 1635 2315
1299 1618 2304
913 1515 1069
923 1530 1082
920 1529 1093
930 1551 1133
942 1582 1201
955 1621 1298
985 1693 1452
1026 1786 1658
1099 1878 1907
1212 1929 2152
1348 1998 2390
1467 2052 2593
1480 2040 2615
1473 2017 2604
1466 1994 2592
1458 1969 2579
1449 1943 2565
1191 1962 1383
1198 1974 1394
1195 1973 1406
1201 1991 1445
1217 2028 1520
1242 2087 1631
1273 2158 1782
1303 2235 1970
1337 2310 2190
1407 2372 2445
1515 2421 2674
1610 2458 2839
1645 2463 2896
1639 2439 2886
1633 2415 2876
1626 2388 2863
1618 2359 2850
1428 2347 1667
1432 2354 1675
1431 2356 1692
1437 2374 1736
1449 2406 1807
1468 2455 1912
1494 2517 2056
1520 2587 2233
1547 2663 2447
1589 2735 2690
1666 2786 2911
1740 2815 3060
1770 2826 3115
1775 2829 3123
1771 2811 3118
1767 2790 3110
1762 2766 3101
1549 2544 1820
1551 2548 1826
1556 2561 1854
1567 2587 1907
1580 2622 1983
1598 2669 2089
1620 2724 2227
1643 2789 2399
1665 2861 2614
1695 2928 2844
1753 2976 3042
1813 3001 3175
1836 3009 3219
1839 3011 3226
1842 3012 3232
1844 3010 3235
1844 3005 3237
1564 2567 1838
1565 2571 1844
1572 2587 1876
1585 2618 1934
1601 2656 2013
1621 2708 2129
1644 2765 2270
1667 2832 2453
1688 2904 2671
1721 2971 2905
1778 3014 3090
1831 3035 3203
1848 3042 3238
1851 3042 3244
1854 3043 3249
1856 3044 3254
1859 3045 3260
1573 2582 1850
1574 2585 1856
1581 2603 1888
1594 2633 1948
1610 2672 2029
1631 2725 2149
1655 2785 2299
1678 2855 2490
1700 2929 2719
1736 2994 2950
1796 3034 3127
1840 3051 3220
1853 3056 3246
1856 3057 3252
1859 3057 3257
1861 3058 3262
1864 3059 3268
1581 2596 1861
1583 2600 1868
1591 2618 1901
1604 2648 1962
1619 2688 2044
1640 2741 2165
1665 2805 2325
1689 2875 2521
1712 2954 2766
1751 3016 2992
1813 3053 3160
1849 3066 3236
1859 3070 3254
1861 3071 3259
1864 3071 3265
1867 3072 3270
1869 3073 3275
1590 2611 1873
1592 2615 1880
1600 2633 1914
1613 2664 1975
1628 2704 2060
1650 2757 2182
1676 2824 2352
1699 2896 2553
1723 2977 2808
1766 3037 3031
1827 3070 3187
1858 3082 3249
1864 3084 3262
1866 3085 3267
1869 3085 3272
1872 3086 3278
1874 3087 3283
1599 2625 1884
1601 2630 1892
1609 2648 1927
1622 2679 1989
1637 2720 2075
1659 2773 2198
1686 2842 2375
1709 2916 2584
1734 2997 2841
1782 3057 3068
1840 3087 3210
1865 3096 3261
1869 3098 3270
1872 3099 3275
1874 3100 3280
1877 3100 3286
1879 3101 3291
280 271 269
286 273 276
290 276 286
296 278 305
306 280 331
314 285 374
316 296 440
318 326 522
353 394 634
435 494 805
564 637 1040
728 820 1326
891 1001 1603
1010 1137 1803
1042 1174 1856
1047 1180 1866
1053 1187 1875
339 290 286
333 290 288
324 290 298
337 294 329
366 301 382
368 329 524
402 440 715
577 647 1055
817 919 1475
994 1120 1777
1021 1150 1821
1027 1157 1831
1033 1164 1842
1039 1171 1851
1044 1178 1861
1050 1184 1870
