assets/luts/LUTs by IWLTBAP (3DL)/03 - V-Log/X-6500-VLOG.3dl
# Copyright: (C) Copyright 2010-2020 by IWLTBAP SAS
# Cannot be resold, shared or otherwise redistributed
# Website: https://luts.iwltbap.com
0 128 256 384 512 640 768 896 1023
198 260 267
202 261 282
216 269 326
243 302 436
351 415 669
576 655 1071
884 993 1593
1037 1168 1849
1048 1180 1868
203 288 279
203 295 302
238 316 398
387 459 734
824 930 1492
1021 1152 1823
1032 1164 1841
1042 1175 1858
1053 1188 1876
242 387 329
238 395 360
260 423 451
337 469 637
673 781 1237
1052 1200 1877
1066 1214 1898
1074 1222 1912
1082 1231 1925
375 622 489
378 639 521
389 683 622
459 744 836
656 882 1210
1051 1241 1878
1139 1333 2024
1144 1335 2031
1148 1337 2039
670 1114 802
673 1127 832
709 1210 964
767 1350 1251
913 1441 1643
1208 1645 2154
1344 1733 2385
1333 1700 2366
1320 1663 2342
1178 1941 1368
1176 1946 1395
1212 2025 1533
1270 2162 1814
1341 2311 2240
1529 2418 2701
1647 2470 2900
1653 2472 2912
1641 2421 2889
1553 2551 1825
1561 2572 1875
1587 2639 2017
1629 2745 2273
1673 2883 2672
1771 2989 3083
1839 3016 3224
1845 3021 3236
1851 3024 3248
1580 2595 1860
1594 2627 1921
1624 2703 2080
1668 2814 2353
1713 2958 2785
1815 3052 3166
1857 3067 3252
1862 3069 3263
1868 3071 3273
1598 2624 1883
1612 2658 1949
1643 2735 2112
1689 2853 2409
1738 3005 2877
1842 3086 3216
1868 3095 3268
1873 3097 3278
1878 3099 3289
235 263 267
238 266 283
252 271 329
267 301 439
359 418 673
610 690 1127
942 1059 1690
1040 1171 1854
1051 1185 1873
245 290 272
235 299 303
259 323 417
408 480 769
842 951 1523
1024 1156 1829
1035 1169 1847
1046 1181 1864
1056 1192 1882
276 443 366
267 432 376
273 455 465
379 528 710
745 870 1359
1075 1234 1915
1085 1244 1932
1094 1254 1947
1103 1263 1961
496 822 614
478 800 615
466 809 690
531 923 939
762 1083 1388
1164 1424 2072
1200 1443 2131
1198 1431 2126
1197 1423 2124
913 1515 1069
920 1529 1093
942 1582 1201
985 1693 1452
1099 1878 1907
1348 1998 2390
1480 2040 2615
1466 1994 2592
1449 1943 2565
1428 2347 1667
1431 2356 1692
1449 2406 1807
1494 2517 2056
1547 2663 2447
1666 2786 2911
1770 2826 3115
1771 2811 3118
1762 2766 3101
1564 2567 1838
1572 2587 1876
1601 2656 2013
1644 2765 2270
1688 2904 2671
1778 3014 3090
1848 3042 3238
1854 3043 3249
1859 3045 3260
1581 2596 1861
1591 2618 1901
1619 2688 2044
1665 2805 2325
1712 2954 2766
1813 3053 3160
1859 3070 3254
1864 3071 3265
1869 3073 3275
1599 2625 1884
1609 2648 1927
1637 2720 2075
1686 2842 2375
1734 2997 2841
1840 3087 3210
1869 3098 3270
1874 3100 3280
1879 3101 3291
351 290 290
367 302 310
388 310 350
416 314 410
408 378 642
546 601 984
847 949 1523
1041 1172 1854
1053 1186 1874
466 353 355
439 344 350
447 350 398
484 413 687
768 854 1373
1022 1152 1821
1035 1167 1843
1047 1181 1864
1059 1196 1885
427 390 342
405 404 347
367 441 453
428 532 747
764 876 1381
1068 1221 1902
1078 1232 1918
1088 1242 1934
1097 1252 1950
468 772 579
471 781 591
455 779 651
497 850 884
773 1047 1409
1153 1382 2050
1185 1411 2102
1189 1412 2109
1193 1412 2115
985 1629 1148
970 1607 1139
920 1539 1150
928 1598 1381
1040 1761 1822
1361 1986 2410
1492 2066 2635
1497 2067 2644
1494 2045 2639
1522 2499 1784
1516 2492 1789
1499 2482 1846
1499 2521 2042
1534 2640 2421
1669 2801 2910
1799 2907 3161
1811 2925 3183
1818 2928 3195
1565 2569 1840
1570 2580 1859
1595 2641 1978
1640 2754 2237
1689 2901 2653
1777 3016 3085
1849 3044 3240
1855 3046 3251
1860 3048 3262
1583 2598 1863
1588 2610 1884
1613 2672 2006
1659 2786 2273
1709 2944 2728
1809 3053 3152
1860 3072 3256
1865 3074 3266
1871 3076 3277
1600 2627 1886
1606 2640 1909
1631 2702 2034
1677 2818 2307
1730 2986 2798
1837 3088 3203
1870 3100 3271
1876 3102 3282
1881 3104 3293
616 432 447
670 467 484
713 495 521
750 509 565
824 544 686
867 635 1046
907 903 1525
1066 1168 1848
1089 1197 1891
1089 730 746
1039 699 715
983 670 696
1096 737 815
1369 898 1281
1286 1197 2001
1265 1218 2029
1249 1227 2031
1220 1233 2017
1032 701 706
924 640 639
877 636 645
918 667 754
999 808 1327
1125 1224 1914
1127 1240 1934
1124 1246 1942
1123 1252 1951
871 670 615
818 678 593
783 700 602
742 846 854
872 1065 1471
1165 1361 2038
1185 1385 2079
1187 1387 2086
1190 1390 2095
880 1453 1025
960 1584 1118
906 1499 1089
901 1525 1273
1001 1661 1730
1359 1895 2394
1443 1931 2543
1438 1912 2537
1431 1886 2527
1503 2467 1758
1520 2496 1787
1496 2466 1805
1485 2482 1962
1502 2574 2354
1639 2729 2856
1779 2836 3126
1785 2841 3139
1788 2834 3145
1569 2575 1844
1573 2582 1856
1593 2629 1941
1639 2739 2177
1698 2906 2626
1785 3037 3090
1860 3066 3254
1863 3063 3263
1867 3061 3271
1584 2601 1865
1588 2608 1877
1609 2656 1967
1653 2766 2207
1712 2938 2677
1813 3068 3152
1869 3090 3269
1873 3089 3278
1876 3087 3285
1602 2629 1887
1604 2635 1898
1625 2684 1994
1668 2792 2235
1727 2966 2715
1835 3096 3194
1877 3113 3281
1882 3114 3291
1886 3114 3300
1165 780 798
1246 836 856
1316 886 912
1393 941 980
1469 988 1076
1600 1068 1296
1744 1149 1711
1636 1283 2113
1643 1325 2189
1986 1344 1371
1953 1322 1350
1881 1277 1307
1911 1305 1350
2052 1397 1549
2312 1536 2107
2400 1585 2350
2398 1583 2371
2364 1566 2387
1912 1295 1316
1829 1239 1257
1787 1217 1240
1740 1199 1246
1893 1296 1473
2172 1454 2103
2185 1504 2333
2162 1499 2344
2130 1493 2352
1902 1302 1302
1814 1251 1241
1694 1183 1168
1664 1221 1236
1743 1291 1493
1840 1428 2201
1752 1472 2330
1698 1463 2329
1637 1454 2325
1723 1302 1198
1660 1339 1170
1596 1329 1137
1565 1415 1195
1592 1743 1772
1567 1850 2437
1543 1833 2504
1522 1810 2491
1500 1783 2475
1431 2321 1640
1498 2432 1730
1495 2428 1744
1496 2427 1837
1551 2526 2226
1667 2678 2800
1772 2744 3078
1769 2729 3079
1762 2699 3071
1581 2588 1850
1585 2595 1861
1597 2618 1902
1639 2709 2080
1713 2888 2515
1807 3067 3087
1882 3102 3274
1883 3096 3285
1885 3093 3293
1594 2614 1873
1598 2621 1884
1611 2648 1932
1651 2741 2120
1719 2916 2561
1821 3092 3142
1888 3123 3289
1891 3122 3299
1892 3116 3305
1608 2638 1893
1612 2646 1906
1626 2676 1960
1665 2770 2155
1729 2942 2596
1834 3115 3176
1892 3142 3300
1898 3144 3311
1901 3143 3320
1841 1243 1269
1912 1293 1321
1971 1338 1369
2017 1376 1413
2065 1411 1475
2143 1460 1619
2275 1527 1935
2382 1573 2268
2420 1592 2389
2210 1502 1528
2211 1504 1530
2213 1510 1539
2219 1524 1562
2261 1555 1655
2399 1615 2056
2478 1635 2355
2483 1636 2377
2487 1637 2399
2223 1514 1535
2227 1518 1538
2231 1526 1549
2236 1544 1578
2278 1581 1681
2414 1638 2069
2491 1651 2377
2493 1648 2393
2495 1646 2411
2261 1548 1556
2271 1562 1562
2269 1567 1566
2282 1600 1615
2311 1656 1753
2453 1708 2148
2536 1710 2454
2537 1703 2465
2535 1698 2480
2349 1668 1621
2376 1718 1647
2371 1728 1650
2380 1779 1693
2446 1929 1948
2568 2008 2422
2580 1888 2642
2557 1861 2640
2524 1838 2642
2492 2027 1757
2493 2138 1771
2457 2175 1759
2435 2231 1790
2480 2437 2041
2622 2902 2995
2410 2793 3232
2350 2740 3210
2289 2677 3181
1663 2571 1809
1673 2577 1816
1687 2585 1827
1741 2654 1946
1880 2824 2277
2051 3141 3047
2096 3205 3344
2012 3176 3338
1987 3164 3341
1617 2615 1865
1621 2620 1874
1634 2628 1888
1683 2697 2010
1775 2860 2352
1893 3123 3062
1996 3196 3331
1985 3191 3341
1949 3171 3338
1621 2648 1896
1627 2654 1905
1636 2665 1924
1674 2737 2058
1747 2895 2414
1846 3128 3092
1940 3189 3325
1956 3198 3342
1948 3192 3349
2194 1490 1518
2207 1502 1530
2215 1511 1541
2221 1521 1557
2237 1539 1594
2288 1569 1709
2388 1613 2002
2480 1638 2326
2495 1641 2393
2218 1508 1534
2219 1510 1536
2222 1516 1546
2228 1531 1569
2268 1561 1655
2393 1619 2008
2489 1644 2355
2495 1645 2377
2500 1646 2400
2228 1517 1539
2232 1521 1542
2237 1530 1554
2249 1552 1587
2289 1588 1682
2408 1640 2022
2503 1659 2377
2504 1656 2393
2506 1653 2410
2264 1549 1559
2280 1566 1569
2287 1575 1579
2309 1612 1629
2356 1678 1768
2472 1726 2108
2554 1721 2452
2549 1709 2462
2546 1700 2472
2346 1651 1617
2382 1704 1647
2402 1732 1667
2444 1790 1721
2529 1920 1943
2652 2014 2356
2679 1909 2631
2653 1859 2614
2639 1831 2609
2533 1943 1772
2600 2060 1828
2631 2115 1855
2676 2192 1911
2797 2398 2120
3068 2866 2955
3065 2776 3236
2983 2573 3134
2942 2476 3089
2799 2528 2002
2815 2580 2020
2821 2598 2027
2837 2633 2053
2887 2749 2170
3095 3158 2836
3158 3515 3659
3141 3515 3692
3124 3509 3704
2395 2596 1852
2336 2601 1842
2368 2607 1855
2418 2648 1907
2488 2785 2091
2812 3188 2854
2960 3500 3621
2998 3522 3669
2820 3472 3631
1761 2628 1823
1776 2634 1829
1796 2640 1834
1908 2687 1897
2096 2826 2140
2384 3177 2899
2539 3401 3504
2754 3470 3599
2678 3451 3592
2224 1512 1539
2225 1515 1543
2226 1520 1550
2230 1529 1565
2249 1548 1606
2302 1579 1727
2407 1624 2032
2495 1647 2344
2507 1650 2393
2226 1514 1540
2227 1516 1542
2230 1522 1551
2237 1537 1575
2276 1568 1659
2391 1623 1977
2499 1652 2349
2506 1653 2378
2511 1655 2400
2234 1521 1544
2237 1524 1546
2242 1532 1557
2253 1554 1590
2295 1590 1684
2408 1642 2002
2512 1666 2369
2516 1664 2392
2518 1662 2410
2266 1550 1561
2280 1563 1570
2285 1570 1578
2306 1605 1625
2355 1668 1762
2470 1721 2090
2561 1724 2441
2562 1717 2461
2558 1707 2471
2341 1637 1612
2376 1688 1641
2394 1713 1658
2428 1757 1704
2504 1874 1910
2631 1963 2317
2681 1896 2609
2668 1864 2614
2648 1828 2601
2503 1883 1745
2572 1995 1803
2607 2056 1834
2659 2141 1892
2770 2321 2079
3018 2726 2855
3050 2672 3161
2996 2542 3108
2913 2346 2999
2777 2401 1971
2818 2513 2011
2833 2560 2028
2853 2600 2056
2911 2724 2175
3124 3122 2793
3249 3516 3671
3245 3523 3710
3246 3484 3708
2850 2618 2044
2852 2622 2047
2854 2627 2050
2864 2649 2065
2902 2733 2139
3048 3028 2553
3245 3548 3624
3231 3589 3740
3225 3592 3760
2855 2641 2051
2857 2645 2054
2855 2649 2054
2864 2665 2066
2899 2742 2132
3030 3024 2520
3225 3562 3627
3210 3604 3744
3207 3611 3766
2232 1518 1545
2233 1521 1549
2235 1526 1557
2240 1537 1574
2261 1557 1619
2319 1591 1752
2424 1634 2061
2508 1656 2353
2519 1659 2393
2234 1520 1545
2235 1522 1548
2238 1529 1558
2246 1544 1582
2286 1575 1664
2393 1628 1960
2506 1659 2335
2517 1662 2377
2523 1663 2400
2240 1524 1548
2242 1527 1550
2247 1535 1561
2258 1556 1593
2301 1593 1686
2411 1645 1993
2519 1671 2360
2526 1671 2390
2529 1670 2409
2268 1549 1563
2280 1561 1571
2284 1567 1579
2304 1599 1622
2354 1660 1756
2470 1715 2082
2566 1725 2429
2570 1721 2457
2569 1714 2470
2338 1628 1609
2370 1672 1635
2383 1690 1647
2413 1727 1690
2480 1834 1879
2609 1914 2278
2676 1874 2581
2673 1856 2601
2661 1832 2600
2481 1839 1726
2548 1945 1782
2593 2017 1820
2636 2085 1869
2737 2239 2041
2954 2572 2740
3003 2506 3052
2982 2459 3051
2931 2338 2991
2749 2304 1944
2811 2443 1998
2840 2518 2027
2863 2564 2056
2922 2687 2161
3123 3062 2717
3294 3490 3661
3291 3511 3708
3291 3485 3712
2875 2621 2059
2876 2625 2062
2878 2629 2064
2889 2652 2080
2929 2737 2153
3078 3031 2562
3290 3548 3614
3279 3599 3752
3277 3605 3774
2882 2643 2066
2884 2647 2069
2885 2651 2072
2891 2663 2079
2920 2724 2128
3017 2929 2375
3287 3485 3437
3276 3620 3757
3273 3631 3787
