assets/luts/LUTs by IWLTBAP (3DL)/03 - V-Log/X-9400-VLOG.3dl
# Copyright: (C) Copyright 2010-2020 by IWLTBAP SAS
# Cannot be resold, shared or otherwise redistributed
# Website: https://luts.iwltbap.com
0 128 256 384 512 640 768 896 1023
241 176 401
225 176 448
213 265 775
229 412 1357
450 514 2152
829 887 2897
1116 1112 3188
1140 1124 3212
1140 1124 3212
227 223 432
168 253 446
163 327 718
215 418 1337
419 482 2122
813 861 2865
1116 1112 3188
1140 1124 3212
1140 1124 3212
137 538 490
145 509 508
59 585 783
65 834 1225
287 958 1959
690 1159 2739
1092 1145 3176
1130 1124 3201
1140 1124 3212
197 1106 618
183 1092 608
132 1090 945
58 1148 1363
180 1496 1966
614 1849 2760
889 1759 3214
956 1558 3202
1094 1194 3196
378 1774 1028
378 1742 1012
369 1807 1190
369 1828 1579
478 2031 2100
731 2380 2785
925 2491 3186
914 2339 3213
883 2128 3212
693 2399 1505
700 2393 1505
693 2395 1519
735 2509 1799
808 2600 2335
976 2828 3023
1158 3023 3345
1131 2941 3334
1080 2855 3290
807 2686 1851
807 2686 1851
807 2686 1851
830 2770 2052
956 2887 2463
1208 3134 3157
1441 3304 3513
1453 3316 3539
1413 3304 3541
819 2698 1863
819 2698 1863
819 2698 1863
829 2733 1974
937 2880 2357
1206 3132 3087
1483 3374 3523
1525 3389 3597
1525 3389 3597
819 2698 1863
819 2698 1863
819 2698 1863
819 2698 1883
907 2851 2256
1154 3065 2943
1453 3332 3493
1525 3389 3583
1525 3389 3597
363 193 403
303 205 463
248 281 824
235 412 1362
448 498 2166
833 891 2889
1128 1112 3188
1140 1124 3212
1140 1124 3212
362 221 401
271 251 461
218 313 746
215 412 1338
419 484 2108
817 875 2877
1116 1112 3188
1140 1124 3212
1140 1124 3212
204 502 488
168 502 493
71 577 771
53 796 1198
281 906 1957
667 1119 2710
1092 1145 3176
1130 1124 3201
1140 1124 3212
212 1106 608
190 1083 608
145 1066 887
53 1126 1338
163 1486 1941
609 1826 2754
912 1743 3218
964 1546 3206
1094 1186 3196
392 1766 1012
362 1722 999
360 1777 1148
370 1819 1540
466 1995 2073
728 2372 2777
915 2476 3186
905 2317 3204
883 2097 3220
701 2383 1491
684 2367 1473
676 2368 1495
724 2495 1789
797 2591 2322
969 2803 3005
1148 3000 3338
1126 2942 3334
1080 2855 3291
807 2686 1851
807 2686 1851
807 2686 1851
829 2756 2038
956 2887 2446
1206 3116 3161
1425 3292 3497
1452 3315 3537
1409 3273 3520
819 2698 1863
819 2698 1863
819 2698 1863
819 2733 1963
937 2880 2326
1174 3104 3040
1467 3358 3511
1525 3389 3596
1513 3376 3585
819 2698 1863
819 2698 1863
819 2698 1863
819 2698 1874
907 2834 2225
1123 3049 2911
1441 3332 3469
1525 3389 3583
1525 3389 3597
755 209 430
721 235 474
622 271 734
376 409 1517
656 510 2172
934 805 2867
1134 1088 3176
1140 1124 3201
1140 1124 3212
753 239 418
717 251 448
551 283 723
361 412 1503
617 495 2169
906 818 2861
1126 1088 3176
1140 1124 3201
1140 1124 3212
745 465 462
705 450 468
436 607 825
262 721 1388
519 674 2090
809 932 2803
1101 1121 3164
1137 1124 3209
1140 1124 3212
495 1122 569
449 1098 569
341 1133 862
106 1183 1404
222 1427 1978
636 1766 2734
919 1700 3208
969 1515 3190
1094 1184 3196
534 1771 994
516 1748 977
457 1809 1237
408 1849 1564
452 1979 2062
712 2355 2778
889 2444 3161
891 2298 3197
903 2060 3242
711 2383 1566
695 2367 1531
693 2345 1514
719 2487 1768
790 2571 2297
957 2776 2958
1145 2975 3322
1110 2913 3310
1052 2826 3284
807 2686 1860
807 2686 1851
807 2674 1848
829 2739 2027
941 2872 2410
1186 3105 3135
1425 3292 3497
1444 3315 3528
1397 3260 3509
819 2698 1863
819 2698 1863
819 2698 1863
828 2725 1936
911 2854 2305
1175 3090 3029
1457 3347 3500
1525 3389 3595
1511 3374 3583
819 2698 1863
819 2698 1863
819 2698 1863
819 2698 1873
885 2814 2204
1122 3049 2879
1441 3332 3469
1525 3389 3583
1525 3389 3597
1295 267 486
1265 257 481
1271 299 674
867 432 1353
1023 506 2117
1437 809 2870
1594 965 3178
1420 972 3170
1180 1088 3186
1293 271 482
1273 257 480
1224 294 637
884 432 1281
996 506 2096
1416 793 2849
1574 956 3163
1394 973 3181
1180 1079 3186
1328 478 532
1338 472 527
1319 535 691
1010 582 1309
1011 563 2168
1401 803 2861
1538 949 3161
1361 974 3176
1180 1078 3186
1404 1020 546
1394 997 546
1337 1054 690
892 1225 1435
896 1288 2191
1343 1477 3003
1467 1499 3310
1270 1302 3205
1134 1138 3192
1255 1965 694
1260 1907 677
1103 1869 870
868 1961 1675
755 2128 2247
1023 2403 2907
1218 2428 3276
982 2235 3237
929 1990 3248
996 2501 1561
977 2479 1567
954 2471 1575
1013 2636 2084
1031 2732 2464
1152 2906 3057
1255 3018 3368
1129 2919 3318
1042 2800 3262
1082 2796 1978
1051 2795 1987
1017 2779 1979
1031 2852 2201
1112 2968 2548
1273 3152 3149
1447 3286 3491
1439 3303 3537
1403 3266 3525
940 2743 1971
939 2741 1969
913 2732 1957
888 2741 2017
947 2877 2330
1178 3101 3006
1462 3346 3502
1525 3389 3588
1511 3374 3583
839 2708 1883
839 2708 1883
829 2698 1875
829 2698 1877
880 2812 2173
1100 3023 2840
1441 3320 3453
1525 3389 3583
1525 3389 3597
1935 394 562
1897 394 554
1911 434 690
1801 510 952
1778 630 1718
1850 884 2756
2031 1080 3336
1955 1060 3346
1831 1020 3268
1928 394 554
1880 386 554
1852 406 659
1755 494 945
1739 615 1750
1826 884 2773
2033 1064 3349
1931 1058 3314
1807 1021 3261
1989 514 582
1957 500 574
1960 518 699
1901 644 1011
1720 627 1735
1804 871 2752
2015 1074 3336
1919 1046 3317
1811 1014 3254
2198 1101 594
2121 1066 594
2123 1064 707
2148 1210 1285
1898 1212 2104
1948 1303 3117
2069 1251 3498
1896 1081 3337
1732 1011 3233
2320 1943 610
2314 1909 622
2259 1887 636
2222 1957 1261
1999 2164 2268
1893 2162 3324
2082 2188 3682
1916 1947 3585
1694 1702 3445
2344 2685 791
2283 2679 799
2251 2669 786
2109 2749 1544
1961 2910 2566
1773 3124 3331
1879 3230 3605
1736 3103 3562
1467 2889 3402
2254 2957 1301
2190 2941 1337
2088 2931 1379
1854 2948 1937
1869 3176 2741
1866 3407 3424
1983 3497 3682
1836 3434 3663
1636 3348 3585
1887 2922 1546
1841 2922 1546
1808 2916 1601
1692 2918 1754
1579 3115 2616
1686 3352 3260
1863 3492 3633
1781 3481 3671
1626 3413 3612
1502 2907 1758
1487 2907 1734
1417 2895 1807
1316 2882 1884
1281 2991 2433
1394 3199 2984
1668 3418 3517
1611 3412 3597
1558 3397 3597
2828 668 530
2828 668 530
2828 676 560
2754 795 927
2569 910 1528
2726 1098 2503
2924 1272 3157
2806 1250 3255
2608 1180 3342
2836 668 530
2809 668 530
2789 654 555
2745 784 896
2541 893 1475
2701 1077 2489
2900 1270 3157
2780 1247 3298
2608 1170 3342
2834 748 540
2810 714 537
2778 687 553
2721 770 907
2527 888 1466
2672 1070 2482
2892 1263 3192
2771 1230 3291
2595 1166 3342
3055 1258 556
3021 1221 560
2997 1185 579
2925 1253 1217
2861 1334 1844
2837 1340 2687
2895 1317 3242
2744 1235 3309
2539 1150 3374
3244 2040 594
3234 2014 579
3197 1996 582
3113 1998 1273
3142 2067 2152
3105 1922 3174
3211 1806 3661
3025 1634 3636
2681 1429 3586
3400 2628 705
3368 2622 695
3359 2586 687
3263 2788 1118
3169 2883 2200
3113 3204 3383
3154 3275 3787
3004 3092 3794
2756 2825 3768
3367 2928 905
3355 2915 887
3336 2915 874
3299 2976 1067
3121 3252 2209
3033 3585 3484
2904 3708 3890
2755 3697 3890
2542 3603 3862
3240 2949 915
3259 2947 916
3226 2948 916
3154 2946 977
2966 3196 2024
2820 3575 3444
2763 3758 3886
2642 3736 3898
2465 3690 3847
3101 2949 923
3087 2933 923
3041 2945 933
2959 2949 956
2694 3087 1843
2587 3455 3241
2554 3679 3800
2449 3679 3846
2309 3633 3814
3135 919 514
3135 919 514
3135 919 514
3176 984 789
3061 1160 1592
3134 1295 2579
3320 1385 3144
3331 1401 3248
3304 1385 3232
3135 919 514
3134 919 514
3135 919 514
3176 984 789
3069 1144 1561
3132 1289 2535
3320 1373 3144
3330 1399 3246
3304 1385 3216
3135 929 514
3135 929 514
3135 929 514
3195 970 730
3084 1124 1510
3115 1266 2498
3288 1373 3105
3318 1399 3246
3292 1385 3228
3384 1287 556
3371 1273 553
3356 1256 566
3325 1262 938
3219 1342 1701
3146 1350 2535
3310 1389 3137
3318 1399 3238
3254 1385 3216
3581 1999 636
3567 1962 649
3561 1923 622
3461 1919 1088
3444 1952 2053
3435 1947 2867
3489 1766 3509
3433 1627 3501
3346 1501 3376
3655 2627 820
3639 2608 805
3639 2590 803
3603 2638 1033
3593 2773 2132
3721 3093 3232
3739 3062 3743
3713 2878 3781
3633 2573 3760
3633 2935 1040
3633 2935 1040
3633 2935 1040
3623 2929 1093
3593 3213 2001
3730 3567 3248
3733 3774 3882
3683 3794 3947
3606 3702 3910
3635 2989 1083
3623 2977 1070
3621 2975 1068
3610 2975 1072
3555 3220 1734
3644 3608 3021
3718 3858 3892
3644 3892 3951
3557 3890 3950
3605 2975 1036
3605 2975 1052
3605 2975 1036
3593 2975 1024
3553 3150 1439
3538 3532 2759
3633 3818 3836
3541 3892 3966
3424 3878 3966
3147 932 514
3147 932 514
3147 932 514
3214 966 621
3125 1137 1375
3113 1271 2387
3348 1401 3121
3389 1413 3276
3389 1413 3276
3147 932 514
3147 932 514
3147 932 514
3204 958 610
3124 1128 1367
3128 1277 2440
3343 1401 3116
3389 1413 3276
3389 1413 3264
3147 932 514
3147 932 514
3147 932 514
3188 956 593
3136 1128 1321
3105 1268 2369
3343 1399 3112
3389 1413 3276
3389 1413 3262
3310 1145 540
3301 1121 538
3245 1093 523
3260 1065 602
3161 1161 1312
3112 1275 2340
3328 1385 3079
3389 1413 3267
3374 1399 3262
3577 1833 656
3548 1802 633
3539 1772 626
3503 1715 720
3410 1760 1786
3385 1759 2609
3479 1629 3356
3481 1551 3408
3426 1466 3301
3667 2546 814
3667 2545 792
3666 2522 768
3651 2498 830
3573 2567 1875
3748 2851 3026
3775 2915 3698
3778 2664 3758
3720 2363 3740
3677 2947 1068
3675 2936 1054
3675 2933 1050
3674 2931 1068
3646 3094 1787
3799 3477 3078
3899 3743 3836
3872 3730 3937
3860 3617 3924
3677 3019 1124
3677 3019 1124
3677 3017 1122
3677 3017 1122
3636 3142 1582
3788 3523 2882
3921 3850 3796
3904 3918 3983
3874 3902 3982
3677 3019 1124
3665 3007 1112
3674 3016 1121
3677 3010 1115
3661 3064 1271
3728 3475 2587
3921 3832 3754
3918 3933 3984
3888 3936 4001
3147 932 514
3147 932 514
3147 932 514
3147 932 534
3156 1076 1132
3091 1228 2256
3316 1385 3063
3389 1413 3276
3389 1413 3276
3147 932 514
3147 932 514
3147 932 514
3147 932 534
3163 1083 1124
3055 1214 2179
3316 1385 3032
3389 1413 3264
3389 1413 3276
3147 932 514
3147 932 514
3147 932 514
3147 932 526
3162 1070 1080
3067 1206 2192
3316 1385 3051
3389 1413 3273
3389 1413 3276
3178 962 514
3168 962 514
3168 962 514
3168 952 524
3177 1078 1017
3053 1206 2118
3309 1385 3002
3389 1413 3262
3389 1413 3276
3501 1590 610
3487 1574 603
3491 1542 608
3459 1495 622
3356 1514 1361
3281 1537 2275
3392 1508 3134
3412 1452 3315
3397 1429 3292
3635 2427 721
3637 2418 741
3635 2409 721
3639 2343 709
3533 2322 1524
3672 2520 2700
3712 2559 3576
3720 2349 3726
3633 2035 3691
3677 2891 1036
3677 2889 1036
3661 2891 1027
3673 2880 998
3619 2971 1514
3760 3327 2766
3905 3641 3763
3876 3628 3926
3886 3473 3898
3677 3005 1110
3677 3005 1110
3667 3005 1110
3663 3005 1110
3662 3065 1264
3734 3451 2559
3922 3818 3740
3918 3904 3970
3904 3890 3984
3677 3019 1124
3677 3019 1124
3677 3019 1124
3677 3019 1124
3669 3035 1196
3718 3404 2340
3922 3790 3658
3948 3921 3968
3934 3950 4015
