assets/luts/LUTs by IWLTBAP (3DL)/03 - V-Log/X-9400-VLOG.3dl
# Copyright: (C) Copyright 2010-2020 by IWLTBAP SAS
# Cannot be resold, shared or otherwise redistributed
# Website: https://luts.iwltbap.com
0 256 512 768 1023
241 176 401
213 265 775
450 514 2152
1116 1112 3188
1140 1124 3212
137 538 490
59 585 783
287 958 1959
1092 1145 3176
1140 1124 3212
378 1774 1028
369 1807 1190
478 2031 2100
925 2491 3186
883 2128 3212
807 2686 1851
807 2686 1851
956 2887 2463
1441 3304 3513
1413 3304 3541
819 2698 1863
819 2698 1863
907 2851 2256
1453 3332 3493
1525 3389 3597
755 209 430
622 271 734
656 510 2172
1134 1088 3176
1140 1124 3212
745 465 462
436 607 825
519 674 2090
1101 1121 3164
1140 1124 3212
534 1771 994
457 1809 1237
452 1979 2062
889 2444 3161
903 2060 3242
807 2686 1860
807 2674 1848
941 2872 2410
1425 3292 3497
1397 3260 3509
819 2698 1863
819 2698 1863
885 2814 2204
1441 3332 3469
1525 3389 3597
1935 394 562
1911 434 690
1778 630 1718
2031 1080 3336
1831 1020 3268
1989 514 582
1960 518 699
1720 627 1735
2015 1074 3336
1811 1014 3254
2320 1943 610
2259 1887 636
1999 2164 2268
2082 2188 3682
1694 1702 3445
2254 2957 1301
2088 2931 1379
1869 3176 2741
1983 3497 3682
1636 3348 3585
1502 2907 1758
1417 2895 1807
1281 2991 2433
1668 3418 3517
1558 3397 3597
3135 919 514
3135 919 514
3061 1160 1592
3320 1385 3144
3304 1385 3232
3135 929 514
3135 929 514
3084 1124 1510
3288 1373 3105
3292 1385 3228
3581 1999 636
3561 1923 622
3444 1952 2053
3489 1766 3509
3346 1501 3376
3633 2935 1040
3633 2935 1040
3593 3213 2001
3733 3774 3882
3606 3702 3910
3605 2975 1036
3605 2975 1036
3553 3150 1439
3633 3818 3836
3424 3878 3966
3147 932 514
3147 932 514
3156 1076 1132
3316 1385 3063
3389 1413 3276
3147 932 514
3147 932 514
3162 1070 1080
3316 1385 3051
3389 1413 3276
3501 1590 610
3491 1542 608
3356 1514 1361
3392 1508 3134
3397 1429 3292
3677 2891 1036
3661 2891 1027
3619 2971 1514
3905 3641 3763
3886 3473 3898
3677 3019 1124
3677 3019 1124
3669 3035 1196
3922 3790 3658
3934 3950 4015
