assets/luts/LUTs by IWLTBAP (3DL)/03 - V-Log/X-9400-VLOG.3dl
# Copyright: (C) Copyright 2010-2020 by IWLTBAP SAS
# Cannot be resold, shared or otherwise redistributed
# Website: https://luts.iwltbap.com
0 64 128 192 256 320 384 448 512 576 640 704 768 832 896 960 1023
241 176 401
241 176 417
225 176 448
241 219 550
213 265 775
193 370 1047
229 412 1357
300 427 1755
450 514 2152
604 668 2541
829 887 2897
1016 1043 3087
1116 1112 3188
1140 1124 3212
1140 1124 3212
1140 1124 3212
1140 1124 3212
256 192 417
226 207 418
194 221 432
210 237 550
197 265 759
193 370 1042
229 412 1357
300 427 1755
450 514 2176
634 668 2581
835 893 2896
1047 1059 3102
1128 1112 3199
1140 1124 3212
1140 1124 3212
1140 1124 3212
1140 1124 3212
227 223 432
225 238 432
168 253 446
163 295 509
163 327 718
174 405 971
215 418 1337
277 418 1716
419 482 2122
612 652 2543
813 861 2865
1016 1032 3076
1116 1112 3188
1140 1124 3212
1140 1124 3212
1140 1124 3212
1140 1124 3212
183 325 447
183 328 447
150 355 488
135 373 550
93 426 714
89 544 955
142 592 1259
233 538 1652
397 582 2092
598 675 2528
800 874 2852
1016 1041 3076
1116 1112 3188
1140 1124 3212
1140 1124 3212
1140 1124 3212
1140 1124 3212
137 538 490
164 507 478
145 509 508
132 539 593
59 585 783
52 703 1017
65 834 1225
173 866 1557
287 958 1959
429 1107 2330
690 1159 2739
981 1117 3062
1092 1145 3176
1118 1124 3200
1130 1124 3201
1140 1124 3212
1140 1124 3212
129 779 525
133 774 520
129 774 550
129 778 628
67 783 857
48 843 1066
48 978 1275
85 1111 1552
240 1242 1943
427 1417 2348
624 1500 2739
845 1512 3055
955 1464 3135
1064 1228 3166
1104 1157 3196
1118 1156 3201
1129 1124 3201
197 1106 618
197 1106 618
183 1092 608
168 1090 696
132 1090 945
78 1094 1190
58 1148 1363
71 1291 1637
180 1496 1966
413 1730 2355
614 1849 2760
783 1808 3079
889 1759 3214
942 1651 3214
956 1558 3202
966 1477 3139
1094 1194 3196
275 1423 786
275 1423 786
269 1383 761
255 1412 825
224 1432 1043
202 1426 1261
180 1433 1484
163 1540 1721
302 1746 2016
492 1988 2393
649 2163 2764
775 2185 3045
875 2140 3211
899 2055 3237
906 1930 3251
907 1773 3214
934 1679 3221
378 1774 1028
378 1766 1028
378 1742 1012
371 1757 1033
369 1807 1190
369 1823 1345
369 1828 1579
386 1898 1831
478 2031 2100
606 2207 2454
731 2380 2785
837 2489 3039
925 2491 3186
915 2433 3204
914 2339 3213
891 2229 3212
883 2128 3212
565 2103 1221
556 2094 1213
564 2086 1226
565 2078 1236
565 2127 1308
610 2189 1466
630 2221 1640
636 2254 1888
668 2315 2201
747 2436 2562
848 2590 2892
953 2741 3131
1008 2777 3226
1005 2739 3232
984 2677 3225
974 2620 3218
920 2525 3203
693 2399 1505
714 2399 1505
700 2393 1505
694 2383 1489
693 2395 1519
714 2443 1651
735 2509 1799
750 2562 2013
808 2600 2335
880 2713 2709
976 2828 3023
1093 2962 3250
1158 3023 3345
1166 2997 3351
1131 2941 3334
1105 2895 3290
1080 2855 3290
781 2606 1759
791 2606 1759
792 2606 1759
783 2606 1759
777 2606 1759
776 2617 1836
812 2685 1975
838 2738 2171
901 2806 2459
991 2902 2817
1137 3047 3147
1251 3142 3340
1309 3185 3444
1326 3187 3470
1322 3176 3476
1282 3150 3445
1251 3118 3441
807 2686 1851
807 2686 1851
807 2686 1851
807 2686 1851
807 2686 1851
818 2709 1912
830 2770 2052
885 2819 2238
956 2887 2463
1072 2987 2826
1208 3134 3157
1356 3262 3401
1441 3304 3513
1453 3316 3537
1453 3316 3539
1440 3315 3552
1413 3304 3541
819 2698 1863
819 2698 1863
819 2698 1863
819 2698 1863
819 2698 1863
828 2707 1883
834 2776 2030
884 2816 2200
953 2896 2419
1069 2996 2776
1221 3144 3143
1379 3291 3412
1472 3363 3525
1499 3375 3571
1512 3375 3584
1512 3375 3584
1512 3375 3584
819 2698 1863
819 2698 1863
819 2698 1863
819 2698 1863
819 2698 1863
819 2698 1863
829 2733 1974
858 2794 2138
937 2880 2357
1040 2981 2682
1206 3132 3087
1372 3288 3398
1483 3374 3523
1512 3387 3584
1525 3389 3597
1525 3389 3597
1525 3389 3597
819 2698 1863
819 2698 1863
819 2698 1863
819 2698 1863
819 2698 1863
819 2698 1863
828 2723 1933
844 2779 2092
922 2866 2310
1039 2951 2627
1175 3087 3024
1341 3247 3342
1468 3347 3512
1512 3375 3583
1525 3389 3596
1525 3389 3597
1525 3389 3597
819 2698 1863
819 2698 1863
819 2698 1863
819 2698 1863
819 2698 1863
819 2698 1863
819 2698 1883
844 2764 2046
907 2851 2256
1024 2944 2534
1154 3065 2943
1326 3232 3316
1453 3332 3493
1512 3375 3552
1525 3389 3583
1525 3389 3597
1525 3389 3597
287 192 417
257 192 418
240 192 461
253 234 525
244 269 728
198 370 1000
229 412 1351
291 418 1755
433 498 2136
619 652 2541
813 862 2865
1016 1033 3076
1116 1112 3188
1140 1124 3212
1140 1124 3212
1140 1124 3212
1140 1124 3212
288 193 418
270 207 431
227 208 434
225 222 533
213 265 768
193 370 1019
229 412 1357
300 426 1755
449 513 2152
604 667 2542
829 887 2894
1017 1043 3087
1117 1112 3188
1140 1124 3212
1140 1124 3212
1140 1124 3212
1140 1124 3212
258 207 432
258 238 418
170 251 446
165 293 507
178 313 728
179 401 984
215 418 1337
277 418 1716
419 497 2122
590 653 2527
820 878 2871
1031 1044 3087
1127 1112 3188
1140 1124 3212
1140 1124 3212
1140 1124 3212
1140 1124 3212
185 325 447
185 312 431
150 342 488
135 373 524
84 426 701
76 535 942
149 587 1253
233 538 1659
395 555 2098
588 672 2512
790 874 2841
1007 1041 3063
1116 1112 3188
1140 1124 3212
1140 1124 3212
1140 1124 3212
1140 1124 3212
148 519 478
149 517 474
144 509 521
120 539 594
56 593 782
48 699 977
67 830 1231
173 866 1555
287 940 1949
421 1107 2320
654 1184 2710
954 1117 3041
1092 1145 3176
1118 1124 3200
1130 1124 3201
1140 1124 3212
1140 1124 3212
129 774 520
143 788 534
130 749 540
116 760 628
80 794 834
52 846 1058
48 978 1275
85 1111 1552
240 1252 1917
427 1429 2327
634 1517 2746
844 1519 3052
966 1464 3135
1072 1239 3166
1104 1156 3187
1118 1146 3201
1129 1124 3201
206 1106 618
197 1106 618
182 1075 623
167 1084 711
136 1067 902
66 1069 1169
58 1132 1373
71 1287 1637
184 1504 1968
443 1760 2386
639 1845 2769
803 1808 3106
896 1759 3222
958 1665 3238
971 1557 3188
990 1437 3157
1094 1194 3196
290 1423 792
275 1415 786
268 1390 776
239 1397 818
224 1423 1035
197 1418 1274
180 1439 1487
163 1523 1712
302 1746 2025
498 1991 2401
649 2155 2751
785 2195 3062
871 2124 3195
893 2034 3243
906 1922 3245
923 1790 3261
959 1663 3252
369 1758 1020
377 1751 1020
364 1736 1012
355 1735 1012
353 1790 1161
372 1838 1333
390 1846 1574
397 1878 1807
481 2008 2111
602 2198 2446
734 2380 2785
842 2489 3039
909 2491 3184
907 2420 3189
907 2362 3212
906 2235 3219
891 2128 3219
541 2063 1221
555 2084 1221
556 2070 1227
556 2069 1229
556 2113 1312
594 2173 1442
617 2205 1630
621 2223 1915
673 2304 2231
755 2433 2562
848 2585 2892
958 2712 3118
1023 2770 3221
1010 2741 3233
975 2700 3231
967 2605 3209
935 2534 3209
714 2389 1505
714 2398 1505
700 2383 1491
698 2383 1489
698 2383 1518
726 2447 1654
750 2509 1804
760 2565 2029
811 2591 2334
880 2679 2687
969 2806 3007
1089 2948 3236
1164 3019 3346
1173 3012 3366
1128 2952 3346
1125 2910 3314
1074 2849 3300
792 2606 1759
792 2606 1759
792 2606 1759
779 2593 1746
776 2590 1743
786 2627 1843
818 2685 1979
838 2746 2174
916 2811 2435
996 2891 2786
1122 3023 3110
1240 3127 3327
1324 3195 3454
1334 3197 3476
1313 3186 3466
1291 3155 3451
1235 3103 3426
807 2686 1851
807 2686 1851
807 2686 1851
807 2686 1851
807 2686 1851
815 2709 1909
829 2770 2052
885 2819 2234
971 2898 2461
1058 2987 2826
1224 3135 3182
1366 3277 3400
1425 3300 3500
1440 3306 3552
1453 3316 3552
1440 3304 3541
1413 3304 3541
819 2698 1863
819 2698 1863
819 2698 1863
819 2698 1863
819 2698 1852
819 2698 1859
827 2771 2015
873 2811 2184
953 2896 2403
1053 2996 2745
1221 3148 3133
1383 3299 3408
1482 3363 3521
1499 3375 3571
1512 3375 3584
1512 3375 3584
1512 3375 3584
819 2698 1863
819 2698 1863
819 2698 1863
819 2698 1863
819 2698 1853
819 2698 1859
820 2733 1974
858 2794 2138
937 2880 2357
1040 2981 2675
1190 3117 3071
1356 3273 3358
1483 3362 3523
1512 3387 3584
1525 3389 3597
1525 3389 3597
1525 3389 3597
819 2698 1863
819 2698 1863
819 2698 1863
819 2698 1863
819 2698 1863
819 2698 1863
820 2723 1933
843 2780 2092
915 2850 2295
1038 2950 2596
1169 3100 2999
1341 3257 3336
1452 3344 3496
1512 3375 3583
1525 3389 3596
1525 3389 3597
1525 3389 3597
819 2698 1863
819 2698 1863
819 2698 1863
819 2698 1863
819 2698 1863
819 2698 1863
819 2707 1883
828 2779 2030
906 2842 2233
993 2920 2503
1144 3056 2933
1326 3232 3311
1441 3332 3481
1512 3375 3552
1525 3389 3583
1525 3389 3597
1525 3389 3597
363 193 403
318 193 431
303 205 463
288 222 563
248 281 824
223 386 1077
235 412 1362
299 418 1755
448 498 2166
620 659 2571
833 891 2889
1032 1052 3087
1128 1112 3188
1140 1124 3212
1140 1124 3212
1140 1124 3212
1140 1124 3212
349 193 403
332 207 417
301 209 460
284 209 536
272 276 786
212 384 1059
234 412 1362
291 418 1731
433 498 2137
589 637 2526
804 862 2856
1016 1032 3076
1116 1112 3188
1140 1124 3212
1140 1124 3212
1140 1124 3212
1140 1124 3212
362 221 401
333 223 401
271 251 461
255 282 559
218 313 746
183 392 990
215 412 1338
277 418 1716
419 484 2108
604 643 2525
817 875 2877
1016 1042 3076
1116 1112 3188
1140 1124 3212
1140 1124 3212
1140 1124 3212
1140 1124 3212
319 298 444
301 296 431
240 315 465
186 396 563
101 444 729
76 533 970
164 550 1281
239 502 1679
397 511 2092
591 651 2512
806 878 2866
1007 1043 3063
1116 1112 3188
1140 1124 3212
1140 1124 3212
1140 1124 3212
1140 1124 3212
204 502 488
200 502 488
168 502 493
137 565 581
71 577 771
40 668 964
53 796 1198
157 836 1540
281 906 1957
427 1064 2320
667 1119 2710
953 1100 3038
1092 1145 3176
1118 1124 3200
1130 1124 3201
1140 1124 3212
1140 1124 3212
189 774 536
163 758 524
145 756 534
130 778 623
95 783 817
53 831 1042
48 957 1242
71 1078 1521
212 1207 1880
413 1398 2298
605 1483 2720
809 1499 3030
964 1454 3135
1064 1214 3166
1104 1156 3195
1119 1146 3201
1129 1124 3201
212 1106 608
196 1075 608
190 1083 608
176 1074 679
145 1066 887
66 1054 1147
53 1126 1338
59 1268 1607
163 1486 1941
408 1710 2334
609 1826 2754
780 1798 3077
912 1743 3218
950 1635 3238
964 1546 3206
997 1382 3164
1094 1186 3196
291 1393 762
283 1391 762
275 1391 762
260 1391 823
238 1401 1010
190 1381 1226
164 1405 1454
144 1516 1691
299 1738 2007
492 1978 2387
635 2128 2760
782 2143 3056
873 2092 3195
891 2002 3244
900 1892 3242
907 1753 3237
945 1654 3238
392 1766 1012
378 1758 1012
362 1722 999
360 1720 1003
360 1777 1148
369 1804 1314
370 1819 1540
387 1885 1799
466 1995 2073
602 2194 2435
728 2372 2777
835 2471 3039
915 2476 3186
907 2395 3204
905 2317 3204
891 2213 3206
883 2097 3220
564 2085 1221
556 2087 1206
542 2055 1213
540 2054 1214
540 2082 1291
588 2162 1439
614 2201 1621
628 2230 1885
677 2299 2201
744 2418 2548
845 2578 2883
944 2709 3106
1008 2756 3221
991 2725 3218
967 2670 3211
958 2605 3209
922 2526 3217
701 2383 1491
693 2367 1474
684 2367 1473
678 2367 1473
676 2368 1495
712 2433 1638
724 2495 1789
765 2538 2002
797 2591 2322
866 2678 2687
969 2803 3005
1086 2934 3230
1148 3000 3338
1157 2988 3344
1126 2942 3334
1097 2887 3292
1080 2855 3291
792 2606 1759
781 2606 1759
776 2592 1745
767 2590 1744
765 2590 1743
774 2628 1829
807 2675 1971
848 2728 2154
907 2792 2408
981 2880 2772
1110 3004 3101
1240 3119 3327
1309 3178 3441
1334 3198 3479
1308 3171 3466
1282 3146 3442
1260 3113 3434
807 2686 1851
807 2686 1851
807 2686 1851
807 2686 1851
807 2686 1851
815 2709 1899
829 2756 2038
885 2815 2220
956 2887 2446
1059 2989 2811
1206 3116 3161
1340 3246 3385
1425 3292 3497
1440 3306 3524
1452 3315 3537
1440 3303 3536
1409 3273 3520
819 2698 1863
819 2698 1863
819 2698 1863
819 2698 1863
819 2698 1863
819 2698 1874
827 2763 2015
873 2811 2176
953 2896 2394
1067 3007 2755
1218 3141 3130
1378 3289 3404
1469 3360 3510
1499 3373 3571
1512 3375 3584
1512 3374 3583
1498 3361 3570
819 2698 1863
819 2698 1863
819 2698 1863
819 2698 1863
819 2698 1863
819 2698 1863
819 2733 1963
858 2794 2114
937 2880 2326
1038 2967 2652
1174 3104 3040
1356 3263 3352
1467 3358 3511
1512 3375 3582
1525 3389 3596
1525 3388 3596
1513 3376 3585
819 2698 1863
819 2698 1863
819 2698 1863
819 2698 1863
819 2698 1863
819 2698 1863
819 2707 1894
843 2765 2071
908 2850 2280
1025 2950 2588
1160 3096 2998
1327 3244 3326
1452 3334 3495
1512 3375 3569
1525 3389 3585
1525 3389 3597
1525 3389 3597
819 2698 1863
819 2698 1863
819 2698 1863
819 2698 1863
819 2698 1863
819 2698 1863
819 2698 1874
828 2750 2015
907 2834 2225
1000 2927 2502
1123 3049 2911
1294 3205 3270
1441 3332 3469
1512 3375 3552
1525 3389 3583
1525 3389 3597
1525 3389 3597
515 206 401
484 206 433
437 220 464
422 224 539
378 278 818
280 386 1120
277 401 1460
342 411 1790
458 498 2145
620 646 2544
829 879 2881
1016 1043 3076
1116 1112 3188
1140 1124 3212
1140 1124 3212
1140 1124 3212
1140 1124 3212
487 206 401
483 208 417
437 220 462
406 222 537
352 281 812
276 386 1128
292 411 1474
349 417 1794
448 498 2142
601 652 2539
827 877 2878
1016 1043 3076
1116 1112 3188
1140 1124 3212
1140 1124 3212
1140 1124 3212
