assets/luts/LUTs by IWLTBAP (3DL)/07 - Utility/DJI D-Log M to Rec.709/DJI D-Log M to Rec709 (Beta).3dl
# Copyright: (C) Copyright 2010-2020 by IWLTBAP SAS
# Cannot be resold, shared or otherwise redistributed
# Website: https://luts.iwltbap.com
0 256 512 768 1023
1737 1771 1758
1275 1345 1185
1440 1494 1197
1497 1603 1259
1848 1974 1520
1833 1873 1859
1761 1797 1783
1911 1952 1936
1962 1951 1934
549 675 727
2130 1844 1767
2079 1804 1798
1986 1727 1723
1760 1536 1533
1530 1411 1376
1247 1393 1144
1268 1416 1164
1317 1510 1247
962 1168 1000
729 943 836
1860 1899 1884
1033 1068 1034
772 881 853
909 1098 1037
844 1081 1019
1367 1392 1292
1371 1432 1268
1371 1428 1201
1606 1665 1416
1474 1581 1305
1483 1512 1474
1596 1623 1612
1527 1552 1543
1596 1623 1612
643 759 782
2567 2351 2264
2294 2014 2002
2009 1787 1748
1955 1701 1698
2434 2144 2020
1247 1393 1144
1143 1405 1129
1111 1334 1151
785 1023 836
611 951 819
1626 1598 1589
1189 1227 1190
1056 1163 1072
830 961 853
1093 1249 1212
1560 1621 1444
1371 1432 1268
1073 1138 993
1972 2052 1853
1953 1942 1854
1932 1836 1857
1860 1899 1884
1890 1933 1883
1900 1890 1803
1890 1933 1883
1987 1845 1801
1967 1790 1750
1903 1851 1804
1923 1832 1750
1904 1732 1621
1130 1268 1088
893 1138 945
851 1077 963
593 856 726
569 892 837
1807 1752 1600
2283 2128 2001
2354 2002 2027
2195 2048 1923
2205 1962 1843
1450 1556 1285
1161 1264 1026
1560 1621 1444
1965 1999 1799
1995 1939 1853
2566 2591 2541
2585 2609 2589
2496 2561 2437
2107 2191 2064
2302 2374 2249
1969 1913 1827
1995 1939 1853
1969 1913 1827
1974 1874 1828
2042 1897 1852
924 1027 943
893 1138 945
1099 1326 1172
715 937 854
660 975 892
2833 2902 2782
1982 1848 1693
2316 2030 1945
2232 1989 1868
2243 2007 1922
1261 1444 1040
1307 1497 1204
1214 1274 1064
1890 1973 1777
1969 1913 1827
2135 2217 2090
2600 2610 2488
2655 2716 2563
2701 2769 2507
2681 2746 2481
1903 1851 1804
1974 1874 1828
1987 1845 1801
2239 2176 2085
2657 2672 2589
832 1057 945
664 891 836
844 1081 1019
800 1043 982
642 968 910
1610 1672 1566
1852 1715 1677
2066 1833 1824
2161 1881 1874
2322 1961 1919
