assets/luts/LUTs by IWLTBAP (3DL)/07 - Utility/DJI D-Log M to Rec.709/DJI D-Log M to Rec709 (Beta).3dl
# Copyright: (C) Copyright 2010-2020 by IWLTBAP SAS
# Cannot be resold, shared or otherwise redistributed
# Website: https://luts.iwltbap.com
0 128 256 384 512 640 768 896 1023
1737 1771 1758
1675 1696 1585
1275 1345 1185
1383 1441 1245
1440 1494 1197
1555 1616 1300
1497 1603 1259
1565 1626 1276
1848 1974 1520
1047 1161 1152
1413 1542 1592
1664 1633 1684
1060 1087 1132
1303 1290 1339
1303 1290 1339
1471 1608 1567
1705 1859 1809
1704 1912 1861
1833 1873 1859
1338 1368 1360
1761 1797 1783
1911 1952 1936
1911 1952 1936
1911 1952 1936
1962 1951 1934
1900 2042 2095
549 675 727
2253 2186 2057
2462 2314 2185
2427 2355 2186
2317 2255 2164
2304 2245 2193
2020 1965 1878
1360 1389 1383
1245 1240 1230
1319 1353 1316
2130 1844 1767
2099 1818 1743
2079 1804 1798
1986 1727 1723
1986 1727 1723
1902 1652 1649
1760 1536 1533
1627 1503 1468
1530 1411 1376
1706 1644 1634
1706 1644 1634
1743 1717 1707
1690 1719 1708
1690 1719 1708
1666 1694 1683
1666 1694 1683
1647 1677 1635
1666 1694 1683
1247 1393 1144
1268 1416 1164
1268 1416 1164
1383 1533 1266
1317 1510 1247
1118 1387 1171
962 1168 1000
812 1027 890
729 943 836
1056 1163 1072
996 1128 959
1271 1422 1228
1282 1434 1273
1305 1500 1271
1149 1327 1027
1006 1178 919
1123 1265 1028
1228 1371 1124
1860 1899 1884
1690 1719 1708
1033 1068 1034
892 1013 980
772 881 853
813 976 944
909 1098 1037
713 960 927
844 1081 1019
1587 1648 1542
1560 1621 1444
1371 1432 1268
1460 1528 1352
1461 1522 1285
1237 1294 1082
1582 1642 1392
1711 1785 1456
1462 1567 1262
1348 1484 1475
1532 1667 1685
1540 1564 1614
1303 1290 1339
1852 1883 1938
1850 1822 1912
1513 1650 1637
1701 1851 1835
1785 1936 1886
1427 1459 1451
1360 1389 1383
1713 1745 1733
1886 1925 1910
1911 1952 1936
1911 1952 1936
1886 1925 1910
1367 1501 1522
552 721 746
1465 1371 1427
2409 2217 2273
2402 2334 2244
2443 2370 2241
2241 2092 2003
1510 1385 1284
1394 1344 1337
1706 1644 1634
1647 1677 1635
2232 1989 1868
2018 1797 1720
2009 1787 1748
1986 1727 1723
1928 1675 1673
1874 1629 1626
1788 1559 1556
1840 1634 1527
1759 1528 1459
1748 1594 1558
1725 1570 1535
1772 1680 1604
1772 1680 1604
1729 1667 1657
1672 1646 1635
2431 2398 2383
1524 1497 1520
1683 1620 1611
1268 1416 1164
1200 1428 1147
1259 1449 1164
1271 1422 1228
1227 1468 1274
1248 1492 1295
1043 1299 1092
832 1057 945
692 904 799
994 1132 1017
926 1090 926
1271 1422 1228
1326 1524 1292
1369 1617 1312
1171 1350 1107
1140 1317 1048
1066 1277 1013
1118 1387 1171
1833 1873 1859
1860 1899 1884
1130 1207 1171
914 1031 998
914 1031 998
1051 1168 1131
973 1129 1092
698 929 873
682 910 854
1367 1392 1292
1369 1389 1223
1371 1432 1268
1392 1456 1290
1371 1428 1201
1371 1428 1201
1606 1665 1416
1438 1497 1264
1474 1581 1305
1044 1029 1073
1060 1087 1132
1078 1107 1152
1137 1126 1171
1257 1247 1296
1157 1146 1191
1118 1147 1192
1196 1227 1275
1224 1261 1252
1483 1512 1474
1483 1512 1474
1596 1623 1612
1596 1623 1612
1527 1552 1543
1550 1576 1566
1596 1623 1612
908 1019 1037
643 759 782
680 709 781
934 912 980
1154 1078 1150
2268 2120 2140
2521 2343 2295
2406 2261 2132
1945 1848 1803
1668 1612 1537
2266 2202 2112
2567 2351 2264
2515 2260 2211
2294 2014 2002
2135 1855 1849
2009 1787 1748
1986 1727 1723
1955 1701 1698
1986 1727 1723
2434 2144 2020
2412 1961 1887
2337 1900 1865
2412 1961 1887
2456 1906 1802
2289 2003 1920
1839 1632 1627
1672 1549 1514
1683 1620 1611
1683 1620 1611
1247 1393 1144
1143 1405 1129
1143 1405 1129
1118 1387 1171
1111 1334 1151
1136 1410 1191
785 1023 836
697 1047 910
611 951 819
1106 1340 1212
1111 1334 1151
1155 1432 1211
1006 1258 1055
1241 1522 1229
1013 1255 997
893 1126 908
763 991 780
893 1138 945
1626 1598 1589
1342 1375 1338
1189 1227 1190
1014 1112 998
1056 1163 1072
963 1066 979
830 961 853
713 863 836
1093 1249 1212
1549 1567 1496
1605 1668 1490
1371 1432 1268
1152 1218 1067
1129 1198 1048
1235 1300 1146
1275 1345 1185
1392 1456 1290
1264 1337 1207
1144 1139 1129
1067 1100 1091
1157 1084 1130
1108 1067 1110
1090 1048 1091
1126 1085 1130
1070 1106 1071
1036 1064 976
1015 1049 1015
918 871 870
954 985 979
974 1004 998
936 967 961
1186 1220 1210
1790 1731 1652
1552 1495 1422
1427 1459 1451
1427 1459 1451
802 779 872
864 808 927
935 890 887
884 809 833
1462 1304 1356
2221 2032 2088
2172 2029 1979
1668 1612 1537
2211 2150 2059
2066 1833 1824
2453 2229 2214
2453 2229 2214
2403 2183 2133
1875 1741 1702
1649 1526 1491
1632 1471 1467
2009 1787 1748
2367 2083 1997
2403 2060 1939
2506 2079 1962
2529 2018 1907
2489 1953 1883
2374 1965 1888
1823 1562 1530
1914 1822 1778
1785 1682 1707
1725 1660 1682
1296 1486 1226
1173 1454 1231
1025 1278 1073
1025 1278 1073
1000 1263 1113
990 1214 1093
692 904 799
611 951 819
569 892 837
922 1145 1056
935 1153 1037
1118 1387 1171
962 1168 1000
959 1232 981
1031 1276 1016
775 1061 873
771 1016 855
719 970 836
2515 2411 2322
1984 1883 1800
1873 1780 1700
1875 1741 1702
1852 1715 1677
1868 1661 1626
1896 1644 1574
1702 1547 1512
1804 1630 1653
1560 1621 1444
1535 1598 1421
1371 1432 1268
1110 1178 1030
1073 1138 993
1890 1973 1777
1972 2052 1853
1906 1943 1857
1953 1942 1854
1966 1867 1855
1992 1894 1881
1984 1887 1908
1812 1962 1912
1779 1875 1860
1657 1807 1759
1841 1874 1754
1841 1874 1754
1841 1874 1754
1932 1836 1857
1886 1925 1910
1860 1899 1884
1886 1925 1910
1890 1933 1883
2140 2126 2035
1900 1890 1803
1864 1907 1858
1890 1933 1883
1878 1909 1963
1875 1847 1937
1873 1819 1806
1894 1837 1858
2008 1823 1881
2035 1848 1907
2017 1871 1826
1987 1845 1801
1969 1913 1827
1987 1845 1801
1967 1790 1750
1967 1790 1750
1923 1832 1750
1903 1851 1804
1886 1835 1752
1923 1832 1750
1967 1790 1750
1904 1732 1621
1875 1741 1702
1967 1790 1750
2009 1787 1748
2009 1787 1748
2009 1787 1748
2017 1871 1826
1542 1485 1448
1195 1158 1149
1174 1137 1129
1130 1268 1088
980 1188 1018
893 1138 945
962 1168 1000
851 1077 963
754 1009 873
593 856 726
554 867 764
569 892 837
909 1098 1037
1088 1318 1192
1025 1278 1073
856 1099 909
875 1180 909
791 1142 873
898 1237 1038
678 1004 819
675 971 837
1807 1752 1600
2355 2247 2079
2283 2128 2001
2321 2041 2028
2354 2002 2027
2268 2072 1947
2195 2048 1923
2205 1962 1843
2205 1962 1843
1327 1429 1203
1426 1488 1288
1383 1441 1245
1129 1198 1048
1073 1138 993
2043 2077 1876
2018 2051 1850
1995 1939 1853
1995 1939 1853
1903 1851 1804
1903 1851 1804
1898 1845 1831
1898 1845 1831
1966 1867 1855
1966 1867 1855
1969 1913 1827
1969 1913 1827
1903 1851 1804
2026 1975 1959
2378 2406 2356
2607 2633 2613
2566 2591 2541
2314 2390 2303
2135 2217 2090
2410 2426 2299
2410 2426 2299
2284 2310 2222
2036 2074 2092
1856 1891 1911
1886 1925 1910
1984 1887 1908
2026 1884 1907
2035 1848 1907
2026 1884 1907
2042 1897 1852
1995 1939 1853
1995 1939 1853
1995 1939 1853
1995 1939 1853
1995 1939 1853
1995 1939 1853
1995 1939 1853
2000 1900 1853
2042 1897 1852
2042 1897 1852
1969 1913 1827
1969 1913 1827
1969 1913 1827
1969 1913 1827
1995 1939 1853
1995 1939 1853
2167 2152 2061
2319 2345 2329
2296 2327 2276
935 1074 961
875 1119 927
893 1138 945
962 1168 1000
988 1237 1037
738 990 855
581 812 707
540 861 783
517 842 765
851 1077 963
1019 1283 1133
988 1237 1037
893 1138 945
731 1050 837
639 965 782
795 1104 964
795 1104 964
694 990 855
3026 3006 2850
1959 1906 1746
2063 1916 1796
2243 2007 1922
2232 1989 1868
2232 1989 1868
2232 1989 1868
2205 1962 1843
2232 1989 1868
1450 1556 1285
1407 1459 1199
1161 1264 1026
1357 1414 1159
1560 1621 1444
2043 2077 1876
1965 1999 1799
1995 1939 1853
1995 1939 1853
1903 1851 1804
1903 1851 1804
1903 1851 1804
1903 1851 1804
1969 1913 1827
1969 1913 1827
1974 1874 1828
1974 1874 1828
1903 1851 1804
2566 2591 2541
2585 2609 2589
2585 2609 2589
2634 2648 2565
2496 2561 2437
2302 2374 2249
2107 2191 2064
2284 2310 2222
2302 2374 2249
2290 2319 2303
2211 2248 2196
2124 2161 2144
2013 2003 1986
1988 1977 1960
1927 1916 1828
1958 1861 1883
1958 1861 1883
1969 1913 1827
1969 1913 1827
1969 1913 1827
1995 1939 1853
1969 1913 1827
1969 1913 1827
1969 1913 1827
1974 1874 1828
2042 1897 1852
2042 1897 1852
1969 1913 1827
1903 1851 1804
1903 1851 1804
1969 1913 1827
1969 1913 1827
1969 1913 1827
1948 2033 1909
2410 2426 2299
2512 2684 2568
924 1027 943
847 1053 890
893 1138 945
998 1209 1036
1099 1326 1172
990 1214 1093
715 937 854
674 1006 946
660 975 892
832 1057 945
1019 1283 1133
988 1237 1037
829 1034 872
639 965 782
712 1031 818
588 932 801
675 971 837
694 990 855
2833 2902 2782
1708 1656 1508
1982 1848 1693
2160 1870 1793
2316 2030 1945
2232 1989 1868
2232 1989 1868
2232 1989 1868
2243 2007 1922
1395 1544 1243
1162 1337 1066
1006 1178 919
1288 1392 1142
870 925 733
2134 2211 2008
1890 1973 1777
1969 1913 1827
1969 1913 1827
1886 1835 1752
1886 1835 1752
1903 1851 1804
1903 1851 1804
1634 1781 1734
1759 1857 1808
1759 1857 1808
1759 1857 1808
1779 1875 1860
2496 2561 2437
2060 2101 2011
1856 1890 1807
1897 1980 1858
2020 2058 1932
2043 2077 1876
1985 2110 1798
1974 2099 1826
1972 2052 1853
1909 1990 1830
1890 1927 1804
1923 2007 1884
2045 2084 1957
2074 2111 1983
2008 2048 1960
1898 1845 1831
1898 1845 1831
1903 1851 1804
1903 1851 1804
1995 1939 1853
1974 1874 1828
2017 1871 1826
2017 1871 1826
1969 1913 1827
1969 1913 1827
1927 1916 1828
1953 1942 1854
1903 1851 1804
1903 1851 1804
1903 1851 1804
1903 1851 1804
1903 1851 1804
1903 1851 1804
1881 1917 1832
2020 2058 1932
2688 2855 2736
832 1057 945
729 943 836
851 1077 963
972 1194 1074
1000 1263 1113
987 1218 1154
780 1024 963
660 975 892
674 1006 946
738 990 855
967 1181 1037
1111 1334 1151
747 984 799
731 1062 874
731 1062 874
697 1047 910
545 856 727
636 932 800
1549 1567 1496
1780 1690 1578
1974 1838 1720
2130 1844 1767
2344 2056 1971
2316 2030 1945
2243 2007 1922
2232 1989 1868
2243 2007 1922
1261 1444 1040
1270 1457 1080
1307 1497 1204
1417 1473 1243
1214 1274 1064
2134 2211 2008
1890 1973 1777
1969 1913 1827
1969 1913 1827
1886 1835 1752
1886 1835 1752
1910 1816 1804
1981 1798 1856
2214 2354 2304
1997 2144 2092
1854 1998 2016
1878 2024 2042
1704 1912 1861
2135 2217 2090
2436 2453 2326
2600 2610 2488
2634 2648 2565
2655 2716 2563
2709 2774 2584
2701 2769 2507
2661 2723 2453
2681 2746 2481
2640 2701 2513
2641 2655 2455
2517 2583 2377
2298 2369 2164
2076 2158 1956
2020 2058 1932
2071 2018 1929
1903 1851 1804
1886 1835 1752
1903 1851 1804
1969 1913 1827
1974 1874 1828
1987 1845 1801
1987 1845 1801
1903 1851 1804
2239 2176 2085
2815 2758 2706
2657 2672 2589
1903 1851 1804
1903 1851 1804
1903 1851 1804
1903 1851 1804
1886 1835 1752
1886 1835 1752
1881 1917 1832
1978 1968 1880
2905 3024 2906
832 1057 945
714 948 891
664 891 836
823 1062 1000
844 1081 1019
800 1043 982
800 1043 982
658 987 928
642 968 910
935 1153 1037
1061 1282 1132
1073 1290 1111
794 996 836
729 964 780
700 899 743
711 924 817
663 873 744
814 1038 927
1610 1672 1566
1730 1673 1632
1852 1715 1677
1611 1455 1420
2066 1833 1824
2114 1835 1796
2161 1881 1874
2205 1866 1790
2322 1961 1919
