assets/luts/LUTs by IWLTBAP (3DL)/07 - Utility/DJI D-Log M to Rec.709/DJI D-Log M to Rec709 (Beta).3dl
# Copyright: (C) Copyright 2010-2020 by IWLTBAP SAS
# Cannot be resold, shared or otherwise redistributed
# Website: https://luts.iwltbap.com
0 64 128 192 256 320 384 448 512 576 640 704 768 832 896 960 1023
1737 1771 1758
1717 1752 1708
1675 1696 1585
1535 1598 1421
1275 1345 1185
1371 1432 1268
1383 1441 1245
1462 1567 1262
1440 1494 1197
1418 1469 1177
1555 1616 1300
1579 1641 1321
1497 1603 1259
1309 1412 1099
1565 1626 1276
1824 1948 1497
1848 1974 1520
1397 1429 1452
968 992 1036
2141 2173 2224
2141 2173 2224
2097 2135 2117
1349 1376 1429
1178 1166 1211
1477 1505 1497
1666 1694 1683
1733 1764 1784
1666 1694 1683
1527 1552 1543
951 979 998
1730 1757 1810
1178 1166 1211
1182 1214 1232
1830 1806 1860
1047 1161 1152
1260 1378 1431
1413 1542 1592
1508 1644 1660
1664 1633 1684
1416 1446 1498
1060 1087 1132
1235 1269 1318
1303 1290 1339
1303 1290 1339
1303 1290 1339
951 979 998
1471 1608 1567
1634 1781 1734
1705 1859 1809
1704 1912 1861
1704 1912 1861
1713 1745 1733
1427 1459 1451
761 786 761
761 786 761
761 786 761
851 873 871
888 916 888
1085 1119 1110
1338 1368 1360
1596 1623 1612
1860 1899 1884
1860 1899 1884
1860 1899 1884
1911 1952 1936
1911 1952 1936
1833 1873 1859
1833 1873 1859
1833 1873 1859
1690 1719 1708
1338 1368 1360
1572 1600 1589
1761 1797 1783
1886 1925 1910
1911 1952 1936
1911 1952 1936
1911 1952 1936
1911 1952 1936
1911 1952 1936
1911 1952 1936
1962 1951 1934
1937 1924 1909
1900 2042 2095
533 657 709
549 675 727
1081 1304 1152
1085 1298 1091
998 1209 1036
998 1209 1036
1111 1334 1151
1088 1318 1192
953 1173 1056
672 886 780
947 1178 1114
1518 1820 1736
1911 2210 2121
1379 1669 1591
1518 1820 1736
1082 1323 1256
713 960 927
909 1098 1037
1064 1302 1234
2253 2186 2057
2427 2355 2186
2462 2314 2185
2462 2314 2185
2427 2355 2186
2427 2355 2186
2317 2255 2164
2304 2245 2193
2304 2245 2193
2289 2229 2138
2020 1965 1878
1446 1428 1355
1360 1389 1383
1454 1435 1428
1245 1240 1230
1215 1178 1169
1319 1353 1316
1043 1299 1092
1092 1312 1131
1111 1334 1151
1111 1334 1151
1271 1422 1228
1293 1491 1295
1916 2090 1857
2190 2264 2060
2076 2158 1956
2210 2143 1976
2255 2102 1975
2344 2056 1971
2344 2056 1971
2344 2056 1971
2344 2056 1971
2448 2075 1993
2470 2102 2020
2130 1844 1767
2099 1818 1743
2099 1818 1743
2079 1804 1798
2079 1804 1798
2009 1787 1748
1986 1727 1723
1986 1727 1723
1986 1727 1723
1986 1727 1723
1902 1652 1649
1874 1629 1626
1760 1536 1533
1662 1469 1466
1627 1503 1468
1611 1455 1420
1530 1411 1376
892 1013 980
963 1066 979
845 980 872
942 1046 961
928 1039 980
1319 1353 1316
1626 1598 1589
1603 1574 1566
1626 1598 1589
1550 1576 1566
1550 1576 1566
1572 1600 1589
1572 1600 1589
1626 1598 1589
1626 1598 1589
1626 1598 1589
1603 1574 1566
1706 1644 1634
1706 1644 1634
1706 1644 1634
1750 1683 1708
1743 1717 1707
1690 1719 1708
1690 1719 1708
1690 1719 1708
1690 1719 1708
1666 1694 1683
1666 1694 1683
1666 1694 1683
1666 1694 1683
1647 1677 1635
1647 1677 1635
1666 1694 1683
1666 1694 1683
1523 1683 1543
1546 1707 1566
1527 1698 1590
1517 1656 1613
1494 1632 1590
1494 1632 1590
1494 1632 1590
1494 1632 1590
1419 1610 1568
1379 1669 1591
779 1012 927
1088 1318 1192
1372 1638 1498
1432 1760 1615
836 1069 982
815 1050 963
802 1115 1001
1247 1393 1144
1296 1486 1226
1268 1416 1164
1247 1393 1144
1268 1416 1164
1247 1393 1144
1383 1533 1266
1404 1556 1288
1317 1510 1247
1296 1486 1226
1118 1387 1171
1118 1387 1171
962 1168 1000
829 1034 872
812 1027 890
754 1009 873
729 943 836
988 1237 1037
1118 1387 1171
1155 1432 1211
1136 1410 1191
1092 1312 1131
967 1181 1037
953 1173 1056
972 1194 1074
1000 1263 1113
1000 1263 1113
862 1123 982
862 1123 982
862 1123 982
862 1123 982
928 1141 1000
862 1123 982
832 1057 945
1056 1163 1072
1018 1187 1017
996 1128 959
1107 1248 1070
1271 1422 1228
1271 1422 1228
1282 1434 1273
1294 1443 1250
1305 1500 1271
1182 1359 1085
1149 1327 1027
1035 1204 976
1006 1178 919
1035 1204 976
1123 1265 1028
1193 1294 1024
1228 1371 1124
1171 1350 1107
1285 1472 1184
1259 1449 1164
1171 1350 1107
1285 1472 1184
1182 1359 1085
1126 1307 1008
1159 1337 1006
1241 1424 1081
1306 1492 1141
1318 1507 1182
1191 1370 1064
1108 1286 990
1270 1459 1143
1427 1581 1308
1595 1747 1465
1621 1823 1538
1860 1899 1884
1812 1856 1807
1690 1719 1708
1169 1207 1170
1033 1068 1034
1010 1082 1073
892 1013 980
694 845 817
772 881 853
804 919 889
813 976 944
949 1097 1036
909 1098 1037
770 977 945
713 960 927
916 1110 1075
844 1081 1019
1865 1900 1779
1751 1822 1708
1698 1719 1608
1531 1551 1372
1392 1456 1290
1531 1551 1372
1546 1608 1395
1532 1595 1346
1438 1497 1264
1288 1392 1142
1417 1473 1243
1407 1459 1199
1440 1494 1197
1393 1446 1157
1589 1651 1297
1634 1746 1316
1634 1746 1316
1397 1429 1452
1059 1042 1112
2472 2494 2543
2472 2494 2543
2454 2480 2464
1684 1648 1735
1366 1400 1452
1587 1611 1660
1664 1633 1684
1682 1705 1760
1705 1731 1785
1493 1468 1521
933 962 980
2124 2161 2144
1067 1100 1091
919 948 943
1911 1952 1936
1169 1291 1254
1367 1501 1522
1485 1620 1637
1508 1644 1660
1664 1633 1684
1563 1588 1637
1078 1107 1152
1878 1909 1963
917 894 962
948 973 1018
1705 1731 1785
1064 1094 1111
1517 1656 1613
1705 1859 1809
1705 1859 1809
1704 1912 1861
1704 1912 1861
1690 1719 1708
1315 1347 1339
1029 1016 1035
1397 1429 1452
1591 1617 1636
1550 1576 1566
1308 1297 1317
974 1004 998
1527 1552 1543
1550 1576 1566
1833 1873 1859
1860 1899 1884
1860 1899 1884
1886 1925 1910
1886 1925 1910
1812 1856 1807
1761 1797 1783
851 873 871
1033 1068 1034
1224 1261 1252
1550 1576 1566
1737 1771 1758
1886 1925 1910
1886 1925 1910
1886 1925 1910
1911 1952 1936
1911 1952 1936
1911 1952 1936
1911 1952 1936
1886 1925 1910
1937 1924 1909
1746 1886 1940
523 644 672
549 675 727
1128 1273 1151
1130 1268 1088
1150 1333 1150
1187 1378 1190
1227 1468 1274
1202 1450 1318
1019 1283 1133
795 1019 909
823 1062 1000
1724 2028 1940
1965 2262 2174
1335 1620 1545
1054 1250 1213
927 1158 1094
1100 1345 1277
1100 1345 1277
1045 1237 1173
2252 2192 2140
2504 2400 2352
2544 2363 2350
2462 2319 2270
2398 2328 2159
2398 2328 2159
2398 2328 2159
2342 2243 2191
2266 2202 2112
2170 2068 1979
1744 1657 1581
1409 1327 1291
1515 1456 1450
1659 1596 1588
2491 2416 2436
2730 2705 2684
1360 1389 1383
1066 1278 1072
1085 1298 1091
1066 1278 1072
1111 1334 1151
1207 1355 1168
1207 1355 1168
2371 2486 2244
2241 2262 2057
2137 2119 1952
2239 2170 2003
2253 2141 1974
2344 2056 1971
2344 2056 1971
2344 2056 1971
2316 2030 1945
2493 2129 2046
2518 2175 2128
2160 1870 1793
2034 1806 1692
2018 1797 1720
2009 1787 1748
2009 1787 1748
1986 1727 1723
1986 1727 1723
1955 1701 1698
1955 1701 1698
1928 1675 1673
1902 1652 1649
1874 1629 1626
1874 1629 1626
1839 1638 1603
1725 1570 1535
1586 1432 1396
1455 1301 1266
798 823 798
1055 1083 994
1106 1102 1011
1013 1007 918
1055 1083 994
1454 1435 1428
1642 1546 1540
1642 1546 1540
1683 1625 1586
1560 1495 1519
1579 1551 1543
1603 1574 1566
1603 1574 1566
1642 1541 1565
1694 1562 1586
1694 1562 1586
1671 1538 1563
1642 1546 1540
1665 1564 1588
1735 1641 1632
1789 1687 1680
1694 1726 1682
1670 1701 1658
1670 1701 1658
1670 1701 1658
1666 1694 1683
1647 1677 1635
1647 1677 1635
1596 1623 1612
1596 1623 1612
1647 1677 1635
1649 1622 1612
1672 1646 1635
1672 1646 1635
1523 1683 1543
1546 1707 1566
1527 1698 1590
1517 1656 1613
1517 1656 1613
1517 1656 1613
1494 1632 1590
1439 1618 1544
1431 1668 1591
1401 1693 1615
715 937 854
832 1057 945
1088 1318 1192
1202 1450 1318
967 1198 1134
778 1062 1001
690 1025 964
1228 1371 1124
1285 1472 1184
1268 1416 1164
1268 1416 1164
1268 1416 1164
1296 1486 1226
1415 1571 1332
1338 1534 1269
1296 1486 1226
1227 1468 1274
1248 1492 1295
1155 1432 1211
962 1168 1000
877 1130 963
814 1038 927
754 1009 873
729 943 836
980 1188 1018
1111 1334 1151
1136 1410 1191
1006 1258 1055
985 1201 1055
972 1194 1074
972 1194 1074
990 1214 1093
1000 1263 1113
1019 1283 1133
928 1141 1000
862 1123 982
862 1123 982
851 1077 963
832 1057 945
795 1019 909
814 1038 927
1087 1233 1111
976 1112 998
940 1071 905
1007 1139 998
1358 1514 1313
1107 1248 1070
1150 1289 1108
1468 1666 1425
1317 1510 1247
1171 1350 1107
1153 1327 1087
1105 1244 1010
1086 1224 992
1105 1244 1010
1220 1358 1083
1298 1402 1120
1274 1462 1206
1199 1473 1189
1180 1450 1169
1219 1450 1166
1285 1472 1184
1268 1416 1164
1153 1327 1087
1140 1317 1048
1241 1424 1081
1241 1424 1081
1249 1437 1123
1239 1381 1103
1228 1371 1124
1153 1327 1087
1153 1327 1087
1317 1510 1247
1562 1713 1394
1585 1784 1466
1886 1925 1910
1833 1873 1859
1761 1797 1783
1319 1353 1316
1048 1081 1072
957 1030 998
892 1013 980
798 908 927
827 989 981
956 1070 1036
1031 1148 1111
1051 1168 1131
1031 1148 1111
795 957 926
698 929 873
762 1005 945
770 977 945
1587 1648 1542
1605 1668 1490
1560 1621 1444
1413 1480 1311
1371 1432 1268
1413 1480 1311
1460 1528 1352
1521 1585 1372
1461 1522 1285
1395 1450 1221
1237 1294 1082
1275 1337 1122
1582 1642 1392
1700 1772 1481
1711 1785 1456
1555 1616 1300
1462 1567 1262
1477 1505 1497
1235 1269 1318
1372 1406 1429
1421 1452 1475
1421 1452 1475
1493 1468 1521
1366 1400 1452
1517 1540 1591
1682 1705 1760
1587 1611 1660
1563 1588 1637
1517 1540 1591
1303 1290 1339
1338 1368 1360
1713 1745 1733
1666 1694 1683
1572 1600 1589
1348 1484 1475
1488 1565 1614
1532 1667 1685
1510 1589 1637
1540 1564 1614
1515 1485 1567
1303 1290 1339
1875 1847 1937
1852 1883 1938
2023 2005 2092
1850 1822 1912
1391 1423 1475
1513 1650 1637
1653 1800 1785
1701 1851 1835
1807 1901 1886
1785 1936 1886
1713 1745 1733
1424 1405 1428
1008 991 1035
1684 1648 1735
2003 1987 2039
1875 1847 1937
1664 1633 1684
1186 1220 1210
1503 1528 1520
1621 1592 1612
1811 1788 1808
1833 1873 1859
1833 1873 1859
1886 1925 1910
1886 1925 1910
1713 1745 1733
1737 1771 1758
1427 1459 1451
1169 1207 1170
1360 1389 1383
1647 1677 1635
1713 1745 1733
1886 1925 1910
1886 1925 1910
1886 1925 1910
1911 1952 1936
1911 1952 1936
1911 1952 1936
1886 1925 1910
1886 1925 1910
1907 1944 1962
1367 1501 1522
533 657 709
552 721 746
1246 1404 1274
1247 1400 1207
1247 1400 1207
1225 1377 1188
1132 1311 1131
1088 1318 1192
1106 1340 1212
972 1194 1074
1223 1474 1340
1724 2028 1940
2018 2261 2173
1431 1668 1591
1188 1399 1363
1188 1399 1363
1139 1344 1276
1082 1323 1256
1005 1197 1133
1465 1371 1427
1800 1624 1680
2409 2217 2273
2509 2358 2380
2402 2334 2244
2304 2245 2193
2443 2370 2241
2342 2243 2191
2241 2092 2003
1815 1687 1576
1510 1385 1284
1342 1226 1162
1394 1344 1337
1659 1596 1588
1706 1644 1634
1849 1794 1781
1647 1677 1635
1107 1248 1070
1088 1228 1051
1107 1248 1070
1139 1281 1130
1225 1377 1188
1371 1432 1268
2474 2491 2323
2210 2143 1976
2239 2170 2003
2255 2102 1975
2298 2099 1973
2344 2056 1971
2344 2056 1971
2316 2030 1945
2316 2030 1945
2331 1999 1917
2279 1946 1866
2232 1989 1868
2099 1818 1743
2018 1797 1720
2009 1787 1748
2009 1787 1748
1986 1727 1723
1986 1727 1723
1955 1701 1698
1928 1675 1673
1902 1652 1649
1874 1629 1626
1788 1559 1556
1788 1559 1556
1811 1614 1580
1840 1634 1527
1896 1644 1574
1759 1528 1459
1248 1103 1044
1366 1211 1119
1366 1211 1119
1362 1168 1078
1387 1232 1139
1702 1547 1512
1839 1632 1627
1868 1655 1650
1810 1609 1604
1747 1583 1607
1747 1583 1607
1810 1603 1629
1838 1627 1652
1838 1627 1652
1904 1615 1675
1849 1569 1627
1878 1592 1650
1748 1594 1558
1748 1594 1558
1725 1570 1535
1748 1594 1558
1772 1680 1604
1801 1703 1627
1772 1680 1604
1807 1752 1600
1729 1667 1657
1672 1646 1635
1672 1646 1635
1649 1622 1612
2431 2398 2383
2232 2214 2195
1524 1497 1520
1659 1596 1588
1683 1620 1611
1511 1626 1520
1546 1707 1566
1546 1707 1566
1523 1683 1543
1523 1683 1543
1511 1626 1520
1511 1626 1520
1449 1660 1521
1372 1638 1498
1372 1638 1498
692 904 799
814 1038 927
862 1123 982
915 1134 1019
867 1100 1038
690 1025 964
658 987 928
1268 1416 1164
1259 1449 1164
1200 1428 1147
1259 1449 1164
1259 1449 1164
1274 1462 1206
1271 1422 1228
1218 1454 1230
1227 1468 1274
1173 1454 1231
1248 1492 1295
1277 1573 1338
1043 1299 1092
998 1209 1036
832 1057 945
738 990 855
692 904 799
962 1168 1000
988 1237 1037
962 1168 1000
847 1053 890
851 1077 963
928 1141 1000
953 1173 1056
953 1173 1056
928 1141 1000
953 1173 1056
953 1173 1056
851 1077 963
832 1057 945
795 1019 909
754 1009 873
738 990 855
729 943 836
994 1132 1017
908 1071 908
926 1090 926
1073 1249 1072
1271 1422 1228
1271 1422 1228
1326 1524 1292
1520 1760 1447
1369 1617 1312
1190 1372 1127
1171 1350 1107
1153 1327 1087
1140 1317 1048
1066 1277 1013
1066 1277 1013
1053 1225 994
1118 1387 1171
1162 1428 1149
1125 1383 1109
1066 1277 1013
1105 1244 1010
1171 1350 1107
1153 1327 1087
1086 1224 992
1171 1348 1046
1171 1348 1046
1247 1393 1144
1268 1416 1164
1247 1393 1144
1247 1393 1144
1171 1350 1107
1247 1393 1144
1395 1591 1221
1463 1664 1284
1833 1873 1859
1936 1978 1961
1860 1899 1884
1572 1600 1589
1130 1207 1171
936 1050 1017
914 1031 998
892 1013 980
914 1031 998
1043 1156 1091
1051 1168 1131
1031 1148 1111
973 1129 1092
796 946 890
698 929 873
492 742 690
682 910 854
1320 1350 1249
1371 1432 1268
1392 1456 1290
1392 1456 1290
1369 1389 1223
1369 1389 1223
1371 1432 1268
1426 1488 1288
1557 1618 1369
1627 1689 1438
1417 1473 1243
1417 1473 1243
1700 1772 1481
1800 1925 1624
1557 1618 1369
1474 1581 1305
1474 1581 1305
1184 1179 1169
1266 1260 1252
1312 1303 1295
1338 1368 1360
1308 1297 1317
1193 1180 1254
1215 1248 1297
1303 1290 1339
1343 1326 1406
1235 1269 1318
1366 1400 1452
1327 1311 1360
1215 1248 1297
1245 1283 1274
1296 1332 1295
1360 1389 1383
