assets/luts/LUTs by IWLTBAP (COSTYLE)/Mac/IWLTBAP Cinematic LUTs/25%/C-9730-STD-25.costyle
<?xml version="1.0"?>
<!--
Generated by IWLTBAP for the LUTs Color Grading Packs
Cannot be resold, shared or otherwise redistributed
Copyright (C) 2010-2020 IWLTBAP SAS
-->
<SL Engine="1000">
	<E K="ICCProfile" V="C-9730-STD-25.icc" />
	<E K="Name" V="C-9730-STD-25" />
	<E K="UUID" V="07097D0E-9F36-4A78-BC12-14E6AE97242C" />
</SL>
