assets/luts/LUTs by IWLTBAP (COSTYLE)/Mac/IWLTBAP Cinematic LUTs/25%/F-6800-STD-25.costyle
<?xml version="1.0"?>
<SL Engine="1000">
	<E K="ICCProfile" V="F-6800-STD-25.icc" />
	<E K="Name" V="F-6800-STD-25" />
	<E K="UUID" V="1EF20637-7D7E-4B11-90D9-98D5C24B66D8" />
</SL>
