assets/luts/LUTs by IWLTBAP (COSTYLE)/Mac/IWLTBAP Cinematic LUTs/25%/W-8370-STD-25.costyle
<?xml version="1.0"?>
<!--
Generated by IWLTBAP for the LUTs Color Grading Packs
Cannot be resold, shared or otherwise redistributed
Copyright (C) 2010-2020 IWLTBAP SAS
-->
<SL Engine="1000">
	<E K="ICCProfile" V="W-8370-STD-25.icc" />
	<E K="Name" V="W-8370-STD-25" />
	<E K="UUID" V="1F085523-B5BB-4517-B5A3-B492B0DC2B0E" />
</SL>
