assets/luts/LUTs by IWLTBAP (COSTYLE)/Mac/IWLTBAP Cinematic LUTs/25%/X-9400-STD-25.costyle
<?xml version="1.0"?>
<!--
Generated by IWLTBAP for the LUTs Color Grading Packs
Cannot be resold, shared or otherwise redistributed
Copyright (C) 2010-2020 IWLTBAP SAS
-->
<SL Engine="1000">
	<E K="ICCProfile" V="X-9400-STD-25.icc" />
	<E K="Name" V="X-9400-STD-25" />
	<E K="UUID" V="28C3257E-911B-4EF8-8C35-87F7350FEC69" />
</SL>
