assets/luts/LUTs by IWLTBAP (COSTYLE)/Windows/IWLTBAP Cinematic LUTs/100%/C-8120-STD-100.costyle
<?xml version="1.0"?>
<!--
Generated by IWLTBAP for the LUTs Color Grading Packs
Cannot be resold, shared or otherwise redistributed
Copyright (C) 2010-2020 IWLTBAP SAS
-->
<SL Engine="1000">
	<E K="ICCProfile" V="C-8120-STD-100.icc" />
	<E K="Name" V="C-8120-STD-100" />
	<E K="UUID" V="AE0EE216-1874-4410-A089-3CE0238BF41B" />
</SL>
