assets/luts/LUTs by IWLTBAP (COSTYLE)/Windows/IWLTBAP Cinematic LUTs/100%/F-6800-STD-100.costyle
<?xml version="1.0"?>
<SL Engine="1000">
	<E K="ICCProfile" V="F-6800-STD-100.icc" />
	<E K="Name" V="F-6800-STD-100" />
	<E K="UUID" V="964C7AA8-521A-4327-AA1F-C3D396C1DDE8" />
</SL>
