assets/luts/LUTs by IWLTBAP (COSTYLE)/Windows/IWLTBAP Cinematic LUTs/100%/W-8370-STD-100.costyle
<?xml version="1.0"?>
<!--
Generated by IWLTBAP for the LUTs Color Grading Packs
Cannot be resold, shared or otherwise redistributed
Copyright (C) 2010-2020 IWLTBAP SAS
-->
<SL Engine="1000">
	<E K="ICCProfile" V="W-8370-STD-100.icc" />
	<E K="Name" V="W-8370-STD-100" />
	<E K="UUID" V="8F0B8082-6154-4D39-B59B-D26E2991B6F3" />
</SL>
