assets/luts/LUTs by IWLTBAP (COSTYLE)/Mac/IWLTBAP Cinematic LUTs/75%/F-8700-V2-STD-75.costyle
<?xml version="1.0"?>
<!--
Generated by IWLTBAP for the LUTs Color Grading Packs
Cannot be resold, shared or otherwise redistributed
Copyright (C) 2010-2020 IWLTBAP SAS
-->
<SL Engine="1000">
	<E K="ICCProfile" V="F-8700-V2-STD-75.icc" />
	<E K="Name" V="F-8700-V2-STD-75" />
	<E K="UUID" V="BAE321CC-5186-4F7E-9273-B2CDA7AA134D" />
</SL>
