assets/luts/LUTs by IWLTBAP (3DL)/07 - Utility/BMDFilm BMPCC 4K to Rec.709/U-BMDFILM-BMPCC4K-V1-LTR.3dl
# Copyright: (C) Copyright 2010-2020 by IWLTBAP SAS
# Cannot be resold, shared or otherwise redistributed
# Website: https://luts.iwltbap.com
0 256 512 768 1023
0 0 0
0 0 718
24 0 2461
67 0 3627
53 0 4023
0 761 0
0 754 753
0 734 2382
0 706 3590
0 675 4023
0 2248 0
0 2247 652
0 2243 2244
0 2241 3546
0 2241 4017
0 3550 0
0 3550 649
0 3550 2245
0 3550 3547
0 3544 4023
0 4056 0
0 4057 717
0 4059 2222
0 4063 3471
0 4068 4068
805 0 0
808 0 786
814 0 2443
802 0 3615
761 0 4023
760 742 0
750 737 737
742 720 2359
725 695 3581
686 668 4023
663 2244 0
663 2243 650
661 2241 2242
657 2241 3546
650 2241 4017
658 3550 0
659 3550 649
660 3550 2245
663 3546 3544
667 3541 4024
731 4059 0
732 4060 722
737 4062 2220
744 4066 3466
752 4071 4071
2421 0 0
2406 0 739
2376 0 2363
2335 0 3583
2284 0 4023
2336 698 0
2327 695 693
2307 685 2299
2281 668 3561
2252 651 4019
2247 2241 0
2248 2241 648
2249 2241 2241
2248 2241 3546
2245 2241 4018
2248 3544 0
2248 3543 657
2248 3540 2241
2247 3536 3533
2243 3529 4031
2223 4067 0
2223 4068 736
2221 4071 2214
2219 4074 3451
2216 4079 4079
3571 0 0
3569 0 670
3563 0 2266
3555 0 3551
3550 0 4017
3555 654 0
3554 652 654
3552 648 2245
3551 644 3546
3550 643 4017
3550 2241 0
3551 2241 648
3551 2241 2242
3552 2242 3547
3552 2242 4018
3528 3527 0
3527 3525 674
3524 3522 2235
3518 3516 3514
3511 3508 4042
3444 4080 0
3443 4081 759
3439 4084 2205
3432 4087 3427
3424 4093 4093
4015 0 0
4017 0 649
4015 0 2241
4017 0 3546
4018 0 4018
4017 643 0
4017 642 649
4017 642 2241
4018 641 3547
4018 641 4018
4018 2243 0
4019 2243 650
4020 2242 2243
4022 2241 3541
4026 2239 4025
4047 3499 0
4048 3497 702
4050 3493 2225
4054 3487 3485
4059 3478 4059
4095 4095 0
4095 4095 789
4095 4095 2193
4095 4095 3397
4095 4095 4095
