assets/luts/LUTs by IWLTBAP (3DL)/07 - Utility/BMDFilm BMPCC 4K to Rec.709/U-BMDFILM-BMPCC4K-V1-LTR.3dl
# Copyright: (C) Copyright 2010-2020 by IWLTBAP SAS
# Cannot be resold, shared or otherwise redistributed
# Website: https://luts.iwltbap.com
0 128 256 384 512 640 768 896 1023
0 0 0
0 0 156
0 0 718
0 0 1555
24 0 2461
56 0 3178
67 0 3627
56 0 3880
53 0 4023
0 224 0
0 229 228
0 228 786
0 226 1563
7 224 2444
25 218 3161
33 209 3616
21 196 3874
0 181 4023
0 761 0
0 759 213
0 754 753
0 745 1507
0 734 2382
0 721 3116
0 706 3590
0 690 3863
0 675 4023
0 1435 0
0 1433 171
0 1429 692
0 1422 1421
0 1412 2297
0 1401 3057
0 1388 3560
0 1377 3850
0 1367 4019
0 2248 0
0 2248 140
0 2247 652
0 2245 1365
0 2243 2244
0 2242 3024
0 2241 3546
0 2241 3846
0 2241 4017
0 3018 0
0 3019 134
0 3019 648
0 3019 1361
0 3019 2241
0 3020 3024
0 3020 3547
0 3020 3846
0 3021 4018
0 3550 0
0 3550 134
0 3550 649
0 3550 1363
0 3550 2245
0 3550 3026
0 3550 3547
0 3547 3846
0 3544 4023
0 3838 0
0 3838 155
0 3838 674
0 3837 1379
0 3836 2237
0 3835 2997
0 3834 3516
0 3833 3833
0 3831 4042
0 4056 0
0 4056 195
0 4057 717
0 4058 1404
0 4059 2222
0 4061 2953
0 4063 3471
0 4065 3815
0 4068 4068
184 0 0
194 0 187
237 0 762
282 0 1567
310 0 2457
328 0 3173
331 0 3623
315 0 3878
304 0 4023
236 230 0
245 229 229
252 229 785
269 227 1558
288 223 2437
300 217 3155
299 207 3612
283 194 3873
251 178 4023
232 755 0
230 754 209
228 749 748
232 741 1500
238 730 2375
241 717 3111
235 703 3587
219 687 3862
189 673 4023
194 1429 0
191 1428 169
187 1424 690
185 1417 1417
182 1408 2293
176 1397 3054
167 1386 3559
153 1375 3850
136 1366 4019
151 2247 0
151 2247 139
152 2246 652
151 2244 1364
148 2243 2243
145 2241 3023
140 2241 3546
135 2241 3846
129 2241 4017
143 3019 0
143 3019 134
144 3019 648
144 3019 1361
144 3020 2241
143 3020 3024
140 3020 3547
136 3020 3846
132 3021 4018
141 3550 0
142 3550 134
142 3551 649
142 3550 1363
144 3550 2245
143 3550 3026
143 3549 3546
144 3546 3845
144 3543 4023
162 3838 0
163 3838 156
164 3837 675
166 3837 1380
169 3836 2237
171 3835 2996
174 3834 3514
176 3832 3832
179 3831 4042
205 4057 0
206 4057 196
208 4058 718
209 4059 1405
212 4060 2222
215 4062 2952
218 4064 3470
223 4066 3815
226 4069 4069
805 0 0
810 0 229
808 0 786
811 0 1563
814 0 2443
812 0 3160
802 0 3615
782 0 3874
761 0 4023
798 228 0
798 228 226
792 228 776
791 225 1542
791 220 2419
787 213 3142
776 202 3604
757 188 3869
728 172 4023
760 742 0
756 740 202
750 737 737
746 730 1483
742 720 2359
736 709 3099
725 695 3581
708 681 3859
686 668 4023
703 1418 0
701 1417 163
698 1413 683
694 1408 1408
689 1400 2284
683 1390 3048
675 1380 3556
664 1371 3849
652 1364 4018
663 2244 0
663 2244 138
663 2243 650
663 2242 1363
661 2241 2242
659 2241 3023
657 2241 3546
654 2241 3846
650 2241 4017
658 3019 0
658 3019 134
659 3019 648
659 3020 1361
659 3020 2242
659 3020 3024
657 3020 3547
655 3021 3846
653 3021 4018
658 3550 0
658 3550 134
659 3550 649
660 3550 1364
660 3550 2245
662 3549 3024
663 3546 3544
665 3544 3844
667 3541 4024
685 3836 0
686 3836 159
687 3836 678
689 3835 1382
691 3834 2235
694 3833 2992
697 3832 3511
700 3831 3831
704 3829 4044
731 4059 0
731 4059 200
732 4060 722
735 4061 1407
737 4062 2220
740 4064 2947
744 4066 3466
748 4068 3813
752 4071 4071
1582 0 0
1579 0 221
1567 0 771
1554 0 1535
1541 0 2410
1525 0 3136
1503 0 3601
1475 0 3867
1444 0 4023
1555 222 0
1550 222 213
1538 221 755
1527 218 1511
1513 212 2386
1498 203 3119
1477 191 3591
1452 177 3863
1422 161 4023
1490 722 0
1486 721 188
1477 718 718
1467 713 1456
1457 704 2332
1444 694 3080
1428 683 3572
1409 671 3855
1388 660 4022
1414 1401 0
1412 1400 156
1408 1397 673
1404 1393 1393
1398 1387 2269
1390 1379 3038
1381 1372 3551
1371 1365 3847
1363 1361 4018
1371 2242 0
1371 2242 136
1372 2241 649
1372 2241 1361
1371 2241 2241
1371 2241 3023
1369 2241 3546
1367 2241 3846
1364 2241 4018
1369 3020 0
1370 3020 134
1370 3020 648
1371 3020 1361
1371 3020 2242
1371 3020 3024
1370 3020 3547
1369 3021 3846
1367 3021 4018
1372 3550 0
1372 3550 135
1373 3549 651
1374 3548 1365
1375 3546 2243
1376 3544 3020
1377 3542 3539
1378 3539 3842
1379 3535 4027
1390 3834 0
1391 3834 164
1392 3834 683
1393 3833 1384
1394 3832 2233
1396 3831 2986
1397 3830 3505
1399 3828 3828
1401 3827 4048
1416 4063 0
1417 4063 206
1417 4063 728
1419 4064 1409
1420 4066 2218
1422 4067 2941
1424 4070 3459
1426 4072 3811
1428 4075 4075
2421 0 0
2417 0 201
2406 0 739
2392 0 1487
2376 0 2363
2357 0 3102
2335 0 3583
2310 0 3860
2284 0 4023
2394 207 0
2390 207 192
2380 205 724
2368 201 1466
2353 194 2342
2336 185 3087
2316 173 3575
2294 159 3856
2272 147 4022
2336 698 0
2333 697 171
2327 695 693
2318 691 1422
2307 685 2299
2294 677 3058
2281 668 3561
2266 659 3850
2252 651 4019
2272 1382 0
2271 1382 147
2269 1380 661
2266 1377 1377
2261 1372 2254
2256 1367 3029
2250 1363 3548
2246 1361 3846
2244 1360 4017
2247 2241 0
2247 2241 136
2248 2241 648
2248 2241 1360
2249 2241 2241
2248 2241 3023
2248 2241 3546
2247 2241 3846
2245 2241 4018
2248 3020 0
2248 3020 134
2249 3020 648
2249 3020 1362
2250 3020 2242
2250 3021 3024
2250 3021 3547
2249 3021 3847
2249 3022 4018
2248 3544 0
2248 3544 140
2248 3543 657
2249 3542 1368
2248 3540 2241
2248 3538 3014
2247 3536 3533
2245 3532 3840
2243 3529 4031
2238 3831 0
2238 3831 171
2238 3831 690
2237 3830 1388
2237 3829 2230
2236 3828 2978
2235 3827 3497
2233 3825 3825
2231 3824 4052
2223 4067 0
2223 4068 213
2223 4068 736
2222 4069 1414
2221 4071 2214
2220 4072 2932
2219 4074 3451
2218 4077 3807
2216 4079 4079
3105 0 0
3102 0 176
3097 0 702
3089 0 1434
3079 0 2310
3068 0 3066
3055 0 3564
3043 0 3852
3031 0 4020
3089 181 0
3086 181 168
3082 179 691
3075 175 1419
3067 168 2295
3057 159 3055
3047 151 3559
3036 142 3850
3027 133 4019
3057 674 0
3056 673 154
3053 672 671
3049 669 1390
3044 664 2266
3038 659 3037
3031 653 3551
3026 648 3847
3022 645 4017
3028 1366 0
3028 1366 139
3027 1365 652
3026 1363 1364
3025 1362 2242
3025 1360 3023
3024 1360 3546
3023 1359 3846
3023 1359 4017
3023 2241 0
3023 2241 135
3024 2241 648
3024 2241 1361
3025 2241 2241
3025 2241 3023
3025 2241 3546
3025 2241 3846
3024 2242 4018
3025 3021 0
3025 3021 134
3025 3021 648
3026 3021 1362
3026 3021 2243
3027 3021 3025
3026 3021 3547
3025 3021 3846
3023 3019 4020
3012 3537 0
3012 3537 147
3012 3536 664
3011 3534 1373
3009 3532 2238
3007 3530 3005
3004 3527 3524
3000 3524 3836
2996 3520 4036
2977 3827 0
2977 3827 179
2976 3827 700
2974 3826 1393
2972 3825 2226
2970 3824 2968
2966 3823 3487
2962 3821 3821
2958 3819 4058
2932 4073 0
2931 4073 223
2930 4074 746
2928 4075 1419
2926 4077 2210
2923 4078 2921
2920 4080 3440
2915 4083 3803
2911 4085 4085
3571 0 0
3571 0 153
3569 0 670
3566 0 1389
3563 0 2266
3559 0 3036
3555 0 3551
3552 0 3847
3550 0 4017
3565 151 0
3565 151 149
3563 149 664
3561 146 1381
3559 142 2258
3556 137 3031
3553 131 3548
3551 127 3846
3550 125 4017
3555 654 0
3555 653 141
3554 652 654
3553 650 1367
3552 648 2245
3551 646 3024
3551 644 3546
3550 643 3846
3550 643 4017
3550 1360 0
3550 1360 136
3550 1360 648
3550 1359 1361
3551 1359 2241
3551 1359 3023
3551 1359 3546
3551 1359 3846
3551 1359 4018
3550 2241 0
3550 2241 135
3551 2241 648
3551 2241 1361
3551 2241 2242
3551 2241 3024
3552 2242 3547
3552 2242 3846
3552 2242 4018
3551 3021 0
3551 3021 135
3551 3021 650
3551 3021 1364
3551 3020 2244
3549 3018 3022
3547 3016 3542
3544 3013 3843
3540 3010 4025
3528 3527 0
3528 3526 156
3527 3525 674
3526 3524 1378
3524 3522 2235
3522 3519 2994
3518 3516 3514
3515 3512 3832
3511 3508 4042
3491 3822 0
3490 3822 190
3489 3822 712
3488 3821 1400
3485 3820 2222
3483 3819 2955
3479 3818 3474
3475 3816 3816
3470 3814 4065
3444 4080 0
3444 4081 235
3443 4081 759
3441 4082 1426
3439 4084 2205
3436 4085 2908
3432 4087 3427
3428 4090 3798
3424 4093 4093
3846 0 0
3847 0 140
3847 0 652
3847 0 1364
3846 0 2242
3846 0 3023
3846 0 3546
3846 0 3846
3846 0 4017
3847 130 0
3846 129 139
3846 128 650
3846 127 1362
3846 125 2241
3846 124 3023
3846 124 3546
3846 122 3846
3846 122 4017
3846 644 0
3846 644 137
3846 644 649
3846 643 1361
3846 643 2241
3846 643 3023
3846 642 3546
3847 642 3846
3847 642 4018
3846 1359 0
3846 1359 136
3846 1359 648
3846 1359 1361
3847 1359 2241
3847 1358 3023
3847 1358 3547
3847 1358 3846
3847 1359 4018
3847 2242 0
3847 2242 135
3847 2242 649
3847 2242 1362
3847 2242 2243
3847 2242 3025
3847 2242 3547
3847 2243 3847
3847 2242 4019
3844 3015 0
3844 3014 142
3844 3013 658
3844 3012 1369
3843 3010 2240
3842 3008 3012
3841 3005 3531
3840 3002 3839
3838 2999 4031
3833 3514 0
3833 3514 167
3833 3513 686
3832 3511 1386
3831 3509 2230
3830 3506 2981
3829 3503 3500
3828 3499 3826
3826 3495 4050
3818 3817 0
3818 3817 204
3817 3816 726
3817 3816 1408
3816 3815 2217
3815 3814 2941
3813 3812 3460
3812 3811 3811
3810 3809 4073
3800 4089 0
3800 4089 248
3800 4090 773
3799 4090 1433
3798 4092 2200
3797 4094 2893
3796 4095 3413
3794 4095 3793
3792 4095 4095
4015 0 0
4017 0 137
4017 0 649
4017 0 1361
4015 0 2241
4017 0 3023
4017 0 3546
4018 0 3846
4018 0 4018
4017 123 0
4017 123 137
4017 123 649
4017 123 1361
4017 122 2241
4017 121 3023
4018 121 3546
4018 120 3846
4018 119 4018
4017 643 0
4017 642 136
4017 642 649
4017 642 1361
4017 642 2241
4018 641 3024
4018 641 3547
4018 641 3846
4018 641 4018
4017 1359 0
4017 1359 136
4017 1359 649
4018 1359 1362
4018 1359 2242
4018 1359 3024
4018 1359 3547
4018 1359 3847
4018 1359 4018
4018 2243 0
4018 2243 136
4019 2243 650
4019 2242 1364
4020 2242 2243
4021 2242 3022
4022 2241 3541
4024 2240 3843
4026 2239 4025
4029 3002 0
4029 3002 153
4030 3001 670
4031 3000 1376
4032 2997 2236
4034 2995 2999
4035 2992 3518
4037 2988 3833
4040 2984 4039
4047 3499 0
4047 3498 181
4048 3497 702
4049 3496 1394
4050 3493 2225
4052 3490 2966
4054 3487 3485
4056 3483 3820
4059 3478 4059
4071 3811 0
4071 3810 219
4072 3810 742
4072 3809 1416
4074 3808 2211
4076 3807 2924
4078 3806 3443
4080 3804 3804
4083 3803 4083
4095 4095 0
4095 4095 264
4095 4095 789
4095 4095 1442
4095 4095 2193
4095 4095 2876
4095 4095 3397
4095 4095 3787
4095 4095 4095
