assets/luts/LUTs by IWLTBAP (3DL)/07 - Utility/BMDFilm BMPCC 4K to Rec.709/U-BMDFILM-BMPCC4K-V1-LTR.3dl
# Copyright: (C) Copyright 2010-2020 by IWLTBAP SAS
# Cannot be resold, shared or otherwise redistributed
# Website: https://luts.iwltbap.com
0 64 128 192 256 320 384 448 512 576 640 704 768 832 896 960 1023
0 0 0
0 0 0
0 0 156
0 0 414
0 0 718
0 0 1100
0 0 1555
7 0 2019
24 0 2461
42 0 2855
56 0 3178
64 0 3435
67 0 3627
64 0 3775
56 0 3880
43 0 3961
53 0 4023
0 5 0
0 7 7
0 12 194
0 20 459
0 22 768
0 24 1140
0 28 1567
3 32 2019
19 35 2456
32 37 2849
44 37 3172
52 37 3430
55 35 3623
52 31 3772
43 26 3878
29 20 3959
13 13 4023
0 224 0
0 226 34
0 229 228
0 229 488
0 228 786
0 228 1145
0 226 1563
0 225 2010
7 224 2444
18 221 2835
25 218 3161
32 214 3420
33 209 3616
29 203 3767
21 196 3874
11 189 3956
0 181 4023
0 488 0
0 486 29
0 485 226
0 483 482
0 481 776
0 478 1130
0 474 1542
0 469 1985
0 465 2418
0 460 2812
3 454 3142
7 448 3405
6 442 3604
3 435 3759
0 428 3869
0 420 3952
0 413 4023
0 761 0
0 761 20
0 759 213
0 757 464
0 754 753
0 750 1099
0 745 1507
0 740 1947
0 734 2382
0 727 2779
0 721 3116
0 713 3386
0 706 3590
0 697 3750
0 690 3863
0 683 3947
0 675 4023
0 1075 0
0 1074 8
0 1073 193
0 1071 441
0 1068 723
0 1064 1063
0 1059 1464
0 1054 1902
0 1048 2340
0 1041 2742
0 1034 3086
0 1027 3364
0 1019 3575
0 1012 3738
0 1004 3856
0 997 3942
0 990 4022
0 1435 0
0 1434 0
0 1433 171
0 1431 416
0 1429 692
0 1426 1027
0 1422 1421
0 1417 1857
0 1412 2297
0 1406 2707
0 1401 3057
0 1395 3343
0 1388 3560
0 1382 3728
0 1377 3850
0 1372 3937
0 1367 4019
0 1833 0
0 1832 0
0 1831 152
0 1830 395
0 1828 668
0 1826 996
0 1824 1386
0 1821 1821
0 1818 2263
0 1814 2677
0 1811 3034
0 1808 3325
0 1804 3550
0 1801 3720
0 1799 3846
0 1797 3935
0 1797 4017
0 2248 0
0 2248 0
0 2248 140
0 2247 380
0 2247 652
0 2246 976
0 2245 1365
0 2244 1800
0 2243 2244
0 2242 2661
0 2242 3024
0 2241 3318
0 2241 3546
0 2241 3719
0 2241 3846
0 2241 3935
0 2241 4017
0 2658 0
0 2660 0
0 2660 135
0 2660 375
0 2660 648
0 2660 972
0 2660 1360
0 2660 1796
0 2660 2241
0 2660 2660
0 2660 3023
0 2660 3318
0 2660 3546
0 2660 3719
0 2661 3846
0 2661 3935
0 2661 4018
0 3018 0
0 3019 0
0 3019 134
0 3019 375
0 3019 648
0 3019 972
0 3019 1361
0 3019 1796
0 3019 2241
0 3020 2661
0 3020 3024
0 3019 3318
0 3020 3547
0 3020 3719
0 3020 3846
0 3021 3935
0 3021 4018
0 3318 0
0 3319 0
0 3319 134
0 3319 375
0 3319 648
0 3319 972
0 3319 1362
0 3319 1797
0 3319 2243
0 3319 2662
0 3320 3025
0 3320 3320
0 3320 3547
0 3320 3720
0 3320 3847
0 3321 3936
0 3321 4018
0 3550 0
0 3550 0
0 3550 134
0 3550 376
0 3550 649
0 3551 974
0 3550 1363
0 3550 1800
0 3550 2245
0 3550 2664
0 3550 3026
0 3550 3321
0 3550 3547
0 3548 3718
0 3547 3846
0 3546 3936
0 3544 4023
0 3716 0
0 3716 0
0 3716 140
0 3716 383
0 3715 657
0 3715 981
0 3714 1369
0 3714 1802
0 3713 2242
0 3712 2656
0 3712 3014
0 3711 3306
0 3710 3533
0 3708 3708
0 3707 3840
0 3706 3938
0 3704 4031
0 3838 0
0 3838 0
0 3838 155
0 3838 400
0 3838 674
0 3837 996
0 3837 1379
0 3837 1804
0 3836 2237
0 3836 2644
0 3835 2997
0 3835 3287
0 3834 3516
0 3833 3694
0 3833 3833
0 3832 3939
0 3831 4042
0 3940 0
0 3940 0
0 3940 174
0 3940 420
0 3940 694
0 3940 1014
0 3940 1390
0 3940 1807
0 3940 2230
0 3940 2629
0 3940 2976
0 3940 3265
0 3941 3495
0 3941 3679
0 3941 3824
0 3941 3941
0 3941 4054
0 4056 0
0 4056 10
0 4056 195
0 4057 443
0 4057 717
0 4057 1034
0 4058 1404
0 4059 1810
0 4059 2222
0 4060 2612
0 4061 2953
0 4062 3240
0 4063 3471
0 4064 3661
0 4065 3815
0 4067 3943
0 4068 4068
5 0 0
7 0 0
10 0 167
10 0 428
23 0 736
62 0 1117
95 0 1562
118 0 2020
135 0 2459
150 0 2853
160 0 3176
166 0 3434
167 0 3625
164 0 3774
156 0 3879
142 0 3960
153 0 4023
28 11 0
31 14 14
30 19 204
33 23 469
56 24 776
77 27 1144
94 30 1568
112 34 2018
128 36 2454
141 38 2847
150 37 3170
155 37 3428
156 35 3621
152 31 3771
143 26 3877
130 19 3959
111 12 4023
35 229 0
44 229 34
46 230 229
51 229 489
61 228 786
73 228 1145
86 227 1562
101 226 2007
113 224 2441
125 221 2833
132 218 3159
136 214 3419
136 209 3615
131 202 3766
122 196 3874
109 188 3956
90 180 4023
42 485 0
49 485 29
49 483 225
50 482 481
56 479 774
64 476 1127
73 473 1540
83 469 1982
91 464 2416
99 459 2809
105 453 3140
107 447 3404
106 441 3603
100 434 3759
91 427 3869
79 419 3952
61 412 4023
47 759 0
48 758 19
46 757 211
45 755 462
47 752 751
51 748 1097
56 744 1504
61 738 1944
67 733 2380
71 726 2777
73 719 3115
73 712 3384
71 705 3589
64 697 3749
55 689 3862
42 682 3947
25 674 4023
40 1073 0
38 1072 8
36 1071 192
34 1069 440
33 1066 722
34 1062 1062
36 1058 1461
38 1052 1900
39 1046 2338
40 1040 2740
40 1033 3084
37 1026 3363
33 1018 3574
25 1011 3738
17 1003 3856
8 996 3941
0 989 4022
22 1433 0
21 1432 0
20 1431 170
19 1429 416
18 1427 692
17 1424 1026
17 1420 1420
16 1416 1856
15 1411 2296
14 1405 2705
12 1399 3056
8 1393 3342
4 1387 3560
0 1382 3727
0 1376 3850
0 1371 3937
0 1367 4019
4 1831 0
4 1831 0
3 1830 152
3 1829 394
2 1828 668
1 1825 995
0 1823 1385
0 1820 1820
0 1817 2262
0 1814 2677
0 1810 3034
0 1807 3325
0 1804 3549
0 1801 3720
0 1799 3846
0 1797 3935
0 1797 4017
0 2248 0
0 2248 0
0 2247 140
0 2247 380
0 2246 652
0 2246 976
0 2245 1365
0 2244 1799
0 2243 2244
0 2242 2661
0 2242 3024
0 2241 3318
0 2241 3546
0 2241 3719
0 2241 3846
0 2241 3935
0 2241 4017
0 2660 0
0 2660 0
0 2660 135
0 2660 375
0 2660 648
0 2660 972
0 2660 1360
0 2660 1796
0 2660 2241
0 2660 2660
0 2660 3023
0 2660 3318
0 2660 3546
0 2660 3719
0 2661 3846
0 2661 3935
0 2661 4018
0 3019 0
0 3019 0
0 3019 134
0 3019 375
0 3019 648
0 3019 972
0 3019 1361
0 3019 1797
0 3019 2241
0 3020 2661
0 3020 3024
0 3020 3319
0 3020 3547
0 3020 3719
0 3020 3846
0 3021 3935
0 3021 4018
0 3319 0
0 3319 0
0 3319 134
0 3319 375
0 3319 648
0 3319 973
0 3319 1362
0 3319 1798
0 3319 2243
0 3320 2662
0 3320 3025
0 3320 3320
0 3320 3547
0 3320 3720
0 3320 3847
0 3321 3936
0 3321 4018
0 3550 0
0 3550 0
0 3550 134
0 3550 376
0 3550 649
0 3551 974
0 3550 1363
0 3550 1800
0 3550 2245
0 3550 2664
0 3550 3026
0 3550 3321
0 3550 3547
0 3548 3718
0 3547 3846
0 3546 3936
0 3544 4023
0 3716 0
0 3716 0
0 3716 140
0 3716 383
0 3715 657
0 3715 981
0 3714 1369
0 3714 1802
0 3713 2242
0 3712 2656
0 3712 3014
0 3711 3306
0 3710 3533
0 3708 3708
0 3707 3840
0 3706 3938
0 3704 4031
0 3838 0
0 3838 0
0 3838 156
0 3838 400
0 3838 674
0 3837 996
0 3837 1379
0 3837 1804
0 3836 2237
0 3836 2644
0 3835 2997
0 3835 3287
0 3834 3515
0 3833 3694
0 3833 3833
0 3832 3939
0 3831 4042
0 3940 0
0 3940 0
0 3940 174
1 3940 420
2 3940 694
2 3940 1014
3 3940 1390
5 3940 1808
5 3940 2230
6 3940 2629
8 3940 2976
9 3940 3265
10 3941 3495
11 3941 3679
12 3941 3824
12 3941 3941
13 3941 4054
16 4056 0
17 4056 10
18 4056 195
18 4057 443
19 4057 717
19 4058 1034
21 4058 1404
21 4059 1811
23 4059 2222
24 4060 2611
25 4061 2953
27 4062 3239
28 4063 3471
29 4064 3661
30 4065 3815
31 4067 3943
33 4068 4068
184 0 0
187 0 3
194 0 187
209 0 452
237 0 762
265 0 1139
282 0 1567
298 0 2019
310 0 2457
321 0 2850
328 0 3173
331 0 3431
331 0 3623
325 0 3773
315 0 3878
301 0 3959
304 0 4023
216 24 0
226 23 27
235 24 219
243 25 482
254 28 784
266 31 1147
278 34 1567
291 36 2016
302 38 2451
311 38 2843
317 38 3167
320 37 3425
319 34 3619
313 30 3770
303 25 3876
289 18 3958
270 11 4023
236 230 0
244 230 34
245 229 229
247 229 488
252 229 785
260 228 1142
269 227 1558
279 225 2003
288 223 2437
295 220 2829
300 217 3155
301 212 3416
299 207 3612
293 202 3765
283 194 3873
269 186 3955
251 178 4023
238 482 0
243 481 27
241 480 223
240 479 479
242 477 772
247 474 1124
253 470 1535
259 467 1977
265 462 2411
269 457 2805
272 452 3137
273 446 3401
270 440 3601
263 433 3757
254 425 3868
240 418 3951
223 411 4023
232 755 0
233 754 18
230 754 209
228 751 460
228 749 748
230 745 1094
232 741 1500
236 736 1940
238 730 2375
241 724 2773
241 717 3111
239 710 3382
235 703 3587
228 695 3748
219 687 3862
205 680 3946
189 673 4023
217 1069 0
215 1069 7
213 1067 190
211 1065 437
209 1063 719
208 1059 1058
209 1054 1458
209 1050 1896
210 1043 2334
209 1037 2737
207 1030 3082
204 1024 3361
199 1016 3572
191 1009 3737
181 1001 3855
170 995 3941
158 988 4022
194 1429 0
192 1429 0
191 1428 169
189 1427 414
187 1424 690
186 1421 1023
185 1417 1417
183 1413 1853
182 1408 2293
179 1403 2703
176 1397 3054
172 1392 3340
167 1386 3559
161 1380 3727
153 1375 3850
145 1370 3937
136 1366 4019
169 1829 0
169 1829 0
168 1828 151
167 1827 393
166 1826 666
165 1824 993
164 1821 1384
162 1819 1819
161 1815 2260
158 1812 2675
155 1809 3033
151 1806 3324
147 1803 3549
142 1800 3720
137 1798 3846
132 1797 3935
128 1797 4017
151 2247 0
151 2247 0
151 2247 139
152 2246 380
152 2246 652
151 2245 976
151 2244 1364
150 2244 1799
148 2243 2243
147 2242 2661
145 2241 3023
143 2241 3318
140 2241 3546
138 2241 3719
135 2241 3846
132 2241 3935
129 2241 4017
144 2660 0
145 2660 0
145 2660 135
145 2660 375
146 2660 648
146 2660 972
146 2660 1360
146 2660 1796
145 2660 2241
144 2660 2660
143 2660 3023
142 2660 3318
140 2660 3546
138 2661 3719
136 2661 3846
133 2661 3935
130 2661 4018
143 3019 0
143 3019 0
143 3019 134
143 3019 375
144 3019 648
144 3019 972
144 3019 1361
144 3019 1797
144 3020 2241
143 3020 2661
143 3020 3024
142 3020 3319
140 3020 3547
139 3020 3719
136 3020 3846
134 3021 3935
132 3021 4018
141 3319 0
142 3319 0
142 3319 134
142 3319 375
143 3319 648
143 3319 973
143 3319 1362
143 3319 1798
143 3319 2243
143 3320 2662
142 3320 3025
142 3320 3320
141 3320 3547
139 3320 3720
138 3320 3847
136 3321 3936
134 3321 4018
141 3550 0
141 3550 0
142 3550 134
142 3550 376
142 3551 649
142 3550 974
142 3550 1363
144 3550 1800
144 3550 2245
144 3550 2664
143 3550 3026
143 3550 3320
143 3549 3546
144 3548 3718
144 3546 3845
144 3545 3936
144 3543 4023
147 3716 0
147 3716 0
148 3716 141
149 3715 384
150 3715 658
150 3714 982
151 3714 1370
152 3713 1802
153 3713 2242
154 3712 2655
155 3711 3013
156 3710 3306
157 3709 3532
158 3708 3707
159 3707 3839
159 3705 3938
160 3704 4032
162 3838 0
162 3838 0
163 3838 156
164 3837 400
164 3837 675
166 3837 997
166 3837 1380
168 3836 1804
169 3836 2237
170 3835 2643
171 3835 2996
172 3834 3286
174 3834 3514
175 3833 3693
176 3832 3832
177 3832 3939
179 3831 4042
182 3940 0
182 3940 0
182 3940 175
183 3940 421
184 3940 695
185 3940 1015
186 3940 1391
187 3940 1808
189 3940 2230
190 3940 2628
192 3940 2975
194 3940 3264
195 3941 3493
197 3941 3678
198 3941 3824
200 3941 3941
202 3941 4055
205 4057 0
206 4057 11
206 4057 196
206 4057 444
208 4058 718
208 4058 1035
209 4059 1405
211 4059 1811
212 4060 2222
213 4061 2610
215 4062 2952
217 4063 3238
218 4064 3470
221 4065 3660
223 4066 3815
224 4067 3943
226 4069 4069
472 0 0
482 0 25
492 0 217
500 0 481
510 0 784
517 0 1147
525 0 1568
532 0 2016
539 0 2452
544 0 2844
546 0 3168
546 0 3426
542 0 3620
535 0 3770
525 0 3876
511 0 3958
508 0 4023
498 28 0
504 29 35
506 30 228
506 31 488
509 34 786
514 35 1146
520 37 1564
526 39 2010
531 40 2444
535 40 2836
536 38 3161
536 36 3421
532 33 3616
525 29 3767
515 23 3875
501 17 3956
