assets/luts/LUTs by IWLTBAP (COSTYLE)/Windows/IWLTBAP Cinematic LUTs/50%/F-8700-STD-50.costyle
<?xml version="1.0"?>
<!--
Generated by IWLTBAP for the LUTs Color Grading Packs
Cannot be resold, shared or otherwise redistributed
Copyright (C) 2010-2020 IWLTBAP SAS
-->
<SL Engine="1000">
	<E K="ICCProfile" V="F-8700-STD-50.icc" />
	<E K="Name" V="F-8700-STD-50" />
	<E K="UUID" V="0468162C-E3AF-4683-8AF4-B6DE090FE3B6" />
</SL>
