assets/luts/LUTs by IWLTBAP (COSTYLE)/Windows/IWLTBAP Cinematic LUTs/50%/H-9110-STD-50.costyle
<?xml version="1.0"?>
<!--
Generated by IWLTBAP for the LUTs Color Grading Packs
Cannot be resold, shared or otherwise redistributed
Copyright (C) 2010-2020 IWLTBAP SAS
-->
<SL Engine="1000">
	<E K="ICCProfile" V="H-9110-STD-50.icc" />
	<E K="Name" V="H-9110-STD-50" />
	<E K="UUID" V="C798368F-B5D5-4720-BD2B-5C5758E54315" />
</SL>
