assets/luts/LUTs by IWLTBAP (COSTYLE)/Mac/IWLTBAP Cinematic LUTs/100%/C-9730-STD-100.costyle
<?xml version="1.0"?>
<!--
Generated by IWLTBAP for the LUTs Color Grading Packs
Cannot be resold, shared or otherwise redistributed
Copyright (C) 2010-2020 IWLTBAP SAS
-->
<SL Engine="1000">
	<E K="ICCProfile" V="C-9730-STD-100.icc" />
	<E K="Name" V="C-9730-STD-100" />
	<E K="UUID" V="1F3A9356-9B4F-44EB-9853-5C31E7A77EC1" />
</SL>
