assets/luts/LUTs by IWLTBAP (COSTYLE)/Mac/IWLTBAP Cinematic LUTs/100%/F-8700-V2-STD-100.costyle
<?xml version="1.0"?>
<!--
Generated by IWLTBAP for the LUTs Color Grading Packs
Cannot be resold, shared or otherwise redistributed
Copyright (C) 2010-2020 IWLTBAP SAS
-->
<SL Engine="1000">
	<E K="ICCProfile" V="F-8700-V2-STD-100.icc" />
	<E K="Name" V="F-8700-V2-STD-100" />
	<E K="UUID" V="27034B99-DC87-46A2-95DF-98F9E08A2CBE" />
</SL>
