assets/luts/LUTs by IWLTBAP (COSTYLE)/Mac/IWLTBAP Cinematic LUTs/100%/H-9110-STD-100.costyle
<?xml version="1.0"?>
<!--
Generated by IWLTBAP for the LUTs Color Grading Packs
Cannot be resold, shared or otherwise redistributed
Copyright (C) 2010-2020 IWLTBAP SAS
-->
<SL Engine="1000">
	<E K="ICCProfile" V="H-9110-STD-100.icc" />
	<E K="Name" V="H-9110-STD-100" />
	<E K="UUID" V="2CFF0647-F56D-4C4D-A440-B267B1A08FFD" />
</SL>
