assets/luts/LUTs by IWLTBAP (COSTYLE)/Mac/IWLTBAP Cinematic LUTs/100%/X-6500-STD-100.costyle
<?xml version="1.0"?>
<SL Engine="1000">
	<E K="ICCProfile" V="X-6500-STD-100.icc" />
	<E K="Name" V="X-6500-STD-100" />
	<E K="UUID" V="ABDC919A-061F-49A0-A7AF-AED2A6015219" />
</SL>
