assets/luts/LUTs by IWLTBAP (COSTYLE)/Mac/IWLTBAP Cinematic LUTs/100%/X-9400-STD-100.costyle
<?xml version="1.0"?>
<!--
Generated by IWLTBAP for the LUTs Color Grading Packs
Cannot be resold, shared or otherwise redistributed
Copyright (C) 2010-2020 IWLTBAP SAS
-->
<SL Engine="1000">
	<E K="ICCProfile" V="X-9400-STD-100.icc" />
	<E K="Name" V="X-9400-STD-100" />
	<E K="UUID" V="98077DBF-4CAD-49FB-842D-6309E0A974F7" />
</SL>
