assets/luts/LUTs by IWLTBAP (3DL)/02 - Generic LOG/C-8120-LOG.3dl
# Copyright: (C) Copyright 2010-2020 by IWLTBAP SAS
# Cannot be resold, shared or otherwise redistributed
# Website: https://luts.iwltbap.com
0 256 512 768 1023
0 0 0
5 144 1494
96 535 2239
141 617 2505
141 617 2505
0 617 138
0 901 1314
2 1093 2741
17 1089 3038
24 1076 3040
59 1500 569
33 1542 752
0 1959 2497
0 1860 3100
0 1841 3094
230 2489 730
226 2478 735
87 2676 1681
0 2789 3393
0 2739 3371
257 2561 688
257 2561 688
179 2669 1235
0 3089 3354
0 2957 3459
1100 438 260
991 221 1684
423 690 2865
454 831 3077
452 831 3077
557 700 104
213 765 1103
4 1037 2692
104 1018 3059
121 1007 3060
60 1464 518
43 1473 627
0 1904 2423
0 1808 3083
0 1787 3076
220 2455 743
217 2445 747
87 2638 1643
0 2769 3376
0 2684 3344
257 2561 688
257 2561 688
187 2657 1174
0 3100 3303
0 2957 3459
2463 1115 842
2366 761 960
1953 677 2994
1429 841 3190
1393 841 3185
2479 1071 304
2527 1164 879
1723 881 2788
896 919 3162
859 912 3156
1833 1704 357
1801 1677 352
852 1819 2236
1 1618 3194
2 1595 3188
850 2635 431
810 2615 431
281 2709 1218
0 2983 3468
0 2812 3446
480 2673 520
462 2669 528
363 2745 883
0 3152 3112
0 3015 3496
3243 1448 1081
3073 1288 1065
3229 845 2734
2789 874 3334
2789 874 3334
3345 1528 1035
3297 1575 1204
3275 1104 2206
2820 916 3350
2815 908 3347
3800 1982 356
3788 1958 353
3552 2346 2055
2826 1570 3541
2747 1533 3526
3623 3001 667
3597 2985 664
3457 3080 1205
2535 3375 3619
2289 3148 3864
3010 3229 766
2976 3224 762
2879 3247 864
1613 3405 2563
175 3481 3838
3243 1448 1081
3086 1295 1054
3234 877 2625
2789 874 3334
2789 874 3334
3309 1521 1071
3282 1534 1162
3246 1074 2085
2807 896 3343
2802 890 3340
3819 1965 418
3813 1948 421
3553 2366 2082
3026 1555 3550
2964 1490 3529
4039 2960 591
4037 2943 584
4060 3046 1110
3693 3518 3544
3446 3097 3908
4043 3277 723
4043 3277 723
4051 3315 773
3905 3742 2701
4041 4043 4027
