assets/luts/LUTs by IWLTBAP (3DL)/02 - Generic LOG/C-8120-LOG.3dl
# Copyright: (C) Copyright 2010-2020 by IWLTBAP SAS
# Cannot be resold, shared or otherwise redistributed
# Website: https://luts.iwltbap.com
0 128 256 384 512 640 768 896 1023
0 0 0
27 106 918
5 144 1494
50 353 1850
96 535 2239
140 616 2501
141 617 2505
141 617 2505
141 617 2505
0 258 40
0 326 615
0 502 1510
12 689 2165
83 732 2601
226 736 2802
199 709 2748
186 698 2725
178 692 2714
0 617 138
0 626 217
0 901 1314
0 1052 2037
2 1093 2741
26 1099 3044
17 1089 3038
21 1080 3039
24 1076 3040
5 1022 333
5 1014 328
0 1199 1020
0 1435 1894
0 1535 2628
0 1462 3036
0 1470 3028
0 1460 3027
0 1456 3027
59 1500 569
58 1491 565
33 1542 752
0 1817 1710
0 1959 2497
0 1910 3060
0 1860 3100
0 1847 3095
0 1841 3094
145 2073 742
143 2065 741
141 2051 739
53 2217 1365
0 2425 2230
0 2497 3081
0 2281 3219
0 2273 3218
0 2268 3216
230 2489 730
228 2485 732
226 2478 735
202 2516 933
87 2676 1681
0 2939 2792
0 2789 3393
0 2745 3373
0 2739 3371
257 2561 688
257 2561 688
257 2561 688
253 2568 719
168 2684 1310
9 2922 2316
0 3065 3406
0 2957 3459
0 2957 3459
257 2561 688
257 2561 688
257 2561 688
255 2564 704
179 2669 1235
23 2895 2201
0 3089 3354
0 2957 3459
0 2957 3459
442 158 51
422 132 912
100 214 1627
104 542 2265
226 643 2680
354 685 2832
319 675 2798
301 669 2780
292 666 2771
183 280 28
61 312 523
2 445 1475
27 653 2159
140 715 2666
300 745 2856
256 703 2776
237 689 2733
227 681 2710
0 596 132
0 592 158
0 861 1269
0 1017 2002
2 1065 2718
47 1082 3052
31 1070 3041
42 1061 3043
47 1057 3044
4 999 320
3 991 316
0 1165 973
0 1408 1864
0 1512 2601
0 1443 3033
0 1453 3027
0 1443 3026
0 1438 3026
56 1475 558
55 1467 554
33 1510 718
0 1788 1682
0 1935 2472
0 1894 3048
0 1842 3094
0 1829 3089
0 1823 3087
141 2052 739
140 2045 738
137 2030 736
52 2194 1345
0 2401 2207
0 2477 3060
0 2264 3215
0 2257 3213
0 2252 3212
226 2477 735
225 2473 736
223 2466 739
200 2502 925
87 2663 1668
0 2923 2768
0 2781 3387
0 2725 3364
0 2719 3361
257 2561 688
257 2561 688
257 2561 688
253 2567 714
172 2679 1285
14 2913 2277
0 3076 3393
0 2957 3459
0 2957 3459
257 2561 688
257 2561 688
257 2561 688
256 2563 699
182 2664 1210
28 2886 2162
0 3095 3334
0 2957 3459
0 2957 3459
1100 438 260
1130 294 467
991 221 1684
268 496 2246
423 690 2865
457 831 3078
454 831 3077
452 831 3077
452 831 3077
1001 446 73
1054 452 300
772 350 1502
153 544 2126
292 697 2787
435 841 3077
451 835 3078
456 835 3078
458 835 3079
557 700 104
546 689 105
213 765 1103
0 967 1959
4 1037 2692
133 1046 3072
104 1018 3059
116 1011 3060
121 1007 3060
55 1014 209
50 1005 208
2 1112 770
0 1420 1818
0 1523 2574
0 1453 3042
0 1431 3041
0 1419 3040
0 1414 3039
60 1464 518
59 1455 516
43 1473 627
0 1749 1610
0 1904 2423
0 1869 3026
0 1808 3083
0 1792 3078
0 1787 3076
134 2010 733
133 2004 732
130 1990 730
51 2145 1301
0 2355 2161
0 2438 3018
0 2232 3206
0 2226 3205
0 2221 3203
220 2455 743
219 2451 744
217 2445 747
198 2476 908
87 2638 1643
0 2893 2727
0 2769 3376
0 2690 3347
0 2684 3344
257 2561 688
257 2561 688
257 2561 688
255 2565 705
177 2672 1247
20 2900 2221
0 3086 3366
0 2957 3459
0 2957 3459
257 2561 688
257 2561 688
257 2561 688
257 2561 690
187 2657 1174
34 2874 2107
0 3100 3303
0 2957 3459
0 2957 3459
1749 757 537
1731 655 507
1929 360 1406
1491 472 2335
868 657 2897
569 829 3091
564 829 3090
560 829 3090
559 829 3090
1694 695 403
1692 717 497
1844 370 1181
1408 450 2208
730 625 2807
547 830 3089
539 829 3087
536 829 3087
535 829 3087
1573 856 32
1562 847 31
1573 907 801
1056 859 1981
240 915 2698
389 977 3099
355 959 3099
360 953 3098
362 950 3098
1168 1187 221
1157 1178 218
1041 1188 595
448 1271 1657
2 1417 2532
11 1375 3058
6 1309 3085
6 1298 3083
6 1294 3082
543 1555 262
532 1545 261
478 1529 315
55 1668 1330
0 1978 2388
0 1945 3046
0 1787 3123
0 1772 3119
0 1767 3117
198 2050 483
195 2042 486
189 2027 493
110 2163 1048
1 2426 2031
0 2552 3008
0 2266 3236
0 2256 3230
0 2250 3228
240 2481 674
238 2475 678
234 2465 684
217 2482 806
106 2626 1545
0 2879 2643
0 2781 3372
0 2666 3337
0 2660 3334
259 2564 676
259 2564 678
258 2563 681
257 2562 689
186 2659 1187
32 2879 2129
0 3098 3318
0 2957 3459
0 2957 3459
257 2561 688
257 2561 688
257 2561 688
257 2561 688
196 2645 1113
48 2852 2018
0 3101 3243
0 2956 3459
0 2957 3459
2463 1115 842
2457 1072 833
2366 761 960
2513 556 2140
1953 677 2994
1536 843 3203
1429 841 3190
1405 841 3187
1393 841 3185
2330 1058 794
2320 1051 789
2239 735 839
2411 530 2004
1869 643 2904
1464 856 3199
1233 838 3166
1200 838 3162
1183 837 3160
2479 1071 304
2465 1063 305
2527 1164 879
2408 842 1611
1723 881 2788
1299 938 3192
896 919 3162
870 914 3158
859 912 3156
2205 1281 123
2194 1274 122
2424 1320 223
2055 1395 1349
1413 1340 2598
715 1229 3179
321 1167 3166
319 1158 3162
319 1154 3161
1833 1704 357
1824 1695 355
1801 1677 352
1500 1737 1215
852 1819 2236
70 1807 3092
1 1618 3194
2 1600 3191
2 1595 3188
1402 2260 392
1388 2250 390
1362 2230 385
1092 2245 783
233 2353 1778
0 2564 2966
0 2287 3329
0 2236 3309
0 2230 3306
850 2635 431
835 2628 431
810 2615 431
741 2612 505
281 2709 1218
4 2932 2442
0 2983 3468
0 2821 3450
0 2812 3446
566 2693 497
555 2690 500
540 2687 503
516 2681 509
395 2771 928
105 2915 1848
0 3171 3230
0 3029 3506
0 3027 3505
480 2673 520
472 2671 523
462 2669 528
443 2664 536
363 2745 883
119 2883 1754
0 3152 3112
0 3015 3496
0 3015 3496
3177 1418 1059
3169 1409 1057
2975 1211 1044
3042 973 1603
3087 735 2907
2618 879 3320
2495 849 3300
2475 848 3298
2465 847 3296
3105 1385 1036
3097 1382 1034
2912 1197 1006
2962 950 1484
3025 713 2792
2553 906 3318
2356 843 3285
2335 843 3283
2325 842 3282
3158 1384 816
3143 1380 821
3205 1447 1083
3028 1111 1149
3037 903 2574
2464 970 3303
2149 905 3286
2124 899 3283
2113 897 3281
3274 1461 247
3264 1455 247
3364 1455 316
3209 1618 1273
2959 1308 2122
2259 1266 3293
1849 1145 3337
1817 1134 3330
1807 1131 3328
3030 1739 143
3018 1730 141
2994 1712 138
3260 1887 759
2768 1975 1865
2013 1823 3224
1383 1502 3415
1274 1474 3398
1258 1467 3395
2713 2379 524
2700 2368 522
2674 2350 517
2578 2374 699
2151 2465 1733
1395 2570 2931
582 2225 3546
205 2085 3456
192 2075 3451
2357 2920 614
2343 2913 610
2321 2902 605
2275 2893 610
1868 2953 1254
700 3019 2272
133 3164 3554
0 2995 3632
0 2984 3627
1765 2953 543
1750 2950 540
1729 2945 536
1693 2938 529
1550 2982 768
843 3043 1483
1 3250 3031
0 3201 3622
0 3199 3620
1630 2924 518
1615 2921 515
1594 2916 511
1558 2908 505
1427 2943 699
799 3012 1399
0 3203 2852
0 3181 3605
0 3180 3604
3243 1448 1081
3243 1448 1081
3073 1288 1065
3090 1040 1426
3229 845 2734
2922 944 3363
2789 874 3334
2789 874 3334
2789 874 3334
3243 1448 1081
3243 1448 1081
3094 1301 1050
3071 1050 1299
3233 891 2568
2986 920 3345
2789 874 3334
2789 874 3334
2789 874 3334
3345 1528 1035
3339 1528 1042
3297 1575 1204
3171 1323 1238
3275 1104 2206
3121 930 3294
2820 916 3350
2816 910 3348
2815 908 3347
3664 1629 587
3660 1624 591
3647 1630 654
3429 1922 1584
3263 1507 1780
3302 1248 3189
2862 1176 3432
2841 1161 3426
2838 1157 3424
3800 1982 356
3796 1974 355
3788 1958 353
3844 2102 885
3552 2346 2055
3436 1819 2853
2826 1570 3541
2758 1540 3528
2747 1533 3526
3795 2381 325
3787 2371 321
3774 2353 314
3854 2438 438
3903 2636 1315
3521 2750 2587
2790 2380 3684
2630 2214 3689
2615 2203 3685
3623 3001 667
3612 2995 666
3597 2985 664
3573 2973 663
3457 3080 1205
3017 3249 2368
2535 3375 3619
2313 3162 3867
2289 3148 3864
3141 3245 779
3126 3242 777
3107 3240 775
3076 3235 772
3021 3284 939
2760 3373 1632
1784 3472 2811
512 3530 3879
470 3527 3875
3010 3229 766
2995 3227 764
2976 3224 762
2939 3216 756
2879 3247 864
2632 3328 1487
1613 3405 2563
221 3485 3845
175 3481 3838
3243 1448 1081
3243 1448 1081
3080 1291 1057
3081 1044 1370
3233 866 2662
2954 935 3357
2789 874 3334
2789 874 3334
2789 874 3334
3243 1448 1081
3243 1448 1081
3111 1312 1050
3065 1055 1249
3232 910 2491
3010 908 3332
2789 874 3334
2789 874 3334
2789 874 3334
3317 1525 1066
3313 1523 1069
3286 1546 1174
3149 1300 1203
3256 1084 2119
3138 886 3263
2810 901 3344
2806 896 3343
2805 895 3342
3640 1605 624
3636 1601 629
3624 1598 659
3415 1882 1541
3248 1480 1702
3321 1231 3114
2901 1149 3427
2883 1134 3421
2883 1130 3420
3824 1980 415
3822 1974 416
3818 1963 419
3834 2080 914
3558 2385 2105
3447 1894 2728
3023 1560 3551
2970 1514 3536
2969 1508 3535
3956 2452 407
3954 2445 405
3952 2433 403
3965 2463 522
3971 2686 1487
3654 2958 2794
3346 2326 3637
3155 2160 3707
3152 2150 3705
4041 2978 598
4041 2971 595
4039 2961 591
4037 2943 585
4062 3065 1132
4003 3303 2262
3685 3531 3565
3464 3147 3917
3459 3135 3915
4038 3273 722
4036 3272 722
4034 3269 721
4031 3266 720
4043 3320 823
4023 3494 1639
3787 3778 3015
3810 3961 4032
3812 3955 4032
4010 3277 729
4007 3277 729
4004 3277 730
3996 3277 732
3998 3318 786
3959 3488 1514
3690 3735 2720
3612 3964 4021
3531 3964 4017
3243 1448 1081
3243 1448 1081
3086 1295 1054
3077 1047 1342
3234 877 2625
2970 930 3354
2789 874 3334
2789 874 3334
2789 874 3334
3243 1448 1081
3243 1448 1081
3121 1320 1053
3063 1057 1226
3231 918 2454
3021 902 3326
2789 874 3334
2789 874 3334
2789 874 3334
3309 1521 1071
3305 1519 1074
3282 1534 1162
3140 1291 1189
3246 1074 2085
3145 869 3250
2807 896 3343
2803 891 3341
2802 890 3340
3630 1596 639
3626 1593 645
3616 1588 666
3408 1866 1525
3243 1469 1675
3323 1222 3090
2900 1138 3424
2881 1123 3417
2880 1119 3416
3819 1965 418
3817 1959 419
3813 1948 421
3828 2059 894
3553 2366 2082
3440 1876 2688
3026 1555 3550
2966 1496 3531
2964 1490 3529
3952 2434 403
3951 2427 401
3948 2416 399
3959 2440 505
3967 2662 1463
3651 2937 2767
3359 2306 3617
3147 2131 3700
3144 2121 3698
4039 2960 591
4038 2953 588
4037 2943 584
4035 2926 578
4060 3046 1110
4004 3283 2234
3693 3518 3544
3451 3110 3911
3446 3097 3908
4045 3269 719
4045 3267 718
4046 3264 717
4047 3261 715
4058 3311 823
4058 3480 1607
3883 3773 3017
3919 3967 4036
3932 3949 4035
4043 3277 723
4043 3277 723
4043 3277 723
4043 3277 723
4051 3315 773
4060 3476 1442
3905 3742 2701
3995 4027 4013
4041 4043 4027
