assets/luts/LUTs by IWLTBAP (3DL)/02 - Generic LOG/C-8120-LOG.3dl
# Copyright: (C) Copyright 2010-2020 by IWLTBAP SAS
# Cannot be resold, shared or otherwise redistributed
# Website: https://luts.iwltbap.com
0 64 128 192 256 320 384 448 512 576 640 704 768 832 896 960 1023
0 0 0
7 25 425
27 106 918
4 62 1262
5 144 1494
23 252 1684
50 353 1850
78 446 2037
96 535 2239
122 595 2425
140 616 2501
141 617 2505
141 617 2505
141 617 2505
141 617 2505
141 617 2505
141 617 2505
0 60 13
0 77 209
10 167 815
5 183 1231
5 220 1511
16 296 1701
45 372 1856
74 436 2013
93 525 2212
118 589 2403
139 615 2499
141 617 2505
141 617 2505
141 617 2505
141 617 2505
141 617 2505
141 617 2505
0 258 40
0 254 49
0 326 615
0 418 1125
0 502 1510
1 591 1832
12 689 2165
37 727 2416
83 732 2601
165 735 2744
226 736 2802
215 722 2776
199 709 2748
193 703 2737
186 698 2725
179 692 2715
178 692 2714
0 441 109
0 437 108
0 480 421
0 586 967
0 692 1407
0 774 1754
0 857 2115
2 911 2485
46 906 2785
218 915 2994
261 961 3062
247 937 3048
264 922 3040
272 916 3037
280 909 3034
288 902 3030
289 901 3030
0 617 138
0 614 138
0 626 217
0 758 802
0 901 1314
0 978 1683
0 1052 2037
0 1106 2413
2 1093 2741
53 1078 2974
26 1099 3044
13 1099 3037
17 1089 3038
19 1084 3038
21 1080 3039
24 1076 3040
24 1076 3040
0 808 212
0 806 211
0 800 208
0 907 628
0 1062 1188
0 1176 1616
0 1250 1968
0 1306 2341
0 1327 2683
1 1284 2935
1 1273 3044
0 1287 3026
0 1276 3027
0 1270 3027
0 1265 3027
0 1260 3027
0 1259 3027
5 1022 333
5 1019 331
5 1014 328
1 1053 486
0 1199 1020
0 1346 1516
0 1435 1894
0 1504 2270
0 1535 2628
0 1513 2897
0 1462 3036
0 1477 3028
0 1470 3028
0 1464 3027
0 1460 3027
0 1456 3027
0 1456 3027
28 1242 450
27 1240 449
27 1235 446
24 1235 461
2 1350 860
0 1501 1387
0 1621 1819
0 1692 2191
0 1735 2568
0 1732 2876
0 1659 3032
0 1648 3044
0 1647 3044
0 1640 3043
0 1635 3042
0 1630 3041
0 1630 3041
59 1500 569
59 1496 567
58 1491 565
57 1484 562
33 1542 752
1 1691 1247
0 1817 1710
0 1906 2106
0 1959 2497
0 1974 2845
0 1910 3060
0 1861 3105
0 1860 3100
0 1852 3097
0 1847 3095
0 1842 3094
0 1841 3094
100 1797 679
100 1794 678
99 1790 677
98 1782 675
91 1791 724
40 1909 1107
3 2030 1556
0 2130 1972
0 2207 2406
0 2235 2797
0 2202 3090
0 2085 3169
0 2071 3163
0 2064 3161
0 2060 3160
0 2055 3158
0 2055 3158
145 2073 742
144 2069 742
143 2065 741
142 2059 740
141 2051 739
114 2112 960
53 2217 1365
5 2321 1777
0 2425 2230
0 2497 2705
0 2497 3081
0 2373 3234
0 2281 3219
0 2278 3219
0 2273 3218
0 2268 3216
0 2268 3216
188 2310 764
188 2308 764
187 2304 764
186 2300 763
185 2294 763
177 2307 830
134 2384 1155
73 2479 1544
11 2588 1975
0 2709 2503
0 2777 3009
0 2702 3293
0 2507 3274
0 2505 3272
0 2499 3270
0 2494 3268
0 2494 3268
230 2489 730
229 2488 731
228 2485 732
227 2482 733
226 2478 735
225 2472 737
202 2516 933
152 2584 1280
87 2676 1681
11 2805 2198
0 2939 2792
0 2975 3274
0 2789 3393
0 2752 3377
0 2745 3373
0 2739 3371
0 2739 3371
257 2560 688
257 2560 688
257 2560 688
257 2560 688
257 2559 688
257 2558 689
244 2574 765
204 2629 1049
150 2703 1421
69 2816 1899
0 2955 2490
0 3083 3112
0 3012 3440
0 2933 3451
0 2932 3451
0 2932 3450
0 2931 3450
257 2561 688
257 2561 688
257 2561 688
257 2561 688
257 2561 688
257 2561 688
253 2568 719
218 2615 955
168 2684 1310
97 2785 1748
9 2922 2316
0 3067 2964
0 3065 3406
0 2953 3457
0 2957 3459
0 2957 3459
0 2957 3459
257 2561 688
257 2561 688
257 2561 688
257 2561 688
257 2561 688
257 2561 688
255 2565 705
226 2604 895
178 2670 1240
113 2763 1654
22 2897 2210
0 3044 2852
0 3088 3359
0 2951 3457
0 2957 3459
0 2957 3459
0 2957 3459
257 2561 688
257 2561 688
257 2561 688
257 2561 688
257 2561 688
257 2561 688
255 2564 704
227 2603 890
179 2669 1235
114 2761 1646
23 2895 2201
0 3042 2843
0 3089 3354
0 2952 3458
0 2957 3459
0 2957 3459
0 2957 3459
86 21 15
72 30 391
63 109 933
16 70 1327
16 208 1607
42 322 1800
65 403 1951
84 479 2112
103 549 2286
130 599 2447
142 616 2506
141 617 2505
141 617 2505
141 617 2505
141 617 2505
141 617 2505
141 617 2505
23 58 9
7 66 149
16 147 791
8 143 1207
6 170 1479
19 253 1670
45 337 1820
73 428 2001
92 522 2206
117 587 2398
139 615 2499
141 617 2505
141 617 2505
141 617 2505
141 617 2505
141 617 2505
141 617 2505
0 245 36
0 241 40
0 309 589
0 399 1107
0 484 1498
1 574 1819
13 673 2148
38 708 2382
81 718 2564
155 724 2713
212 724 2775
201 710 2752
186 698 2726
179 693 2715
173 688 2705
170 682 2690
170 682 2689
0 431 107
0 428 106
0 467 398
0 570 946
0 678 1394
0 760 1743
0 844 2102
2 901 2473
46 898 2776
220 905 2985
270 949 3055
258 927 3042
276 912 3035
284 905 3031
293 898 3028
301 891 3025
301 891 3025
0 609 137
0 606 137
0 611 187
0 744 783
0 888 1300
0 966 1672
0 1040 2025
0 1097 2402
2 1084 2733
56 1070 2968
32 1093 3046
15 1092 3037
20 1082 3039
23 1077 3039
26 1073 3040
31 1070 3041
31 1069 3041
0 800 208
0 798 206
0 792 204
0 894 609
0 1050 1173
0 1165 1604
0 1239 1956
0 1297 2330
0 1319 2674
1 1277 2929
1 1264 3044
0 1279 3027
0 1268 3027
0 1262 3027
0 1257 3027
0 1252 3028
0 1252 3028
5 1014 328
4 1011 327
4 1006 324
1 1043 474
0 1187 1004
0 1335 1503
0 1425 1883
0 1495 2259
0 1526 2618
0 1506 2890
0 1455 3035
0 1470 3028
0 1464 3027
0 1458 3027
0 1454 3027
0 1449 3026
0 1449 3026
27 1234 446
26 1232 444
26 1227 442
24 1226 453
2 1337 843
0 1489 1372
0 1611 1808
0 1682 2180
0 1727 2557
0 1726 2869
0 1653 3029
0 1640 3043
0 1640 3043
0 1632 3042
0 1628 3041
0 1623 3040
0 1623 3040
58 1490 564
57 1487 563
57 1482 561
56 1473 557
33 1529 738
1 1677 1232
0 1805 1698
0 1894 2095
0 1949 2487
0 1964 2835
0 1903 3055
0 1854 3104
0 1853 3097
0 1844 3094
0 1839 3093
0 1834 3091
0 1834 3091
99 1788 676
98 1784 675
98 1780 674
96 1772 671
90 1778 713
40 1897 1095
3 2019 1545
0 2119 1963
0 2197 2395
0 2226 2786
0 2195 3082
0 2078 3166
0 2064 3161
0 2057 3159
0 2053 3158
0 2048 3156
0 2048 3156
143 2063 741
143 2060 740
142 2056 740
141 2050 739
139 2042 738
113 2101 950
52 2207 1356
5 2311 1770
0 2414 2220
0 2487 2694
0 2488 3072
0 2368 3232
0 2274 3218
0 2270 3217
0 2266 3216
0 2261 3214
0 2261 3214
187 2303 764
186 2300 763
186 2297 763
185 2292 763
183 2286 763
176 2299 825
134 2376 1148
72 2471 1538
11 2580 1967
0 2701 2493
0 2769 2999
0 2696 3288
0 2499 3273
0 2497 3269
0 2491 3267
0 2487 3266
0 2486 3266
228 2484 733
227 2482 733
227 2480 734
226 2477 735
225 2472 737
223 2467 738
201 2510 929
152 2578 1276
87 2671 1676
11 2799 2189
0 2932 2782
0 2970 3266
0 2785 3390
0 2743 3373
0 2736 3369
0 2731 3367
0 2730 3367
257 2560 688
257 2560 688
257 2560 688
257 2560 688
257 2559 688
257 2558 689
245 2573 760
205 2628 1041
151 2700 1411
71 2813 1886
1 2952 2476
0 3081 3101
0 3015 3437
0 2931 3450
0 2931 3450
0 2930 3450
0 2930 3450
257 2561 688
257 2561 688
257 2561 688
257 2561 688
257 2561 688
257 2561 688
253 2567 716
219 2614 946
170 2682 1299
100 2782 1732
11 2918 2299
0 3064 2947
0 3070 3400
0 2952 3457
0 2957 3459
0 2957 3459
0 2957 3459
257 2561 688
257 2561 688
257 2561 688
257 2561 688
257 2561 688
257 2561 688
255 2564 703
227 2602 886
180 2668 1229
116 2760 1640
24 2893 2192
0 3040 2834
0 3091 3350
0 2953 3458
0 2957 3459
0 2957 3459
0 2957 3459
257 2561 688
257 2561 688
257 2561 688
257 2561 688
257 2561 688
257 2561 688
255 2564 702
228 2601 881
180 2667 1224
117 2758 1632
25 2891 2183
0 3038 2825
0 3092 3346
0 2954 3459
0 2957 3459
0 2957 3459
0 2957 3459
442 158 51
453 116 165
422 132 912
218 76 1331
100 214 1627
92 386 1928
104 542 2265
158 617 2540
226 643 2680
323 676 2797
354 685 2832
335 680 2814
319 675 2798
310 672 2789
301 669 2780
293 667 2772
292 666 2771
360 149 25
374 140 67
347 142 794
148 90 1259
85 189 1578
76 360 1874
95 515 2195
130 592 2432
177 624 2577
251 652 2711
288 664 2766
275 661 2750
262 657 2732
257 655 2725
252 653 2717
246 652 2709
246 652 2709
183 280 28
178 274 27
61 312 523
5 373 1066
2 445 1475
6 550 1809
27 653 2159
61 702 2454
140 715 2666
254 733 2806
300 745 2856
280 721 2824
256 703 2776
247 696 2755
237 689 2733
228 682 2712
227 681 2710
17 440 90
16 437 89
2 462 340
0 549 889
0 650 1362
0 743 1724
0 829 2082
3 892 2453
48 886 2764
223 888 2970
288 929 3044
288 907 3035
306 889 3025
313 881 3021
320 874 3016
326 868 3012
327 868 3012
0 596 132
0 593 131
0 592 158
0 716 738
0 861 1269
0 940 1648
0 1017 2002
0 1078 2381
2 1065 2718
61 1054 2958
47 1082 3052
23 1079 3039
31 1070 3041
37 1065 3042
42 1061 3043
47 1057 3044
47 1057 3044
0 784 200
0 782 198
0 776 196
0 870 569
0 1027 1143
0 1143 1581
0 1218 1934
0 1279 2310
0 1303 2657
1 1263 2920
3 1246 3042
0 1265 3027
0 1254 3027
0 1248 3028
0 1243 3028
0 1239 3028
0 1238 3028
4 999 320
3 996 319
3 991 316
1 1023 447
0 1165 973
0 1316 1481
0 1408 1864
0 1479 2240
0 1512 2601
0 1496 2880
0 1443 3033
0 1458 3027
0 1453 3027
0 1447 3026
0 1443 3026
0 1439 3026
0 1438 3026
25 1222 439
25 1219 438
24 1215 436
23 1210 440
2 1317 815
0 1471 1350
0 1595 1790
0 1668 2163
0 1715 2542
0 1716 2857
0 1644 3025
0 1630 3042
0 1630 3041
0 1622 3040
0 1618 3040
0 1614 3039
0 1614 3039
56 1475 558
55 1472 556
55 1467 554
54 1459 551
33 1510 718
1 1658 1211
0 1788 1682
0 1879 2080
0 1935 2472
0 1952 2822
0 1894 3048
0 1844 3102
0 1842 3094
0 1834 3091
0 1829 3089
0 1824 3088
0 1823 3087
97 1774 672
96 1771 671
96 1766 670
94 1759 667
90 1761 698
40 1881 1078
3 2004 1532
0 2106 1950
0 2183 2381
0 2213 2773
0 2186 3073
0 2070 3162
0 2054 3158
0 2048 3156
0 2044 3155
0 2039 3154
0 2039 3154
141 2052 739
141 2049 739
140 2045 738
139 2039 737
137 2030 736
113 2087 939
52 2194 1345
5 2298 1760
0 2401 2207
0 2475 2680
0 2477 3060
0 2363 3229
0 2264 3215
0 2262 3215
0 2257 3213
0 2252 3212
0 2252 3212
185 2294 763
184 2291 763
184 2288 763
183 2283 763
182 2277 762
175 2288 819
133 2365 1140
72 2461 1530
11 2569 1956
0 2689 2480
0 2757 2985
0 2689 3280
0 2490 3271
0 2488 3267
0 2482 3265
0 2477 3264
0 2477 3264
226 2477 735
225 2475 736
225 2473 736
224 2470 737
223 2466 739
221 2460 741
200 2502 925
151 2571 1271
87 2663 1668
11 2790 2179
0 2923 2768
0 2963 3256
0 2781 3387
0 2733 3368
0 2725 3364
0 2719 3361
0 2719 3361
257 2560 688
257 2560 688
257 2560 688
257 2560 688
257 2559 688
256 2558 689
246 2571 754
207 2625 1031
153 2697 1400
74 2808 1871
1 2947 2458
0 3079 3087
0 3018 3434
0 2929 3450
0 2929 3450
0 2928 3449
0 2928 3449
257 2561 688
257 2561 688
257 2561 688
257 2561 688
257 2561 688
257 2561 688
253 2567 714
221 2611 933
172 2679 1285
104 2777 1712
14 2913 2277
0 3059 2924
0 3076 3393
0 2952 3457
0 2957 3459
0 2957 3459
0 2957 3459
257 2561 688
257 2561 688
257 2561 688
257 2561 688
257 2561 688
257 2561 688
256 2563 700
229 2600 875
181 2665 1216
119 2756 1622
27 2888 2170
0 3035 2810
0 3094 3339
0 2956 3461
0 2957 3459
0 2957 3459
0 2957 3459
257 2561 688
257 2561 688
257 2561 688
257 2561 688
257 2561 688
257 2561 688
256 2563 699
230 2599 870
182 2664 1210
120 2754 1615
28 2886 2162
0 3033 2801
0 3095 3334
0 2957 3461
0 2957 3459
0 2957 3459
0 2957 3459
748 324 189
735 300 207
849 187 748
730 111 1356
402 208 1640
178 364 1913
154 526 2259
200 624 2596
399 700 2874
534 808 3055
502 828 3071
517 830 3072
528 832 3072
535 834 3072
542 835 3072
548 836 3072
548 836 3072
690 298 157
685 294 160
772 179 635
675 110 1285
362 184 1587
162 343 1864
144 509 2209
180 616 2553
361 688 2839
537 787 3029
549 834 3071
557 836 3070
553 826 3060
550 820 3053
547 814 3048
543 809 3042
