assets/luts/LUTs by IWLTBAP (3DL)/02 - Generic LOG/C-9730-LOG.3dl
# Copyright: (C) Copyright 2010-2020 by IWLTBAP SAS
# Cannot be resold, shared or otherwise redistributed
# Website: https://luts.iwltbap.com
0 256 512 768 1023
15 32 0
23 118 153
189 413 1757
623 1123 3103
1091 1441 3436
2 366 0
3 551 280
83 1247 1446
699 1865 3067
1096 2061 3381
350 1864 1016
423 1959 1265
768 2413 2287
1457 2984 3172
1634 3150 3380
834 2543 1595
946 2637 1799
1458 3055 2878
1886 3488 3592
2094 3618 3750
1085 2767 1956
1210 2867 2140
1681 3279 3092
2155 3654 3742
2416 3739 3846
364 83 0
377 86 91
413 334 1479
1115 747 3043
1811 1080 3478
309 315 0
74 526 422
213 601 1909
981 1450 3042
1485 1684 3470
306 1792 884
389 1917 1134
731 2362 2196
1476 2956 3133
1642 3120 3353
878 2538 1637
979 2639 1828
1481 3049 2820
1920 3502 3601
2139 3633 3751
1131 2779 1985
1246 2874 2163
1701 3277 3051
2203 3662 3742
2458 3746 3848
1969 329 0
2070 300 0
1666 577 936
2622 1218 2503
2819 1460 2985
1854 429 6
1944 315 0
1548 665 1100
2638 1327 2630
2825 1515 3120
1886 1546 153
2054 1891 160
1822 2231 2240
2381 2655 3417
2561 2893 3669
2201 2929 1238
1970 2913 1753
2150 3341 2917
2476 3707 3769
2661 3774 3862
2307 3138 1677
2185 3166 2208
2264 3535 3111
2687 3792 3853
2861 3841 3923
2613 711 0
2606 639 0
2568 1079 1121
3012 1572 2381
3194 1675 2803
2642 889 0
2679 800 0
2638 1188 1242
3044 1660 2457
3261 1758 2987
2896 1764 78
3054 1877 447
3096 2035 2086
3261 2436 2964
3497 2554 3402
3059 2823 1297
3038 2815 1552
3231 3376 2585
3273 3719 3831
3447 3793 3932
3099 3179 1573
3112 3206 1727
3316 3590 2843
3386 3866 3928
3536 3917 4008
2837 907 0
2830 916 0
2775 1242 1285
3147 1652 2467
3347 1786 2910
2813 1016 0
2818 1005 9
2806 1337 1375
3176 1763 2563
3410 1910 3049
3158 1953 287
3076 1922 936
3287 2156 2146
3390 2518 3023
3631 2678 3419
3330 2842 1481
3312 2850 1687
3560 3360 2760
3691 3716 3727
3786 3773 3968
3393 3245 1769
3390 3269 1996
3616 3638 2914
3745 3907 3926
3781 3958 4066
