assets/luts/LUTs by IWLTBAP (3DL)/02 - Generic LOG/C-9730-LOG.3dl
# Copyright: (C) Copyright 2010-2020 by IWLTBAP SAS
# Cannot be resold, shared or otherwise redistributed
# Website: https://luts.iwltbap.com
0 128 256 384 512 640 768 896 1023
15 32 0
20 45 0
23 118 153
9 391 732
189 413 1757
277 633 2650
623 1123 3103
984 1372 3361
1091 1441 3436
12 131 0
22 169 0
33 326 162
0 732 662
132 867 1596
168 1070 2457
515 1473 2914
935 1650 3320
1044 1687 3426
2 366 0
7 399 54
3 551 280
0 858 747
83 1247 1446
302 1573 2358
699 1865 3067
1008 2010 3323
1096 2061 3381
0 903 269
0 937 394
0 977 735
54 1219 1159
356 1785 1761
557 2211 2499
950 2530 2898
1157 2646 3027
1234 2688 3078
350 1864 1016
369 1890 1086
423 1959 1265
548 2120 1672
768 2413 2287
1193 2803 2908
1457 2984 3172
1585 3099 3321
1634 3150 3380
741 2391 1421
760 2421 1466
809 2494 1576
940 2621 2058
1273 2906 2729
1661 3245 3295
1778 3382 3494
1896 3491 3632
1950 3533 3682
834 2543 1595
867 2569 1658
946 2637 1799
1114 2783 2242
1458 3055 2878
1760 3371 3428
1886 3488 3592
2028 3581 3711
2094 3618 3750
964 2656 1792
996 2687 1854
1084 2762 1990
1272 2918 2371
1586 3181 2993
1854 3468 3530
2014 3577 3680
2187 3662 3771
2263 3689 3804
1085 2767 1956
1118 2796 2012
1210 2867 2140
1395 3023 2474
1681 3279 3092
1966 3552 3622
2155 3654 3742
2343 3716 3818
2416 3739 3846
123 45 0
125 40 0
92 83 160
88 318 734
298 315 1709
392 440 2667
780 839 3196
1143 1075 3433
1277 1147 3514
74 140 0
38 156 0
25 213 244
17 480 740
197 467 1787
327 774 2640
725 1262 3036
1082 1485 3313
1194 1550 3395
2 358 0
4 395 22
5 536 322
0 847 746
47 1151 1483
238 1405 2384
751 1734 3070
1101 1884 3373
1191 1935 3438
0 895 228
0 927 327
0 980 677
42 1205 1121
349 1760 1737
548 2187 2480
968 2508 2891
1179 2626 3024
1255 2668 3074
332 1839 977
351 1866 1043
414 1943 1223
533 2099 1637
757 2397 2255
1181 2783 2879
1462 2975 3157
1586 3089 3310
1635 3139 3370
746 2386 1425
767 2413 1472
813 2487 1572
953 2625 2016
1281 2902 2701
1667 3242 3282
1785 3383 3492
1904 3493 3631
1958 3534 3681
852 2538 1612
887 2564 1675
960 2638 1810
1134 2792 2206
1470 3054 2858
1766 3371 3425
1898 3492 3594
2043 3586 3711
2110 3624 3750
981 2660 1803
1014 2692 1867
1102 2764 2003
1289 2924 2343
1596 3179 2977
1863 3471 3529
2027 3581 3681
2206 3664 3770
2281 3691 3803
1105 2772 1966
1140 2800 2020
1226 2870 2149
1412 3028 2447
1691 3280 3079
1975 3554 3619
2173 3656 3740
2358 3718 3818
2431 3741 3846
364 83 0
394 47 0
377 86 91
321 300 620
413 334 1479
652 409 2377
1115 747 3043
1615 993 3342
1811 1080 3478
343 135 0
387 106 0
369 138 137
218 329 745
391 325 1653
556 459 2607
1074 898 3139
1508 1115 3389
1680 1195 3494
309 315 0
255 375 3
74 526 422
54 646 908
213 601 1909
447 1034 2586
981 1450 3042
1371 1628 3377
1485 1684 3470
20 969 15
12 973 182
1 1011 548
30 1178 1090
326 1685 1745
581 2103 2499
1098 2400 2916
1327 2529 3072
1400 2575 3124
306 1792 884
314 1821 956
389 1917 1134
508 2067 1556
731 2362 2196
1156 2741 2820
1476 2956 3133
1596 3071 3290
1642 3120 3353
751 2382 1416
769 2405 1467
816 2475 1566
966 2626 1949
1282 2890 2647
1666 3226 3244
1795 3385 3489
1915 3494 3628
1970 3537 3678
878 2538 1637
909 2567 1700
979 2639 1828
1159 2802 2157
1481 3049 2820
1777 3374 3412
1920 3502 3601
2071 3597 3713
2139 3633 3751
1006 2667 1826
1041 2698 1886
1126 2768 2018
1310 2930 2303
1608 3174 2947
1881 3478 3525
2055 3592 3683
2238 3669 3771
2312 3697 3804
1131 2779 1985
1165 2807 2038
1246 2874 2163
1431 3031 2428
1701 3277 3051
1993 3560 3614
2203 3662 3742
2386 3723 3821
2458 3746 3848
907 87 0
913 93 0
940 106 5
794 246 428
761 370 1333
1091 412 2124
1767 856 2821
2143 1132 3252
2301 1228 3439
860 129 0
895 94 0
957 105 3
740 258 457
678 356 1446
1082 442 2177
1754 919 2897
2129 1169 3295
2288 1256 3470
748 325 0
783 293 0
911 282 10
698 443 717
690 352 1705
1131 666 2444
1701 1140 3102
2049 1301 3440
2221 1370 3568
797 817 0
776 855 1
752 900 159
357 1087 1162
585 1203 1997
1098 1614 2660
1573 1853 3233
1837 2004 3561
1925 2059 3646
740 1798 134
628 1894 313
591 1980 886
589 2117 1506
820 2392 2177
1307 2710 2744
1637 2967 3155
1740 3087 3338
1778 3133 3407
885 2441 1480
894 2459 1600
920 2504 1726
1085 2685 1993
1403 2930 2595
1743 3255 3226
1910 3452 3541
2048 3553 3667
2114 3590 3709
1033 2628 1799
1055 2647 1859
1112 2706 1978
1280 2861 2227
1596 3107 2796
1876 3434 3415
2060 3574 3644
2227 3650 3744
2301 3678 3778
1152 2747 1970
1180 2771 2024
1249 2831 2140
1423 2977 2384
1709 3236 2932
1996 3535 3535
2202 3646 3715
2382 3708 3798
2453 3731 3828
1268 2850 2106
1299 2875 2160
1380 2933 2274
1555 3086 2517
1804 3348 3046
2113 3608 3621
2347 3702 3772
2514 3755 3843
2577 3774 3869
1969 329 0
2012 316 0
2070 300 0
2033 312 130
1666 577 936
2178 833 1867
2622 1218 2503
2765 1403 2819
2819 1460 2985
1938 368 0
1946 331 0
2016 305 0
2060 315 115
1584 602 972
2154 862 1909
2634 1258 2542
2770 1424 2862
2825 1482 3041
1854 429 6
1876 383 2
1944 315 0
2047 338 142
1548 665 1100
2129 928 2012
2638 1327 2630
2771 1457 2931
2825 1515 3120
1472 850 29
1555 849 35
1811 787 56
2019 954 746
1909 1166 1654
2311 1396 2454
2588 1544 2965
2705 1630 3303
2763 1695 3487
1886 1546 153
1970 1659 159
2054 1891 160
1947 2000 1148
1822 2231 2240
2170 2470 2877
2381 2655 3417
2509 2833 3625
2561 2893 3669
2059 2461 199
2103 2579 288
1986 2655 922
1865 2702 1898
1999 3018 2661
2121 3337 3275
2281 3562 3639
2408 3641 3751
2463 3668 3784
2201 2929 1238
2105 2900 1476
1970 2913 1753
1899 2993 2345
2150 3341 2917
2232 3584 3517
2476 3707 3769
2609 3756 3838
2661 3774 3862
2236 3039 1513
2167 3007 1760
2060 3043 2040
2018 3154 2470
2187 3460 3028
2320 3649 3614
2583 3753 3816
2712 3795 3874
2763 3811 3895
2307 3138 1677
2256 3136 1880
2185 3166 2208
2177 3290 2567
2264 3535 3111
2413 3697 3682
2687 3792 3853
2813 3828 3905
2861 3841 3923
2472 572 0
2477 538 0
2497 519 0
2547 461 1
2401 1001 1062
2686 1307 1899
2930 1507 2400
3037 1556 2661
3105 1597 2819
2505 665 0
2516 626 0
2540 605 0
2600 569 5
2404 1025 1081
2678 1349 1930
2937 1534 2425
3053 1579 2720
3121 1617 2893
2521 781 2
2545 741 0
2581 701 0
2674 746 42
2410 1075 1153
2676 1410 1991
2949 1573 2477
3073 1611 2803
3149 1645 3020
2381 1036 61
2455 1027 49
2572 990 24
2597 1137 672
2567 1338 1487
2711 1617 2160
2958 1709 2622
3116 1722 3014
3212 1758 3272
2508 1616 132
2613 1684 118
2831 1846 160
2756 1978 1333
2829 2150 2087
2941 2295 2621
3122 2363 3104
3229 2419 3414
3299 2478 3554
2765 2436 191
2782 2491 271
2849 2607 754
2876 2703 1601
2889 2858 2368
2883 3194 3173
2902 3401 3579
2993 3503 3746
3030 3534 3789
2827 2894 893
2810 2880 1078
2839 2892 1378
2888 3067 1845
2907 3341 2759
2782 3630 3528
2903 3774 3837
3010 3824 3912
3047 3838 3931
2828 3007 1364
2839 2996 1426
2868 3015 1583
2924 3185 2027
2936 3481 2863
2838 3718 3623
2977 3828 3894
3088 3862 3944
3125 3874 3960
2877 3102 1514
2885 3108 1591
2903 3121 1726
2944 3279 2197
2964 3556 2941
2900 3763 3676
3051 3859 3926
3159 3889 3970
3195 3900 3984
2613 711 0
2608 678 0
2606 639 0
2630 636 8
2568 1079 1121
2792 1408 1975
3012 1572 2381
3123 1628 2633
3194 1675 2803
2611 771 0
2617 729 0
2617 691 0
2648 711 17
2579 1107 1145
2792 1459 2011
3020 1612 2405
3145 1674 2678
3218 1715 2861
2642 889 0
2661 848 0
2679 800 0
2727 879 88
2638 1188 1242
2807 1529 2073
3044 1660 2457
3179 1727 2761
3261 1758 2987
2672 1139 21
2756 1109 1
2809 1097 9
2843 1242 561
2874 1484 1563
2853 1688 2201
3084 1799 2595
3248 1881 2936
3355 1908 3177
2896 1764 78
2960 1806 124
3054 1877 447
2996 1954 1411
3096 2035 2086
3098 2238 2512
3261 2436 2964
3401 2509 3237
3497 2554 3402
3102 2460 571
3060 2421 782
3024 2374 1230
3139 2581 1727
3218 2884 2459
3282 3174 3034
3374 3275 3487
3524 3308 3663
3596 3331 3736
3059 2823 1297
3044 2810 1401
3038 2815 1552
3179 3052 1892
3231 3376 2585
3246 3539 3342
3273 3719 3831
3407 3777 3912
3447 3793 3932
3070 3058 1487
3065 3059 1556
3077 3072 1664
3194 3280 1988
3264 3529 2790
3269 3685 3488
3318 3833 3917
3447 3873 3975
3485 3884 3986
3099 3179 1573
3098 3186 1625
3112 3206 1727
3222 3364 2075
3316 3590 2843
3312 3757 3577
3386 3866 3928
3504 3907 3996
3536 3917 4008
2730 814 0
2722 777 0
2722 762 0
2736 824 53
2675 1153 1206
2874 1475 2060
3078 1611 2410
3193 1685 2663
3269 1731 2839
2724 855 0
2722 823 0
2721 800 0
2736 864 76
2685 1181 1210
2875 1522 2089
3086 1653 2438
3216 1737 2707
3293 1777 2894
2713 943 0
2729 902 0
2741 879 0
2753 961 163
2722 1256 1294
2886 1586 2138
3108 1714 2495
3251 1807 2789
3335 1841 3000
2835 1176 1
2870 1169 7
2894 1169 41
2883 1288 639
2945 1535 1591
2930 1723 2242
3149 1858 2630
3320 1955 2947
3430 1986 3175
3053 1862 138
3072 1872 237
3072 1887 691
3076 1968 1461
3189 2082 2103
3200 2239 2496
3315 2459 2980
3461 2547 3229
3562 2602 3389
3169 2411 898
3131 2384 1034
3100 2358 1321
3240 2581 1769
3343 2902 2517
3427 3189 3070
3518 3325 3484
3645 3302 3680
3728 3324 3747
3222 2799 1432
3212 2793 1508
3201 2804 1646
3357 3000 2026
3435 3362 2690
3510 3553 3309
3559 3696 3722
3645 3753 3917
3680 3764 3955
3272 3076 1571
3266 3073 1639
3258 3091 1786
3343 3265 2154
3475 3553 2787
3519 3699 3419
3569 3837 3900
3629 3889 4001
3659 3904 4020
3284 3220 1653
3278 3223 1730
3278 3242 1880
3356 3379 2221
3510 3622 2864
3586 3770 3500
3622 3882 3916
3665 3934 4029
3692 3944 4045
2837 907 0
2835 906 0
2830 916 0
2818 982 201
2775 1242 1285
2955 1537 2127
3147 1652 2467
3269 1743 2724
3347 1786 2910
2832 947 0
2831 943 0
2827 942 0
2809 1019 237
2785 1272 1308
2958 1576 2147
3156 1695 2499
3292 1791 2773
3367 1835 2961
2813 1016 0
2816 1007 0
2818 1005 9
2803 1082 331
2806 1337 1375
2969 1636 2188
3176 1763 2563
3328 1868 2857
3410 1910 3049
2958 1267 20
2964 1258 54
2967 1257 132
2897 1348 799
2989 1580 1626
3015 1769 2282
3220 1928 2700
3398 2022 3007
3510 2057 3221
3158 1953 287
3127 1936 445
3076 1922 936
3157 2000 1520
3287 2156 2146
3343 2305 2541
3390 2518 3023
3533 2606 3278
3631 2678 3419
3242 2418 1055
3207 2395 1177
3173 2380 1401
3326 2610 1823
3457 2927 2566
3564 3182 3108
3618 3348 3483
3728 3322 3710
3793 3346 3777
3330 2842 1481
3323 2834 1552
3312 2850 1687
3438 3024 2101
3560 3360 2760
3628 3560 3361
3691 3716 3727
3757 3772 3920
3786 3773 3968
3399 3088 1645
3385 3087 1726
3380 3110 1886
3470 3247 2259
3616 3538 2866
3665 3747 3454
3714 3855 3873
3758 3900 4006
3783 3915 4036
3393 3245 1769
3386 3245 1846
3390 3269 1996
3455 3389 2326
3616 3638 2914
3699 3805 3490
3745 3907 3926
3756 3950 4048
3781 3958 4066
