assets/luts/LUTs by IWLTBAP (3DL)/02 - Generic LOG/C-9730-LOG.3dl
# Copyright: (C) Copyright 2010-2020 by IWLTBAP SAS
# Cannot be resold, shared or otherwise redistributed
# Website: https://luts.iwltbap.com
0 64 128 192 256 320 384 448 512 576 640 704 768 832 896 960 1023
15 32 0
17 36 0
20 45 0
22 73 10
23 118 153
4 232 390
9 391 732
120 418 1212
189 413 1757
228 494 2233
277 633 2650
415 899 2923
623 1123 3103
826 1275 3243
984 1372 3361
1054 1418 3410
1091 1441 3436
16 78 0
20 93 0
24 117 0
31 171 8
32 253 150
7 411 398
4 631 688
111 725 1124
192 712 1692
214 795 2168
243 939 2548
338 1171 2759
537 1350 2939
760 1476 3116
937 1558 3269
1011 1591 3334
1052 1609 3370
12 131 0
17 143 0
22 169 0
29 228 15
33 326 162
10 503 393
0 732 662
55 872 1032
132 867 1596
147 923 2087
168 1070 2457
292 1295 2684
515 1473 2914
751 1582 3143
935 1650 3320
1002 1674 3385
1044 1687 3426
9 215 0
14 229 0
20 255 3
25 312 58
26 417 195
3 572 401
0 782 674
2 985 972
41 1077 1441
84 1116 1961
151 1257 2365
344 1471 2703
599 1613 3018
833 1704 3258
985 1764 3398
1048 1789 3454
1086 1806 3488
2 366 0
4 377 8
7 399 54
8 453 158
3 551 280
0 679 472
0 858 747
1 1065 1035
83 1247 1446
204 1411 1913
302 1573 2358
461 1753 2747
699 1865 3067
890 1950 3239
1008 2010 3323
1063 2041 3360
1096 2061 3381
0 601 75
0 615 112
0 637 179
0 672 324
0 732 477
0 829 662
0 980 898
53 1204 1205
243 1476 1576
348 1717 1994
418 1926 2384
564 2115 2699
786 2255 2913
928 2323 3024
1037 2375 3098
1089 2401 3133
1121 2420 3153
0 903 269
0 920 317
0 937 394
0 956 539
0 977 735
1 1056 920
54 1219 1159
228 1493 1433
356 1785 1761
438 2017 2143
557 2211 2499
766 2400 2758
950 2530 2898
1057 2593 2966
1157 2646 3027
1205 2672 3058
1234 2688 3078
103 1348 615
96 1362 675
88 1381 752
90 1409 856
104 1431 1011
167 1485 1236
283 1668 1434
399 1913 1677
510 2118 2002
637 2300 2371
829 2500 2689
1066 2661 2905
1195 2739 3005
1281 2793 3072
1362 2841 3135
1400 2867 3168
1424 2885 3188
350 1864 1016
358 1874 1046
369 1890 1086
392 1919 1156
423 1959 1265
469 2012 1439
548 2120 1672
654 2257 1943
768 2413 2287
948 2616 2632
1193 2803 2908
1378 2925 3088
1457 2984 3172
1525 3041 3247
1585 3099 3321
1615 3129 3357
1634 3150 3380
665 2209 1307
671 2221 1324
679 2237 1346
695 2267 1381
719 2312 1443
759 2373 1587
808 2446 1893
900 2566 2243
1078 2743 2584
1311 2923 2896
1530 3098 3158
1634 3201 3304
1686 3259 3385
1739 3318 3463
1791 3377 3536
1819 3407 3572
1837 3427 3594
741 2391 1421
748 2404 1442
760 2421 1466
779 2450 1508
809 2494 1576
864 2549 1735
940 2621 2058
1069 2743 2413
1273 2906 2729
1492 3078 3038
1661 3245 3295
1730 3324 3414
1778 3382 3494
1837 3437 3565
1896 3491 3632
1928 3516 3664
1950 3533 3682
776 2481 1493
787 2492 1519
803 2507 1552
833 2533 1606
875 2573 1691
944 2630 1855
1028 2708 2159
1169 2831 2502
1374 2985 2810
1577 3162 3121
1717 3314 3368
1775 3381 3469
1826 3438 3546
1889 3490 3614
1959 3540 3673
1996 3564 3701
2021 3577 3717
834 2543 1595
849 2555 1623
867 2569 1658
900 2594 1714
946 2637 1799
1018 2702 1952
1114 2783 2242
1256 2904 2574
1458 3055 2878
1639 3232 3193
1760 3371 3428
1820 3432 3523
1886 3488 3592
1953 3537 3656
2028 3581 3711
2067 3604 3736
2094 3618 3750
897 2601 1695
913 2614 1723
931 2629 1758
966 2655 1816
1016 2699 1897
1094 2769 2036
1194 2852 2312
1335 2969 2636
1527 3120 2938
1693 3294 3260
1804 3419 3474
1874 3482 3573
1946 3534 3638
2025 3582 3692
2104 3623 3744
2146 3641 3766
2175 3655 3779
964 2656 1792
978 2670 1820
996 2687 1854
1029 2717 1912
1084 2762 1990
1169 2831 2116
1272 2918 2371
1407 3028 2691
1586 3181 2993
1742 3349 3322
1854 3468 3530
1935 3533 3622
2014 3577 3680
2099 3621 3730
2187 3662 3771
2231 3679 3793
2263 3689 3804
1025 2711 1875
1039 2724 1901
1057 2741 1935
1090 2771 1990
1147 2816 2067
1232 2884 2184
1335 2972 2421
1466 3080 2737
1634 3231 3043
1787 3395 3376
1910 3508 3575
2000 3573 3659
2084 3617 3711
2173 3652 3757
2264 3690 3796
2308 3707 3815
2340 3715 3826
1085 2767 1956
1100 2780 1982
1118 2796 2012
1153 2823 2064
1210 2867 2140
1293 2935 2252
1395 3023 2474
1525 3131 2783
1681 3279 3092
1831 3439 3430
1966 3552 3622
2065 3610 3696
2155 3654 3742
2248 3688 3783
2343 3716 3818
2388 3731 3835
2416 3739 3846
59 49 0
38 37 0
35 40 0
30 55 11
41 93 164
22 203 419
38 334 751
163 343 1225
242 319 1758
279 370 2245
336 485 2689
484 710 3012
720 956 3196
919 1104 3337
1063 1204 3430
1138 1254 3478
1174 1280 3497
22 82 0
27 83 0
26 81 0
27 105 24
28 166 188
5 290 412
14 435 729
126 453 1224
192 440 1766
230 520 2240
300 701 2647
457 981 2900
673 1199 3069
874 1334 3223
1024 1429 3330
1100 1473 3387
1135 1498 3411
12 135 0
17 144 0
24 162 0
31 208 28
32 288 188
6 454 424
4 673 697
109 768 1124
180 750 1687
194 829 2158
232 1000 2508
350 1227 2712
577 1413 2902
810 1527 3113
985 1603 3276
1061 1635 3345
1104 1652 3384
7 213 0
13 230 0
20 253 1
27 307 71
30 403 224
4 568 429
0 776 685
18 950 1010
80 987 1530
101 1029 2035
148 1187 2394
345 1416 2673
608 1568 2970
852 1661 3220
1016 1720 3381
1080 1746 3440
1119 1762 3476
2 360 0
3 370 2
6 394 39
10 448 160
4 542 290
0 668 480
0 851 741
0 1054 1029
58 1209 1449
164 1336 1933
272 1500 2368
470 1696 2750
720 1808 3075
922 1894 3260
1046 1956 3350
1100 1988 3386
1133 2009 3408
0 595 64
0 608 94
0 629 151
0 668 293
0 727 458
0 823 644
0 972 885
47 1195 1191
232 1456 1570
339 1689 1994
412 1892 2389
576 2081 2708
804 2213 2934
953 2284 3051
1061 2337 3124
1113 2365 3157
1145 2384 3177
0 898 247
0 912 290
0 933 359
0 957 501
0 978 710
0 1051 900
48 1213 1141
221 1483 1417
353 1774 1749
434 2005 2131
554 2201 2489
764 2389 2749
959 2521 2893
1067 2585 2962
1167 2638 3024
1214 2664 3055
1243 2680 3074
108 1342 585
101 1354 641
92 1374 718
90 1405 829
102 1433 980
157 1479 1213
277 1656 1419
393 1901 1663
505 2109 1989
632 2293 2357
825 2491 2675
1065 2654 2895
1199 2734 2998
1285 2788 3066
1367 2837 3129
1405 2863 3162
1428 2881 3183
341 1852 998
349 1863 1027
361 1879 1065
386 1910 1136
419 1951 1244
466 2005 1415
541 2110 1655
649 2249 1927
764 2406 2271
943 2607 2616
1188 2794 2894
1378 2919 3079
1460 2980 3165
1526 3036 3241
1586 3095 3316
1615 3124 3352
1635 3145 3375
660 2201 1296
667 2213 1314
675 2229 1336
690 2258 1371
714 2304 1431
757 2365 1568
807 2441 1868
897 2559 2221
1075 2735 2564
1308 2914 2877
1526 3089 3144
1634 3196 3296
1685 3254 3379
1738 3313 3457
1791 3373 3531
1818 3403 3567
1837 3422 3589
744 2388 1426
754 2400 1448
765 2417 1472
783 2446 1511
813 2490 1576
868 2548 1728
947 2623 2038
1074 2743 2399
1278 2904 2715
1495 3074 3026
1664 3243 3290
1734 3325 3413
1781 3382 3494
1841 3437 3564
1901 3492 3632
1932 3517 3664
1954 3534 3682
784 2478 1502
796 2489 1530
813 2504 1562
841 2531 1615
883 2573 1695
950 2632 1851
1038 2712 2142
1176 2833 2490
1380 2985 2799
1580 3160 3113
1721 3314 3366
1779 3383 3470
1831 3440 3548
1895 3492 3615
1966 3542 3674
2003 3566 3701
2027 3579 3718
843 2540 1604
859 2552 1631
878 2566 1666
908 2594 1723
952 2638 1804
1026 2704 1949
1124 2787 2224
1263 2905 2563
1463 3054 2869
1642 3231 3185
1762 3371 3428
1824 3434 3525
1892 3490 3593
1960 3539 3656
2035 3583 3711
2075 3607 3736
2102 3621 3750
905 2601 1702
922 2614 1730
941 2629 1765
974 2656 1823
1024 2700 1903
1101 2770 2035
1203 2856 2296
1343 2970 2625
1532 3119 2930
1696 3293 3253
1808 3420 3474
1879 3483 3574
1952 3535 3638
2033 3583 3692
2112 3624 3743
2155 3643 3766
2184 3656 3778
972 2659 1797
987 2673 1825
1005 2690 1860
1038 2719 1918
1093 2763 1996
1176 2832 2116
1280 2921 2357
1415 3029 2680
1590 3180 2986
1745 3349 3315
1858 3469 3529
1941 3535 3622
2021 3579 3680
2107 3623 3730
2197 3663 3770
2240 3680 3792
2272 3690 3803
1035 2713 1879
1049 2727 1906
1067 2744 1939
1100 2773 1994
1155 2817 2072
1238 2884 2185
1344 2975 2406
1474 3081 2728
1639 3231 3036
1791 3396 3369
1915 3509 3573
2007 3575 3658
2092 3618 3711
2181 3654 3757
2272 3691 3796
2316 3708 3815
2348 3716 3825
1096 2770 1961
1110 2782 1986
1129 2798 2015
1163 2825 2068
1218 2869 2144
1298 2936 2254
1404 3026 2458
1532 3132 2775
1685 3280 3086
1835 3439 3423
1970 3553 3620
2073 3611 3695
2164 3654 3741
2256 3689 3783
2350 3717 3818
2395 3732 3836
2423 3740 3846
123 45 0
129 39 0
125 40 0
95 52 10
92 83 160
93 188 411
88 318 734
211 339 1180
298 315 1709
344 360 2206
392 440 2667
519 601 3009
780 839 3196
988 983 3332
1143 1075 3433
1229 1122 3490
1277 1147 3514
102 86 0
101 96 0
91 91 0
48 74 40
38 111 211
17 227 450
45 347 767
173 349 1245
248 327 1775
287 382 2258
350 507 2699
529 764 3005
787 1011 3183
985 1154 3323
1128 1249 3413
1201 1301 3455
1240 1324 3476
74 140 0
31 153 0
38 156 0
34 153 75
25 213 244
2 356 457
17 480 740
133 480 1249
197 467 1787
234 556 2256
327 774 2640
496 1050 2873
725 1262 3036
933 1394 3195
1082 1485 3313
1154 1527 3369
1194 1550 3395
28 219 0
12 240 0
19 262 2
30 303 99
26 387 262
2 556 472
1 757 714
62 871 1096
135 858 1654
148 928 2129
204 1119 2443
379 1350 2669
644 1511 2931
891 1610 3170
1068 1674 3346
1136 1698 3413
1176 1713 3452
2 358 0
2 369 0
4 395 22
10 450 165
5 536 322
0 665 510
0 847 746
2 1038 1038
47 1151 1483
116 1229 1981
238 1405 2384
478 1619 2744
751 1734 3070
969 1819 3273
1101 1884 3373
1158 1914 3416
1191 1935 3438
0 592 49
0 604 78
0 624 126
0 665 260
0 723 446
0 818 633
0 965 873
41 1183 1180
215 1431 1565
321 1646 1999
403 1844 2402
589 2034 2723
830 2159 2963
988 2232 3086
1097 2288 3157
1148 2316 3190
1179 2336 3208
0 895 228
0 905 265
0 927 327
0 955 461
0 980 677
0 1046 879
42 1205 1121
213 1472 1400
349 1760 1737
428 1991 2121
548 2187 2480
763 2375 2741
968 2508 2891
1081 2573 2962
1179 2626 3024
1227 2652 3055
1255 2668 3074
110 1334 560
107 1348 606
99 1366 680
92 1399 797
103 1433 949
149 1474 1187
269 1644 1401
387 1890 1648
498 2099 1974
624 2284 2342
819 2482 2661
1062 2646 2883
1204 2728 2992
1290 2782 3060
1372 2831 3123
1410 2858 3156
1433 2876 3177
332 1839 977
340 1850 1005
351 1866 1043
377 1900 1114
414 1943 1223
461 1999 1390
533 2099 1637
642 2240 1911
757 2397 2255
936 2598 2600
1181 2783 2879
1377 2912 3069
1462 2975 3157
1528 3031 3234
1586 3089 3310
1616 3119 3346
1635 3139 3370
654 2193 1284
661 2204 1302
669 2220 1324
684 2248 1360
708 2294 1418
753 2357 1549
804 2435 1841
893 2552 2198
1069 2727 2544
1303 2905 2857
1522 3079 3126
1635 3191 3287
1684 3249 3371
1737 3307 3450
1789 3368 3525
1817 3397 3561
1835 3416 3584
746 2386 1425
756 2397 1447
767 2413 1472
784 2443 1510
813 2487 1572
872 2546 1720
953 2625 2016
1077 2742 2382
1281 2902 2701
1498 3070 3011
1667 3242 3282
1739 3326 3411
1785 3383 3492
1843 3437 3564
1904 3493 3631
1935 3518 3663
1958 3534 3681
790 2477 1512
805 2487 1540
822 2502 1573
849 2529 1625
891 2570 1701
957 2632 1848
1047 2717 2125
1183 2835 2478
1387 2985 2788
1585 3159 3102
1726 3315 3362
1785 3385 3472
1837 3442 3550
1901 3494 3617
1973 3544 3675
2010 3568 3702
2034 3582 3719
852 2538 1612
868 2549 1641
887 2564 1675
917 2593 1733
960 2638 1810
1033 2705 1947
1134 2792 2206
1271 2907 2551
1470 3054 2858
1647 3229 3176
1766 3371 3425
1829 3436 3527
1898 3492 3594
1966 3541 3658
2043 3586 3711
2083 3609 3736
2110 3624 3750
915 2600 1710
932 2612 1738
951 2628 1773
983 2656 1832
1031 2701 1910
1108 2771 2035
1214 2860 2277
1350 2972 2614
1538 3118 2921
1701 3292 3244
1812 3421 3473
1883 3486 3577
1958 3537 3640
2041 3585 3693
2121 3626 3743
2163 3645 3765
2193 3659 3778
981 2660 1803
996 2675 1831
1014 2692 1867
1047 2720 1924
1102 2764 2003
1183 2833 2117
1289 2924 2343
1423 3030 2669
1596 3179 2977
1748 3349 3308
1863 3471 3529
1947 3537 3623
2027 3581 3681
2114 3624 3730
2206 3664 3770
2250 3681 3791
2281 3691 3803
1044 2715 1885
1058 2729 1911
1076 2746 1945
1109 2774 2000
1164 2818 2078
1244 2885 2187
1353 2977 2394
1482 3083 2717
1644 3230 3028
1794 3396 3361
1920 3511 3573
2014 3577 3659
2099 3619 3711
2188 3655 3757
2281 3692 3796
2325 3708 3814
2357 3717 3825
1105 2772 1966
1121 2785 1990
1140 2800 2020
1173 2827 2072
1226 2870 2149
1304 2936 2256
1412 3028 2447
1540 3134 2765
1691 3280 3079
1838 3440 3415
1975 3554 3619
2081 3613 3695
2173 3656 3740
2265 3690 3782
2358 3718 3818
2403 3733 3836
2431 3741 3846
225 63 0
245 41 0
257 39 0
250 53 1
196 83 142
212 176 371
187 314 686
247 348 1086
351 322 1598
427 352 2089
494 428 2566
626 561 2950
909 775 3155
1136 920 3283
1319 1016 3386
1438 1068 3454
1499 1096 3483
213 86 0
233 76 0
245 86 0
238 91 7
151 102 202
130 201 433
136 325 746
244 342 1181
330 318 1694
384 362 2193
443 446 2658
622 636 2993
897 868 3175
1113 1000 3321
1281 1095 3416
1379 1146 3469
