assets/luts/LUTs by IWLTBAP (3DL)/02 - Generic LOG/F-6800-LOG.3dl
# Copyright: (C) Copyright 2010-2020 by IWLTBAP SAS
# Cannot be resold, shared or otherwise redistributed
# Website: https://luts.iwltbap.com
0 128 256 384 512 640 768 896 1023
0 0 0
23 203 294
2 507 725
0 833 1203
0 1200 1732
0 1558 2243
0 1677 2413
0 1685 2425
0 1685 2425
26 226 293
23 319 436
9 579 804
0 869 1226
0 1208 1715
0 1583 2252
0 1704 2428
0 1721 2454
0 1720 2453
14 554 757
7 561 780
1 745 1056
0 994 1402
0 1282 1804
0 1640 2302
0 1792 2513
0 1822 2555
0 1821 2554
3 905 1263
3 899 1255
0 955 1390
0 1189 1707
0 1426 2028
0 1704 2407
0 1893 2660
0 1931 2710
0 1930 2708
0 1270 1767
0 1265 1759
0 1241 1785
0 1388 2023
0 1642 2351
1 1873 2647
4 2074 2904
6 2111 2952
6 2109 2949
0 1633 2256
0 1628 2249
0 1605 2246
0 1594 2322
2 1844 2635
58 2130 2952
157 2369 3227
174 2424 3294
170 2419 3290
0 2001 2747
0 1996 2741
0 1982 2735
0 1945 2746
15 2022 2852
317 2368 3157
759 2730 3490
931 2890 3647
919 2884 3644
0 2182 2982
0 2180 2981
0 2178 2980
0 2164 2995
13 2179 3028
421 2436 3201
1156 2889 3553
1635 3224 3836
1649 3235 3846
0 2182 2983
0 2182 2983
0 2182 2983
0 2171 2999
9 2180 3033
358 2402 3177
1115 2857 3524
1661 3232 3837
1696 3257 3858
502 51 42
385 120 355
272 357 705
147 795 1194
55 1235 1752
16 1613 2284
8 1729 2453
7 1738 2468
6 1736 2466
341 248 218
278 289 372
186 513 737
104 851 1190
40 1218 1705
11 1601 2260
6 1721 2439
5 1740 2469
5 1737 2466
89 561 707
72 556 724
35 720 1004
17 974 1363
6 1263 1773
0 1619 2273
0 1783 2501
0 1817 2548
0 1815 2547
3 887 1238
3 882 1230
0 934 1358
0 1166 1675
0 1405 1999
0 1685 2381
0 1884 2648
0 1925 2702
0 1924 2699
0 1255 1746
0 1250 1739
0 1227 1761
0 1369 1996
0 1623 2325
0 1855 2623
3 2062 2888
5 2103 2941
5 2100 2937
0 1619 2237
0 1614 2231
0 1593 2226
0 1579 2300
1 1824 2612
50 2110 2930
141 2349 3207
159 2409 3280
154 2404 3275
0 1987 2729
0 1982 2723
0 1969 2716
0 1931 2727
11 2003 2832
287 2346 3139
714 2702 3470
892 2871 3635
880 2865 3631
0 2178 2977
0 2177 2976
0 2174 2974
0 2160 2989
11 2172 3022
392 2419 3188
1125 2870 3538
1619 3215 3830
1637 3229 3843
0 2182 2983
0 2182 2983
0 2182 2983
0 2171 2998
7 2178 3032
335 2389 3168
1092 2842 3512
1656 3229 3834
1696 3257 3858
1237 49 14
1089 109 459
833 141 929
679 375 1194
479 1051 1765
286 1636 2359
229 1802 2547
214 1823 2569
209 1823 2568
1099 233 55
993 250 273
739 300 785
581 545 1130
401 1118 1700
229 1652 2318
172 1811 2523
156 1838 2561
151 1836 2559
807 651 381
793 645 399
623 701 816
455 939 1217
330 1307 1718
210 1700 2281
158 1883 2549
144 1919 2604
140 1916 2602
374 1036 1091
369 1028 1085
267 965 1204
236 1153 1511
201 1427 1899
142 1727 2331
115 1945 2640
106 1988 2702
103 1986 2700
90 1288 1712
87 1281 1705
57 1250 1712
33 1352 1907
51 1610 2247
50 1848 2565
50 2069 2859
49 2113 2919
46 2109 2916
20 1617 2209
20 1612 2203
15 1592 2197
4 1570 2259
12 1803 2562
78 2089 2886
158 2328 3171
175 2396 3255
170 2391 3251
11 1978 2704
11 1973 2697
10 1960 2689
5 1920 2698
17 1981 2800
265 2317 3109
669 2667 3438
848 2844 3615
836 2839 3612
0 2173 2971
0 2171 2969
0 2169 2966
0 2155 2980
9 2163 3013
353 2395 3172
1084 2844 3518
1597 3203 3822
1622 3222 3839
0 2182 2983
0 2182 2983
0 2182 2983
0 2172 2996
5 2176 3030
304 2372 3156
1061 2822 3495
1649 3224 3830
1696 3257 3858
2015 42 10
1905 80 371
1692 210 1412
1353 108 1590
1232 301 1806
1072 1101 2366
948 1459 2598
914 1522 2634
902 1531 2634
1904 194 6
1823 193 161
1573 279 1103
1267 205 1446
1136 393 1703
943 1193 2314
808 1547 2577
770 1622 2631
761 1625 2630
1720 543 55
1709 537 55
1487 660 648
1194 682 1214
983 932 1615
777 1572 2259
652 1904 2612
617 1968 2682
610 1966 2680
1276 1091 499
1269 1083 497
1248 1125 848
1077 1192 1323
847 1425 1757
663 1794 2271
561 2077 2672
534 2130 2753
527 2127 2750
679 1550 1470
674 1542 1464
622 1470 1526
510 1389 1698
551 1638 2054
513 1921 2455
452 2182 2833
432 2236 2914
426 2232 2911
273 1718 2195
269 1712 2188
245 1690 2179
153 1639 2199
217 1822 2441
388 2122 2791
436 2373 3114
430 2451 3223
422 2446 3219
139 2039 2693
135 2033 2686
124 2019 2677
85 1975 2677
94 2005 2751
415 2320 3051
780 2663 3388
931 2846 3584
921 2844 3584
89 2240 2988
85 2236 2986
82 2233 2983
74 2216 2992
101 2213 3017
451 2401 3141
1151 2840 3486
1677 3219 3813
1705 3242 3834
70 2242 3003
68 2241 3003
66 2239 3002
59 2227 3012
78 2223 3040
383 2379 3133
1121 2819 3467
1731 3243 3825
1782 3281 3858
2796 95 11
2729 95 226
2611 310 1598
2219 204 2315
1939 124 2324
1828 271 2478
1858 473 2611
1857 528 2639
1852 536 2638
2690 162 9
2655 146 71
2493 280 1275
2155 227 2183
1853 119 2214
1741 275 2387
1772 562 2579
1769 651 2628
1763 660 2628
2580 609 6
2568 601 6
2330 631 514
2123 700 1496
1809 623 1955
1648 753 2222
1608 1191 2584
1581 1314 2674
1570 1318 2674
2337 822 55
2329 817 55
2298 1021 403
2123 1179 1107
1820 1186 1783
1536 1378 2188
1363 1902 2692
1310 2028 2808
1299 2028 2806
1750 1578 627
1744 1571 625
1750 1592 766
1782 1691 1354
1677 1789 1902
1421 2004 2376
1192 2339 2843
1134 2427 2968
1124 2422 2965
1032 2109 1829
1026 2101 1825
1000 2060 1859
916 1910 2047
956 1906 2222
1126 2218 2633
1097 2512 3047
1055 2626 3218
1045 2620 3214
558 2199 2709
553 2192 2702
542 2178 2692
502 2134 2691
542 2119 2706
888 2373 2938
1224 2736 3315
1336 2942 3556
1325 2943 3561
472 2418 3061
466 2415 3058
458 2409 3054
445 2391 3057
501 2375 3065
809 2486 3118
1430 2887 3443
1945 3290 3807
1972 3316 3833
432 2420 3080
427 2418 3079
420 2415 3077
406 2400 3082
453 2385 3093
736 2471 3124
1378 2862 3427
1971 3302 3814
2032 3353 3861
3531 571 311
3510 553 426
3446 689 1627
3221 823 3067
2788 495 3088
2608 524 3101
2521 538 3139
2493 529 3135
2483 521 3127
3455 487 231
3444 469 226
3356 545 1322
3170 737 2872
2709 416 2991
2506 422 2991
2403 445 3036
2373 441 3034
2364 435 3026
3351 878 108
3341 863 103
3216 821 617
3071 936 1838
2839 934 2696
2479 756 2822
2340 723 2890
2309 711 2896
2300 703 2890
3216 1067 52
3208 1058 49
3169 1177 295
2976 1259 1068
2837 1338 2021
2496 1263 2608
2309 1220 2782
2289 1236 2824
2280 1230 2819
2940 1158 80
2932 1152 78
2919 1227 208
2911 1652 938
2813 1851 1672
2563 1869 2469
2297 1982 2886
2233 2103 3020
2220 2100 3016
2225 2089 774
2219 2081 772
2218 2089 831
2280 2202 1277
2404 2346 1914
2406 2477 2539
2205 2699 3070
2077 2864 3300
2064 2858 3295
1446 2708 2175
1439 2700 2171
1429 2686 2171
1381 2585 2350
1441 2478 2602
1736 2575 2812
2033 2923 3259
2123 3168 3563
2113 3174 3574
927 2636 3118
922 2632 3115
914 2626 3113
898 2606 3126
985 2604 3157
1336 2690 3183
1863 2986 3408
2451 3445 3824
2482 3478 3857
868 2628 3163
863 2625 3163
856 2622 3162
846 2610 3171
921 2612 3195
1257 2689 3215
1772 2953 3398
2423 3435 3820
2506 3506 3886
3802 1008 716
3798 1001 763
3769 1079 1712
3674 1343 3268
3189 945 3537
3049 933 3427
3008 1009 3508
2995 1016 3521
2992 1012 3518
3780 968 678
3777 964 674
3745 1002 1480
3685 1300 3069
3201 951 3536
3028 882 3390
2978 970 3479
2961 979 3496
2958 976 3494
3792 1398 667
3789 1386 662
3755 1350 1088
3710 1475 2210
3517 1543 3374
3195 1296 3401
3060 1272 3493
3031 1259 3512
3026 1248 3509
3816 1788 705
3812 1779 698
3802 1822 889
3743 1862 1594
3685 1981 2632
3515 1996 3268
3236 1832 3542
3175 1777 3562
3166 1763 3555
3781 1880 708
3775 1868 695
3767 1910 773
3752 2195 1323
3683 2303 2016
3588 2376 2767
3346 2318 3469
3222 2203 3532
3210 2187 3522
3526 1762 496
3519 1751 486
3508 1768 526
3502 2036 976
3513 2476 1734
3478 2705 2411
3331 2735 3250
3202 2677 3494
3190 2665 3488
2690 2647 1047
2684 2639 1041
2674 2627 1033
2702 2693 1274
2851 2865 1899
3063 3038 2540
3187 3214 3199
3169 3360 3643
3161 3369 3663
1893 3233 2494
1882 3224 2501
1866 3212 2514
1821 3146 2685
1831 3058 2983
2208 3136 3215
2674 3311 3466
3174 3680 3871
3231 3730 3922
1731 3164 2781
1717 3155 2794
1700 3144 2811
1643 3077 2940
1613 2981 3150
1976 3066 3305
2509 3271 3492
3087 3654 3868
3216 3756 3960
3854 1100 803
3854 1100 810
3833 1159 1689
3774 1455 3249
3288 1071 3647
3141 1023 3494
3112 1119 3582
3106 1136 3602
3106 1136 3602
3854 1100 803
3854 1100 803
3834 1126 1500
3803 1438 3054
3337 1124 3677
3148 1004 3486
3114 1114 3576
3106 1136 3602
3106 1136 3602
3889 1527 847
3888 1519 846
3873 1488 1213
3851 1613 2288
3671 1705 3542
3345 1422 3540
3222 1412 3622
3202 1410 3650
3199 1401 3648
3940 1996 948
3939 1992 946
3937 2017 1096
3918 2054 1765
3886 2188 2817
3737 2208 3452
3481 2062 3739
3427 2015 3780
3424 2008 3778
3986 2241 1113
3986 2238 1111
3986 2278 1181
3988 2505 1645
3975 2604 2309
3909 2674 3008
3786 2729 3755
3663 2629 3931
3661 2623 3929
4005 2383 1203
4006 2382 1203
4006 2399 1234
4008 2593 1558
4007 2924 2161
3979 3080 2730
3942 3182 3452
3835 3152 4001
3825 3140 4009
3833 2340 1013
3833 2335 1010
3834 2327 1006
3843 2472 1253
3870 2858 1915
3902 3246 2601
3903 3485 3218
3923 3577 3968
3917 3572 4015
3318 3496 1783
3312 3484 1773
3297 3457 1750
3298 3468 1863
3349 3530 2201
3527 3648 2758
3673 3776 3321
3882 3892 3893
3930 3937 4009
3088 3689 1925
3068 3687 1923
3045 3684 1921
3038 3698 2032
3089 3727 2338
3311 3782 2868
3535 3844 3383
3779 3945 3925
3885 4015 4062
3854 1100 803
3854 1100 803
3833 1150 1643
3782 1453 3205
3299 1083 3655
3143 1018 3491
3113 1117 3581
3106 1136 3602
3106 1136 3602
3854 1100 803
3854 1100 803
3835 1120 1464
3808 1433 3011
3348 1137 3684
3150 1000 3485
3115 1113 3575
3106 1136 3602
3106 1136 3602
3887 1505 845
3886 1497 844
3871 1465 1190
3850 1589 2265
3668 1684 3541
3336 1392 3539
3214 1386 3616
3194 1386 3645
3191 1378 3644
3938 1985 942
3938 1979 940
3935 1997 1070
3916 2033 1744
3885 2168 2803
3734 2188 3454
3474 2039 3731
3419 1993 3774
3415 1984 3772
3985 2234 1108
3984 2232 1106
3984 2267 1168
3986 2488 1625
3973 2585 2290
3908 2656 3003
3783 2711 3742
3656 2609 3926
3653 2602 3924
4006 2381 1204
4006 2380 1204
4006 2391 1224
4010 2584 1545
4013 2917 2151
3990 3075 2727
3957 3181 3436
3855 3160 4013
3846 3150 4030
3894 2355 1049
3897 2355 1051
3901 2355 1054
3914 2497 1294
3939 2880 1943
3964 3269 2619
3956 3508 3218
3982 3611 4002
3977 3610 4066
3507 3421 1749
3513 3397 1732
3521 3365 1708
3534 3377 1814
3574 3465 2146
3712 3624 2716
3807 3795 3288
3995 3957 3929
4050 3999 4087
3434 3712 1967
3434 3712 1967
3434 3712 1967
3437 3735 2066
3460 3784 2328
3618 3861 2835
3750 3937 3347
3946 4041 3926
4057 4093 4095
