assets/luts/LUTs by IWLTBAP (3DL)/02 - Generic LOG/F-6800-LOG.3dl
# Copyright: (C) Copyright 2010-2020 by IWLTBAP SAS
# Cannot be resold, shared or otherwise redistributed
# Website: https://luts.iwltbap.com
0 256 512 768 1023
0 0 0
2 507 725
0 1200 1732
0 1677 2413
0 1685 2425
14 554 757
1 745 1056
0 1282 1804
0 1792 2513
0 1821 2554
0 1270 1767
0 1241 1785
0 1642 2351
4 2074 2904
6 2109 2949
0 2001 2747
0 1982 2735
15 2022 2852
759 2730 3490
919 2884 3644
0 2182 2983
0 2182 2983
9 2180 3033
1115 2857 3524
1696 3257 3858
1237 49 14
833 141 929
479 1051 1765
229 1802 2547
209 1823 2568
807 651 381
623 701 816
330 1307 1718
158 1883 2549
140 1916 2602
90 1288 1712
57 1250 1712
51 1610 2247
50 2069 2859
46 2109 2916
11 1978 2704
10 1960 2689
17 1981 2800
669 2667 3438
836 2839 3612
0 2182 2983
0 2182 2983
5 2176 3030
1061 2822 3495
1696 3257 3858
2796 95 11
2611 310 1598
1939 124 2324
1858 473 2611
1852 536 2638
2580 609 6
2330 631 514
1809 623 1955
1608 1191 2584
1570 1318 2674
1750 1578 627
1750 1592 766
1677 1789 1902
1192 2339 2843
1124 2422 2965
558 2199 2709
542 2178 2692
542 2119 2706
1224 2736 3315
1325 2943 3561
432 2420 3080
420 2415 3077
453 2385 3093
1378 2862 3427
2032 3353 3861
3802 1008 716
3769 1079 1712
3189 945 3537
3008 1009 3508
2992 1012 3518
3792 1398 667
3755 1350 1088
3517 1543 3374
3060 1272 3493
3026 1248 3509
3781 1880 708
3767 1910 773
3683 2303 2016
3346 2318 3469
3210 2187 3522
2690 2647 1047
2674 2627 1033
2851 2865 1899
3187 3214 3199
3161 3369 3663
1731 3164 2781
1700 3144 2811
1613 2981 3150
2509 3271 3492
3216 3756 3960
3854 1100 803
3833 1150 1643
3299 1083 3655
3113 1117 3581
3106 1136 3602
3887 1505 845
3871 1465 1190
3668 1684 3541
3214 1386 3616
3191 1378 3644
3985 2234 1108
3984 2267 1168
3973 2585 2290
3783 2711 3742
3653 2602 3924
3894 2355 1049
3901 2355 1054
3939 2880 1943
3956 3508 3218
3977 3610 4066
3434 3712 1967
3434 3712 1967
3460 3784 2328
3750 3937 3347
4057 4093 4095
