assets/luts/LUTs by IWLTBAP (3DL)/02 - Generic LOG/F-6800-LOG.3dl
# Copyright: (C) Copyright 2010-2020 by IWLTBAP SAS
# Cannot be resold, shared or otherwise redistributed
# Website: https://luts.iwltbap.com
0 64 128 192 256 320 384 448 512 576 640 704 768 832 896 960 1023
0 0 0
12 69 101
23 203 294
16 350 499
2 507 725
0 668 961
0 833 1203
0 1009 1457
0 1200 1732
0 1407 2028
0 1558 2243
0 1619 2331
0 1677 2413
0 1685 2425
0 1685 2425
0 1685 2425
0 1685 2425
12 67 85
14 99 135
24 223 313
20 362 509
6 511 723
0 665 950
0 825 1185
0 995 1433
0 1181 1701
0 1383 1992
0 1550 2232
0 1614 2323
0 1671 2404
0 1685 2425
0 1685 2425
0 1685 2425
0 1685 2425
26 226 293
25 227 296
23 319 436
20 443 610
9 579 804
1 721 1010
0 869 1226
0 1030 1459
0 1208 1715
0 1402 1994
0 1583 2252
0 1650 2350
0 1704 2428
0 1723 2456
0 1721 2454
0 1720 2453
0 1720 2453
21 387 516
21 384 512
15 429 591
12 530 740
6 656 916
1 787 1100
0 924 1296
0 1073 1508
0 1241 1746
0 1426 2008
0 1614 2274
0 1697 2392
0 1748 2465
0 1773 2501
0 1772 2500
0 1770 2498
0 1770 2498
14 554 757
14 551 753
7 561 780
5 632 897
1 745 1056
0 868 1227
0 994 1402
0 1129 1591
0 1282 1804
0 1454 2043
0 1640 2302
0 1743 2445
0 1792 2513
0 1823 2557
0 1822 2555
0 1821 2554
0 1821 2554
6 728 1008
6 725 1005
6 721 1001
0 753 1080
0 845 1217
0 965 1380
0 1084 1544
0 1207 1713
0 1342 1899
0 1494 2108
0 1662 2340
0 1792 2515
0 1837 2577
0 1874 2626
0 1872 2624
0 1871 2622
0 1871 2622
3 905 1263
3 903 1260
3 899 1255
0 901 1290
0 955 1390
0 1067 1545
0 1189 1707
0 1306 1866
0 1426 2028
0 1557 2207
0 1704 2407
0 1853 2607
0 1893 2660
0 1933 2713
0 1931 2710
0 1930 2708
0 1930 2708
3 1087 1517
3 1085 1514
3 1081 1509
0 1072 1520
0 1084 1577
0 1168 1706
0 1293 1872
0 1414 2032
0 1530 2185
0 1647 2341
0 1774 2510
0 1916 2697
0 1970 2768
0 2008 2817
0 2009 2818
0 2006 2815
0 2006 2815
0 1270 1767
0 1268 1763
0 1265 1759
0 1255 1759
0 1241 1785
0 1278 1870
0 1388 2023
0 1519 2193
0 1642 2351
0 1758 2499
1 1873 2647
4 1998 2807
4 2074 2904
6 2106 2945
6 2111 2952
6 2109 2949
6 2109 2949
0 1452 2012
0 1450 2009
0 1447 2006
0 1439 2001
0 1420 2009
0 1413 2052
0 1480 2165
0 1611 2335
0 1750 2506
4 1879 2661
10 1997 2803
24 2115 2947
36 2207 3062
41 2240 3102
41 2249 3114
39 2246 3110
39 2246 3110
0 1633 2256
0 1631 2253
0 1628 2249
0 1624 2244
0 1605 2246
0 1580 2263
0 1594 2322
0 1694 2459
2 1844 2635
17 1994 2802
58 2130 2952
111 2257 3096
157 2369 3227
172 2410 3276
174 2424 3294
170 2420 3290
170 2419 3290
0 1815 2501
0 1813 2498
0 1810 2494
0 1807 2490
0 1792 2489
0 1769 2493
0 1751 2517
0 1795 2593
7 1926 2741
54 2093 2911
164 2257 3073
294 2408 3226
407 2547 3375
457 2617 3451
469 2639 3476
461 2634 3472
460 2633 3472
0 2001 2747
0 1999 2745
0 1996 2741
0 1993 2737
0 1982 2735
0 1967 2734
0 1945 2746
0 1948 2773
15 2022 2852
109 2181 2995
317 2368 3157
550 2552 3322
759 2730 3490
896 2854 3611
931 2890 3647
920 2885 3644
919 2884 3644
0 2126 2911
0 2125 2910
0 2125 2909
0 2123 2907
0 2119 2908
0 2111 2912
0 2099 2922
1 2096 2940
16 2127 2969
137 2242 3054
426 2435 3201
759 2648 3370
1068 2863 3552
1337 3061 3725
1422 3127 3785
1420 3127 3785
1419 3127 3785
0 2182 2982
0 2181 2981
0 2180 2981
0 2180 2979
0 2178 2980
0 2171 2985
0 2164 2995
3 2161 3012
13 2179 3028
120 2256 3075
421 2436 3201
796 2657 3367
1156 2889 3553
1493 3123 3749
1635 3224 3836
1649 3235 3846
1649 3235 3846
0 2182 2983
0 2182 2983
0 2182 2983
0 2182 2983
0 2182 2983
0 2177 2990
0 2171 2999
3 2167 3016
9 2181 3033
86 2241 3068
361 2404 3179
744 2625 3341
1118 2859 3526
1476 3102 3727
1662 3233 3838
1696 3257 3858
1696 3257 3858
0 2182 2983
0 2182 2983
0 2182 2983
0 2182 2983
0 2182 2983
0 2177 2990
0 2171 2999
3 2167 3016
9 2180 3033
84 2240 3067
358 2402 3177
741 2622 3339
1115 2857 3524
1473 3100 3725
1661 3232 3837
1696 3257 3858
1696 3257 3858
166 21 23
149 63 113
129 169 302
102 305 494
73 473 711
44 651 950
24 830 1197
13 1011 1455
6 1204 1729
2 1409 2024
1 1563 2245
1 1623 2332
0 1678 2413
0 1687 2426
0 1685 2425
0 1685 2425
0 1685 2425
99 68 75
87 85 114
78 198 297
62 333 488
39 488 702
19 649 931
8 815 1171
3 985 1420
0 1169 1686
0 1374 1980
0 1547 2228
0 1612 2321
0 1670 2402
0 1685 2425
0 1685 2425
0 1685 2425
0 1685 2425
30 217 279
25 213 276
23 306 418
20 431 593
10 568 789
1 710 995
0 859 1213
0 1020 1446
0 1199 1703
0 1393 1982
0 1577 2246
0 1646 2345
0 1699 2423
0 1720 2453
0 1719 2452
0 1717 2451
0 1717 2451
22 379 505
22 376 501
16 419 576
12 520 725
6 646 901
1 777 1087
0 915 1283
0 1065 1496
0 1233 1735
0 1418 1997
0 1608 2267
0 1693 2387
0 1745 2461
0 1771 2499
0 1770 2498
0 1768 2496
0 1768 2496
14 547 747
14 544 743
8 552 765
5 623 884
2 736 1043
0 860 1215
0 986 1390
0 1121 1580
0 1275 1793
0 1446 2032
0 1632 2292
0 1739 2440
0 1788 2508
0 1821 2554
0 1820 2553
0 1819 2551
0 1819 2551
6 721 998
6 718 994
6 714 990
0 745 1068
0 836 1204
0 956 1368
0 1076 1532
0 1199 1701
0 1334 1887
0 1486 2097
0 1655 2329
0 1788 2510
0 1834 2572
0 1872 2623
0 1870 2621
0 1869 2619
0 1869 2619
3 899 1254
3 897 1251
3 892 1245
0 893 1278
0 947 1378
0 1058 1532
0 1180 1695
0 1298 1853
0 1418 2017
0 1549 2196
0 1696 2397
0 1848 2600
0 1890 2655
0 1930 2709
0 1929 2707
0 1927 2705
0 1927 2705
3 1080 1507
3 1078 1504
3 1075 1500
0 1066 1511
0 1077 1567
0 1160 1695
0 1284 1859
0 1406 2020
0 1522 2174
0 1639 2330
0 1766 2499
0 1908 2688
0 1966 2762
0 2003 2811
0 2005 2813
0 2003 2811
0 2003 2810
0 1263 1757
0 1261 1754
0 1258 1750
0 1249 1750
0 1235 1775
0 1270 1859
0 1379 2011
0 1511 2182
0 1634 2340
0 1750 2488
1 1865 2636
4 1990 2797
3 2069 2898
5 2101 2938
6 2108 2947
6 2105 2944
6 2105 2944
0 1446 2004
0 1444 2001
0 1441 1997
0 1434 1993
0 1414 2000
0 1407 2043
0 1472 2154
0 1602 2324
0 1742 2495
4 1870 2650
9 1989 2793
22 2106 2937
34 2200 3054
39 2233 3095
39 2244 3108
37 2240 3104
37 2240 3104
0 1627 2248
0 1625 2245
0 1622 2241
0 1618 2236
0 1600 2238
0 1574 2254
0 1587 2312
0 1686 2449
1 1835 2625
15 1984 2792
55 2122 2943
105 2247 3086
150 2360 3218
165 2402 3269
168 2417 3288
163 2413 3284
163 2413 3283
0 1809 2492
0 1807 2490
0 1804 2486
0 1801 2482
0 1786 2480
0 1763 2484
0 1745 2509
0 1787 2583
6 1917 2731
50 2085 2902
156 2248 3064
283 2398 3217
393 2537 3366
444 2609 3445
456 2631 3470
448 2626 3467
447 2626 3466
0 1995 2739
0 1993 2737
0 1990 2733
0 1987 2729
0 1976 2726
0 1961 2726
0 1939 2738
0 1941 2765
13 2014 2843
102 2172 2987
304 2359 3149
533 2541 3314
738 2717 3481
878 2845 3604
914 2882 3642
903 2876 3639
902 2876 3638
0 2124 2908
0 2123 2907
0 2122 2906
0 2121 2905
0 2118 2905
0 2109 2909
0 2097 2919
1 2094 2937
15 2123 2965
131 2236 3050
415 2428 3196
746 2640 3364
1054 2855 3546
1325 3054 3721
1412 3122 3781
1411 3123 3783
1410 3122 3783
0 2180 2980
0 2179 2979
0 2179 2978
0 2178 2977
0 2176 2977
0 2170 2983
0 2162 2992
3 2159 3009
12 2176 3025
114 2251 3071
409 2428 3196
782 2649 3361
1142 2881 3547
1483 3116 3745
1628 3220 3833
1644 3232 3844
1643 3232 3844
0 2182 2983
0 2182 2983
0 2182 2983
0 2182 2983
0 2182 2983
0 2177 2989
0 2171 2998
3 2167 3016
8 2180 3033
80 2238 3066
351 2398 3175
733 2618 3336
1108 2853 3520
1466 3095 3721
1660 3231 3836
1696 3257 3858
1696 3257 3858
0 2182 2983
0 2182 2983
0 2182 2983
0 2182 2983
0 2182 2983
0 2177 2989
0 2171 2998
3 2167 3016
8 2180 3032
78 2237 3065
348 2396 3173
730 2616 3334
1105 2851 3519
1463 3093 3719
1659 3231 3836
1696 3257 3858
1696 3257 3858
502 51 42
465 68 135
385 120 355
325 205 525
272 357 705
213 567 935
147 795 1194
93 1017 1466
55 1235 1752
27 1450 2052
16 1613 2284
11 1674 2373
8 1729 2453
7 1739 2469
7 1738 2468
6 1736 2467
6 1736 2466
435 90 71
416 93 107
343 146 319
286 230 496
239 374 680
185 568 907
125 779 1159
77 992 1427
44 1203 1710
22 1416 2008
12 1594 2264
8 1658 2357
5 1713 2437
4 1730 2461
4 1728 2460
3 1727 2459
3 1727 2459
341 248 218
336 244 215
278 289 372
228 379 547
186 513 737
145 676 954
104 851 1190
68 1030 1439
40 1218 1705
23 1414 1989
11 1601 2260
9 1671 2363
6 1721 2439
6 1743 2471
5 1740 2469
5 1737 2467
5 1737 2466
221 414 437
217 410 435
186 427 510
148 503 663
118 626 844
93 765 1041
68 912 1252
48 1068 1476
31 1237 1721
15 1422 1987
8 1613 2263
5 1699 2388
3 1748 2460
3 1775 2501
2 1773 2499
2 1771 2497
2 1771 2497
89 561 707
86 557 705
72 556 724
48 612 843
35 720 1004
24 846 1181
17 974 1363
11 1111 1558
6 1263 1773
2 1434 2014
0 1619 2273
0 1734 2433
0 1783 2501
0 1818 2550
0 1817 2548
0 1815 2547
0 1815 2547
7 709 980
7 707 977
7 703 972
0 731 1045
0 820 1181
0 941 1345
0 1062 1511
0 1185 1681
0 1321 1868
0 1473 2079
0 1643 2312
0 1783 2503
0 1829 2565
0 1868 2618
0 1867 2616
0 1866 2615
0 1866 2615
3 887 1238
3 885 1235
3 882 1230
0 882 1260
0 934 1358
0 1044 1512
0 1166 1675
0 1285 1834
0 1405 1999
0 1537 2179
0 1685 2381
0 1839 2587
0 1884 2648
0 1927 2704
0 1925 2702
0 1924 2699
0 1924 2699
3 1071 1494
3 1069 1491
3 1066 1487
0 1057 1497
0 1067 1551
0 1148 1677
0 1272 1842
0 1394 2004
0 1510 2157
0 1628 2314
0 1755 2485
0 1898 2674
0 1959 2754
0 1998 2804
0 2001 2808
0 1999 2805
0 1999 2805
0 1255 1746
0 1253 1743
0 1250 1739
0 1242 1738
0 1227 1761
0 1260 1844
0 1369 1996
0 1500 2167
0 1623 2325
0 1739 2474
0 1855 2623
3 1980 2784
3 2062 2888
5 2094 2930
5 2103 2941
5 2100 2937
5 2100 2937
0 1438 1993
0 1435 1990
0 1433 1986
0 1427 1982
0 1408 1988
0 1398 2030
0 1463 2140
0 1592 2310
0 1731 2482
3 1859 2636
9 1978 2779
20 2095 2924
32 2191 3043
36 2225 3085
36 2237 3100
34 2234 3097
34 2234 3096
0 1619 2237
0 1617 2234
0 1614 2231
0 1610 2225
0 1593 2226
0 1567 2243
0 1579 2300
0 1676 2436
1 1824 2612
13 1974 2779
50 2110 2930
97 2235 3073
141 2349 3207
156 2393 3260
159 2409 3280
154 2404 3275
154 2404 3275
0 1801 2483
0 1799 2479
0 1796 2476
0 1793 2471
0 1779 2470
0 1757 2474
0 1737 2498
0 1778 2571
6 1906 2718
45 2073 2891
145 2236 3052
268 2385 3205
376 2524 3355
427 2598 3436
439 2620 3463
431 2615 3459
430 2615 3459
0 1987 2729
0 1985 2727
0 1982 2723
0 1979 2719
0 1969 2716
0 1954 2716
0 1931 2727
0 1931 2753
11 2003 2832
94 2160 2976
287 2346 3139
511 2527 3303
714 2702 3470
855 2833 3596
892 2871 3635
881 2865 3631
880 2865 3631
0 2121 2905
0 2121 2904
0 2120 2903
0 2119 2902
0 2115 2902
0 2107 2906
0 2094 2915
0 2090 2933
14 2119 2961
124 2228 3044
401 2419 3189
729 2630 3356
1036 2844 3538
1311 3046 3715
1398 3114 3776
1399 3117 3780
1399 3117 3780
0 2178 2977
0 2177 2976
0 2177 2976
0 2176 2974
0 2174 2974
0 2168 2980
0 2160 2989
3 2156 3005
11 2172 3022
106 2245 3066
392 2419 3188
766 2639 3353
1125 2870 3538
1468 3108 3738
1619 3215 3830
1637 3229 3843
1637 3229 3843
0 2182 2983
0 2182 2983
0 2182 2983
0 2182 2983
0 2182 2983
0 2177 2989
0 2171 2998
3 2167 3015
7 2179 3032
75 2234 3064
338 2391 3169
720 2610 3330
1095 2844 3513
1454 3087 3714
1657 3229 3835
1696 3257 3858
1696 3257 3858
0 2182 2983
0 2182 2983
0 2182 2983
0 2182 2983
0 2182 2983
0 2177 2989
0 2171 2998
3 2167 3015
7 2178 3032
74 2233 3063
335 2389 3168
717 2608 3328
1092 2842 3512
1451 3085 3712
1656 3229 3834
1696 3257 3858
1696 3257 3858
861 58 28
822 69 124
710 107 424
605 141 632
522 212 761
457 381 936
376 643 1182
285 935 1467
200 1213 1768
132 1466 2077
92 1655 2325
77 1725 2420
65 1784 2500
61 1797 2520
59 1796 2519
57 1795 2517
57 1795 2517
801 84 41
785 83 69
671 116 364
569 147 585
489 216 722
423 384 901
345 639 1147
257 921 1429
178 1190 1728
116 1438 2036
77 1641 2305
62 1713 2405
52 1771 2485
48 1790 2512
46 1789 2511
44 1788 2510
