assets/luts/LUTs by IWLTBAP (3DL)/02 - Generic LOG/H-9110-LOG.3dl
# Copyright: (C) Copyright 2010-2020 by IWLTBAP SAS
# Cannot be resold, shared or otherwise redistributed
# Website: https://luts.iwltbap.com
0 256 512 768 1023
0 0 0
13 0 1194
29 0 2758
40 0 3779
170 110 4069
732 515 0
93 718 866
33 634 2622
48 650 3778
52 691 4082
1716 1263 0
1614 1283 103
251 1793 2116
35 1529 3823
44 1530 4054
2536 3412 263
2560 3377 337
2333 3344 1019
434 2925 3462
0 2590 4083
2880 3902 294
2884 3915 354
3069 3879 672
1652 4006 2613
457 3363 4069
1103 0 61
1062 11 1059
1070 32 2669
1054 34 3779
1090 83 4075
979 493 0
803 794 798
666 758 2428
898 850 3792
957 918 4069
1829 1213 0
1705 1214 101
620 1817 2029
136 1492 3813
160 1501 4066
2648 3345 298
2646 3218 315
2508 3176 956
635 2922 3404
109 2588 4068
2987 3902 312
2960 3910 361
3090 3767 605
1744 3999 2572
624 3421 4069
2617 0 144
2588 0 1014
2548 32 2549
2520 59 3790
2509 62 4069
2391 384 129
2314 719 826
2284 739 2274
2318 792 3784
2341 867 4069
2268 1254 0
2236 1346 329
1969 1950 1957
933 1607 3819
925 1647 4069
3169 1990 0
3239 1937 61
2912 2344 869
1700 3022 3290
561 2593 4070
3345 3460 113
3349 3501 199
3299 2550 303
2312 3998 2555
1543 3604 4069
3792 0 208
3779 0 987
3779 44 2409
3788 40 3772
3800 61 4082
3788 278 201
3791 596 872
3779 725 2244
3775 657 3757
3797 754 4078
3767 1239 471
3720 1314 655
3598 1944 1954
3557 1896 3526
3650 1986 4069
3708 2079 0
3659 2155 178
3525 2586 1455
3217 3191 3209
2893 3147 4069
3707 2595 0
3797 2550 61
3880 2834 949
3753 3511 2646
3052 3845 4056
4069 0 223
4069 0 1051
4073 47 2387
4082 51 3788
4082 43 4062
4069 310 216
4069 654 942
4071 777 2256
4078 724 3752
4072 700 4051
4083 1192 414
4079 1330 708
4069 1969 2016
4070 1953 3562
4070 1922 4036
4082 2211 450
4082 2251 614
4073 2693 1739
4070 3290 3269
4070 3232 4020
4082 2621 0
4082 2707 65
4082 3038 1050
4081 3676 2909
4069 4056 4067
