assets/luts/LUTs by IWLTBAP (3DL)/02 - Generic LOG/H-9110-LOG.3dl
# Copyright: (C) Copyright 2010-2020 by IWLTBAP SAS
# Cannot be resold, shared or otherwise redistributed
# Website: https://luts.iwltbap.com
0 64 128 192 256 320 384 448 512 576 640 704 768 832 896 960 1023
0 0 0
1 0 114
7 8 611
11 1 1030
13 0 1194
16 0 1547
20 0 1936
25 0 2341
29 0 2758
33 0 3167
37 0 3565
39 0 3697
40 0 3779
40 0 3858
76 31 3933
122 70 4002
170 110 4069
52 40 0
23 58 90
6 63 509
13 59 977
15 51 1202
18 56 1503
22 56 1892
27 56 2301
31 55 2719
35 50 3131
40 60 3556
42 78 3708
44 95 3792
49 120 3872
54 141 3941
99 173 4007
143 211 4069
236 178 0
197 252 57
20 246 311
10 235 824
17 218 1274
20 224 1517
24 225 1855
29 229 2248
35 232 2666
40 227 3073
46 243 3513
55 251 3722
55 258 3802
54 271 3874
53 288 3936
53 307 4003
92 340 4069
462 338 0
429 390 15
382 554 97
57 486 573
10 438 1091
20 435 1559
25 428 1955
28 425 2221
33 434 2590
38 434 3004
44 429 3435
48 432 3697
49 436 3779
50 445 3855
51 457 3922
52 472 3994
53 493 4072
732 515 0
691 522 15
653 536 30
378 847 322
93 718 866
2 654 1376
23 643 1877
28 636 2273
33 634 2622
37 633 2963
43 642 3374
47 648 3694
48 650 3778
49 656 3858
50 667 3933
51 677 4008
52 691 4082
975 693 0
950 696 15
923 697 30
846 881 106
467 1142 554
130 999 1170
0 869 1668
21 869 2170
32 841 2596
36 839 2953
41 840 3302
46 855 3678
47 855 3792
48 858 3869
49 865 3935
50 873 4008
51 885 4082
1220 875 0
1195 877 15
1171 880 30
1120 892 64
989 1369 387
568 1459 823
211 1291 1477
0 1097 1943
13 1086 2476
35 1066 2906
40 1056 3268
44 1058 3624
46 1067 3781
47 1072 3859
48 1081 3930
49 1088 4004
50 1098 4078
1457 1059 0
1441 1062 15
1423 1066 30
1403 1068 46
1295 1199 122
959 1754 608
684 1768 1086
174 1496 1791
0 1334 2264
2 1324 2762
28 1304 3221
43 1290 3613
46 1287 3791
46 1286 3849
47 1289 3909
48 1293 3975
49 1301 4042
1716 1263 0
1704 1263 15
1692 1262 30
1685 1262 46
1614 1283 103
1562 1757 350
1049 2085 882
782 2103 1385
251 1793 2116
0 1579 2561
0 1559 3064
18 1535 3526
35 1529 3823
40 1524 3904
42 1521 3950
44 1523 4002
44 1530 4054
1965 1465 0
1956 1464 15
1946 1464 30
1934 1466 46
1898 1470 82
1799 1500 161
1670 2353 714
1135 2405 1161
891 2415 1662
323 2089 2443
0 1819 2894
0 1799 3356
4 1776 3779
12 1770 3909
15 1766 3961
18 1766 4015
20 1773 4070
2184 1672 0
2182 1675 15
2180 1678 30
2182 1680 46
2171 1677 61
2092 1701 141
2013 1858 221
1604 2695 927
1256 2734 1426
987 2761 1976
325 2337 2781
0 2073 3232
0 2041 3673
0 2031 3872
0 2026 3938
0 2025 4003
0 2030 4068
2327 2416 30
2322 2361 36
2315 2299 42
2308 2233 52
2289 2143 61
2270 1956 120
2290 1922 201
2307 2549 485
1618 3053 1211
1369 3074 1697
1116 3097 2302
419 2660 3114
0 2319 3562
0 2308 3819
0 2301 3889
0 2296 3962
0 2295 4038
2536 3412 263
2535 3403 281
2543 3395 301
2553 3391 321
2560 3377 337
2549 3330 350
2568 2706 208
2518 2257 262
2333 3344 1019
1716 3405 1509
1489 3417 2006
1205 3431 2638
434 2925 3462
0 2591 3845
0 2588 3932
0 2587 4009
0 2590 4083
2726 3699 277
2725 3698 292
2725 3698 307
2724 3696 322
2712 3694 333
2699 3691 344
2647 3678 410
2877 3535 517
2782 2780 324
2132 3704 1259
1804 3735 1805
1605 3752 2308
1331 3778 3003
410 3165 3802
81 2898 3874
30 2871 3972
0 2848 4068
2778 3768 283
2778 3768 298
2779 3768 313
2779 3768 329
2765 3768 338
2745 3768 346
2692 3766 393
2764 3760 504
2888 3159 375
2648 3745 1156
1922 3820 1697
1714 3851 2166
1499 3872 2728
1173 3842 3785
461 3289 3933
256 3125 3968
92 3000 4026
2829 3835 289
2829 3835 304
2833 3837 320
2837 3840 336
2823 3840 346
2800 3840 352
2751 3841 395
2708 3845 459
2985 3584 537
2940 3772 1105
2001 3883 1637
1791 3913 2100
1595 3939 2621
1335 3974 3546
733 3554 3985
468 3334 4002
253 3165 4038
2880 3902 294
2879 3902 309
2883 3905 326
2894 3912 343
2884 3915 354
2862 3915 360
2806 3915 411
2711 3929 450
3069 3879 672
2893 3832 1103
2057 3953 1647
1845 3983 2105
1652 4006 2613
1386 4043 3444
999 3810 4026
734 3594 4054
457 3363 4069
74 0 4
75 1 90
74 6 531
86 3 940
88 3 1164
92 3 1532
97 3 1922
93 2 2322
120 3 2738
129 3 3146
145 3 3561
177 5 3697
197 6 3779
230 7 3858
264 29 3929
293 69 4000
331 109 4071
112 41 6
90 68 82
59 70 449
57 70 903
78 72 1149
92 76 1469
97 77 1867
99 76 2271
99 74 2690
107 76 3106
118 83 3531
154 111 3708
179 133 3792
210 162 3868
241 186 3935
272 214 4002
312 254 4069
265 171 0
227 212 61
75 236 292
29 223 809
55 224 1217
76 231 1480
79 235 1827
98 243 2229
107 249 2647
114 246 3059
120 261 3495
129 269 3714
129 277 3794
159 298 3866
193 325 3934
228 354 4006
268 388 4075
491 325 0
444 336 15
402 468 79
109 484 554
27 427 1076
35 422 1546
40 419 1925
49 422 2202
76 439 2577
94 440 2983
119 446 3421
114 447 3698
116 451 3779
117 461 3855
117 474 3922
153 498 3994
194 528 4072
746 502 0
703 504 15
660 511 30
437 827 316
129 714 848
19 643 1358
38 633 1861
44 629 2261
48 628 2605
55 630 2940
85 644 3355
120 658 3690
121 661 3778
122 667 3858
123 678 3933
124 690 4008
127 705 4082
993 681 0
959 682 15
933 684 30
840 827 92
500 1123 548
180 984 1147
28 865 1652
36 857 2157
47 836 2579
52 835 2941
57 836 3290
97 864 3671
115 870 3793
118 873 3869
123 882 3935
122 890 4008
122 901 4082
1228 865 0
1206 866 15
1184 869 30
1139 880 64
1033 1352 398
591 1439 819
248 1266 1456
26 1097 1933
28 1080 2466
50 1060 2895
55 1051 3257
61 1053 3615
72 1067 3780
80 1074 3858
91 1087 3930
103 1098 4004
109 1110 4078
1475 1053 0
1454 1049 15
1438 1053 30
1424 1055 46
1300 1142 121
998 1741 603
706 1757 1079
237 1503 1773
19 1332 2253
18 1318 2755
44 1297 3206
58 1285 3602
61 1279 3795
62 1279 3854
62 1283 3914
64 1292 3976
65 1301 4042
1734 1256 0
1718 1253 15
1706 1252 30
1698 1251 46
1627 1274 102
1572 1724 329
1069 2075 877
795 2089 1382
298 1781 2100
19 1579 2549
15 1553 3058
34 1531 3525
50 1525 3821
55 1519 3903
57 1518 3950
59 1519 4001
60 1527 4053
1983 1460 0
1965 1457 15
1954 1455 30
1943 1454 46
1907 1463 81
1816 1490 161
1716 2336 726
1156 2397 1153
909 2405 1665
380 2096 2433
17 1819 2885
15 1795 3352
19 1772 3772
27 1766 3908
31 1762 3961
33 1763 4015
35 1769 4070
2202 1667 0
2201 1663 15
2199 1667 30
2200 1668 46
2188 1667 61
2109 1695 141
2024 1843 220
1639 2685 924
1278 2727 1414
1010 2745 1967
378 2336 2770
29 2083 3217
15 2041 3668
15 2031 3873
15 2025 3939
15 2023 4004
15 2027 4068
2328 2349 18
2319 2289 23
2313 2229 33
2306 2166 46
2299 2102 61
2294 1937 120
2304 1916 200
2317 2529 478
1638 3047 1210
1384 3059 1692
1130 3088 2301
467 2663 3107
28 2329 3563
15 2300 3823
15 2293 3890
15 2291 3959
15 2292 4032
2551 3400 267
2559 3396 286
2569 3388 307
2581 3383 327
2588 3368 343
2577 3305 352
2577 2673 200
2521 2235 261
2392 3322 1019
1735 3397 1505
1508 3408 1990
1229 3425 2629
486 2937 3453
17 2597 3839
15 2591 3924
15 2589 4001
16 2592 4075
2751 3697 281
2739 3696 291
2739 3696 307
2737 3694 322
2729 3692 334
2716 3689 345
2663 3683 409
2887 3492 495
2795 2724 323
2159 3693 1257
1832 3732 1802
1618 3749 2303
1343 3770 2984
458 3173 3799
133 2907 3874
69 2884 3973
33 2864 4068
2805 3768 287
2794 3768 298
2794 3768 313
2794 3768 329
2787 3768 341
2771 3768 350
2707 3772 392
2799 3760 512
2899 3127 355
2703 3744 1156
1958 3819 1688
1735 3850 2161
1517 3872 2713
1211 3853 3777
507 3293 3925
307 3131 3961
145 3006 4018
2856 3835 293
2852 3835 307
2852 3837 321
2853 3840 336
2838 3840 346
2818 3840 353
2770 3840 397
2735 3846 463
2996 3564 525
2978 3757 1093
2028 3881 1630
1816 3913 2095
1612 3934 2615
1358 3974 3528
775 3567 3982
509 3347 4000
296 3178 4035
2907 3902 299
2907 3902 314
2907 3905 329
2910 3912 343
2899 3915 353
2876 3915 360
2820 3915 410
2738 3929 454
3077 3860 662
2923 3820 1096
2083 3950 1641
1871 3983 2101
1669 4003 2609
1408 4042 3431
1038 3827 4026
773 3611 4054
495 3380 4069
406 0 22
401 0 89
383 4 380
398 11 738
404 12 1125
393 13 1511
409 14 1903
399 14 2311
421 15 2728
414 16 3131
423 15 3553
444 16 3710
454 17 3792
469 17 3868
489 20 3935
516 69 4002
546 113 4071
366 35 20
347 63 88
327 80 339
317 82 703
341 83 1058
351 87 1446
370 86 1850
363 79 2250
379 87 2669
386 90 3088
393 87 3516
416 100 3699
428 124 3780
448 155 3855
474 183 3922
500 215 3995
530 256 4069
356 172 8
326 196 73
274 271 271
112 222 771
177 246 1081
269 276 1395
295 287 1778
312 295 2188
324 306 2605
346 312 3028
357 320 3470
371 336 3703
384 349 3784
409 370 3858
442 392 3923
469 417 3995
498 449 4069
546 312 0
514 322 19
453 355 62
198 472 535
59 416 1064
64 411 1533
68 406 1884
95 421 2171
201 467 2563
240 474 2959
286 488 3396
288 491 3697
304 500 3780
332 517 3856
366 540 3926
399 564 3998
435 593 4070
760 486 0
721 486 15
676 489 30
497 799 317
198 728 825
36 628 1330
53 621 1839
59 620 2239
64 623 2583
76 625 2912
136 651 3331
204 673 3681
224 681 3779
252 695 3858
287 715 3933
324 737 4006
363 763 4076
1014 668 0
978 669 15
941 669 30
835 784 90
532 1098 542
226 965 1121
58 858 1628
52 844 2133
62 830 2562
67 829 2920
72 830 3268
146 868 3662
177 881 3793
189 888 3869
196 898 3936
230 916 4008
274 940 4082
1237 852 0
1216 853 15
1191 852 30
1151 866 63
1051 1323 401
613 1412 807
299 1254 1429
55 1088 1919
44 1067 2450
65 1051 2879
70 1044 3241
76 1045 3603
100 1064 3781
123 1077 3858
140 1093 3932
167 1111 4005
178 1124 4079
1490 1045 0
1469 1041 15
1444 1036 30
1432 1039 46
1319 1111 120
1054 1719 607
729 1740 1068
310 1512 1751
43 1327 2236
33 1309 2743
59 1287 3188
74 1278 3584
76 1272 3797
79 1275 3858
79 1279 3918
83 1289 3981
84 1302 4045
1749 1247 0
1731 1243 15
1714 1238 30
1705 1236 46
1632 1261 101
1569 1666 303
1094 2054 869
813 2066 1368
351 1778 2080
46 1573 2535
30 1544 3043
49 1525 3513
67 1514 3821
72 1510 3905
74 1510 3952
75 1514 4000
75 1522 4053
1997 1452 0
1980 1450 15
1962 1444 30
1951 1443 46
1914 1453 81
1829 1480 160
1754 2310 730
1175 2385 1146
926 2391 1662
435 2097 2417
35 1818 2870
30 1786 3342
35 1765 3765
43 1761 3906
46 1757 3961
49 1759 4015
51 1766 4070
2217 1662 0
2216 1658 15
2214 1652 30
2213 1653 46
2202 1654 61
2122 1685 140
2032 1822 219
1664 2675 918
1297 2716 1405
1029 2728 1955
424 2323 2750
66 2087 3199
30 2038 3659
30 2028 3870
30 2023 3935
30 2022 4001
30 2023 4068
2323 2255 1
2319 2208 15
2316 2153 30
2313 2097 46
2308 2041 61
2312 1911 120
2313 1906 200
2321 2508 479
1653 3029 1206
1402 3046 1690
1145 3075 2299
491 2641 3092
71 2336 3557
30 2289 3828
30 2283 3895
30 2280 3963
30 2286 4030
2577 3384 274
2583 3381 292
2598 3370 314
2608 3358 329
2610 3339 338
2596 3242 332
2583 2626 195
2524 2214 260
2423 3283 1001
1753 3384 1498
1524 3396 1974
1255 3413 2613
545 2949 3443
51 2602 3837
47 2595 3921
37 2589 3995
38 2591 4070
2778 3695 285
2765 3694 296
2755 3696 307
2754 3694 322
2746 3690 335
2733 3687 346
2680 3687 408
2893 3450 474
2806 2678 323
2201 3682 1252
1861 3728 1795
1637 3744 2293
1358 3761 2966
510 3185 3794
187 2915 3874
130 2895 3974
75 2878 4068
2832 3768 292
2821 3768 302
2812 3770 314
2813 3770 329
2806 3768 342
2794 3768 353
2731 3774 394
2828 3762 516
2913 3102 339
2771 3739 1155
1986 3821 1681
1760 3850 2152
1537 3868 2699
1266 3877 3762
554 3301 3923
360 3140 3958
195 3019 4015
2883 3835 297
2876 3835 310
2867 3838 321
2867 3840 336
2860 3840 348
2848 3841 359
2798 3840 401
2762 3847 466
3009 3543 512
3009 3719 1059
2057 3884 1624
1842 3912 2091
1633 3931 2605
1385 3973 3498
816 3576 3980
556 3356 3995
347 3188 4030
2933 3902 303
2930 3902 317
2930 3905 332
2929 3912 345
2922 3915 356
2898 3915 363
2839 3915 411
2769 3929 459
3081 3835 646
2965 3803 1085
2110 3952 1632
1897 3982 2099
1689 4000 2602
1433 4042 3406
1070 3838 4021
815 3628 4054
537 3397 4069
738 0 40
726 0 107
702 8 374
713 8 713
719 17 1095
712 21 1484
723 22 1881
719 22 2285
727 23 2718
715 23 3118
732 24 3548
734 25 3706
737 25 3788
744 25 3863
750 25 3929
767 55 3999
793 103 4069
696 27 37
673 58 106
662 71 330
655 77 655
674 90 1046
667 91 1426
674 86 1829
684 87 2239
686 96 2663
690 94 3076
702 96 3502
707 97 3703
711 108 3784
724 144 3857
740 179 3931
758 211 4006
