assets/luts/LUTs by IWLTBAP (3DL)/02 - Generic LOG/H-9110-LOG.3dl
# Copyright: (C) Copyright 2010-2020 by IWLTBAP SAS
# Cannot be resold, shared or otherwise redistributed
# Website: https://luts.iwltbap.com
0 128 256 384 512 640 768 896 1023
0 0 0
7 8 611
13 0 1194
20 0 1936
29 0 2758
37 0 3565
40 0 3779
76 31 3933
170 110 4069
236 178 0
20 246 311
17 218 1274
24 225 1855
35 232 2666
46 243 3513
55 258 3802
53 288 3936
92 340 4069
732 515 0
653 536 30
93 718 866
23 643 1877
33 634 2622
43 642 3374
48 650 3778
50 667 3933
52 691 4082
1220 875 0
1171 880 30
989 1369 387
211 1291 1477
13 1086 2476
40 1056 3268
46 1067 3781
48 1081 3930
50 1098 4078
1716 1263 0
1692 1262 30
1614 1283 103
1049 2085 882
251 1793 2116
0 1559 3064
35 1529 3823
42 1521 3950
44 1530 4054
2184 1672 0
2180 1678 30
2171 1677 61
2013 1858 221
1256 2734 1426
325 2337 2781
0 2041 3673
0 2026 3938
0 2030 4068
2536 3412 263
2543 3395 301
2560 3377 337
2568 2706 208
2333 3344 1019
1489 3417 2006
434 2925 3462
0 2588 3932
0 2590 4083
2778 3768 283
2779 3768 313
2765 3768 338
2692 3766 393
2888 3159 375
1922 3820 1697
1499 3872 2728
461 3289 3933
92 3000 4026
2880 3902 294
2883 3905 326
2884 3915 354
2806 3915 411
3069 3879 672
2057 3953 1647
1652 4006 2613
999 3810 4026
457 3363 4069
406 0 22
383 4 380
404 12 1125
409 14 1903
421 15 2728
423 15 3553
454 17 3792
489 20 3935
546 113 4071
356 172 8
274 271 271
177 246 1081
295 287 1778
324 306 2605
357 320 3470
384 349 3784
442 392 3923
498 449 4069
760 486 0
676 489 30
198 728 825
53 621 1839
64 623 2583
136 651 3331
224 681 3779
287 715 3933
363 763 4076
1237 852 0
1191 852 30
1051 1323 401
299 1254 1429
44 1067 2450
70 1044 3241
100 1064 3781
140 1093 3932
178 1124 4079
1749 1247 0
1714 1238 30
1632 1261 101
1094 2054 869
351 1778 2080
30 1544 3043
67 1514 3821
74 1510 3952
75 1522 4053
2217 1662 0
2214 1652 30
2202 1654 61
2032 1822 219
1297 2716 1405
424 2323 2750
30 2038 3659
30 2023 3935
30 2023 4068
2577 3384 274
2598 3370 314
2610 3339 338
2583 2626 195
2423 3283 1001
1524 3396 1974
545 2949 3443
47 2595 3921
38 2591 4070
2832 3768 292
2812 3770 314
2806 3768 342
2731 3774 394
2913 3102 339
1986 3821 1681
1537 3868 2699
554 3301 3923
195 3019 4015
2933 3902 303
2930 3905 332
2922 3915 356
2839 3915 411
3081 3835 646
2110 3952 1632
1689 4000 2602
1070 3838 4021
537 3397 4069
1103 0 61
1092 0 383
1062 11 1059
1073 28 1855
1070 32 2669
1067 34 3525
1054 34 3779
1065 34 3931
1090 83 4075
992 124 57
967 231 286
946 243 949
956 253 1734
981 271 2564
980 292 3423
997 321 3783
1018 370 3933
1048 433 4076
979 493 0
929 530 124
803 794 798
306 637 1783
666 758 2428
830 826 3249
898 850 3792
915 877 3935
957 918 4069
1438 804 0
1393 796 30
1180 962 309
592 1231 1370
148 1039 2421
174 1026 3208
355 1098 3785
534 1172 3927
737 1260 4066
1829 1213 0
1799 1207 30
1705 1214 101
1227 1982 869
620 1817 2029
94 1510 3018
136 1492 3813
148 1490 3962
160 1501 4066
2250 1643 0
2237 1636 30
2208 1620 61
2030 1726 216
1331 2675 1387
554 2334 2707
61 2015 3618
61 2003 3935
64 2013 4068
2648 3345 298
2642 3309 316
2646 3218 315
2570 2434 178
2508 3176 956
1553 3359 1948
635 2922 3404
172 2600 3919
109 2588 4068
2890 3768 302
2870 3768 325
2858 3776 349
2794 3769 406
2939 3060 308
2044 3824 1655
1605 3865 2653
650 3320 3922
322 3047 4015
2987 3902 312
2968 3902 335
2960 3910 361
2898 3915 422
3090 3767 605
2165 3962 1615
1744 3999 2572
1138 3853 4019
624 3421 4069
1842 0 101
1826 0 385
1817 21 1027
1792 19 1784
1788 41 2610
1771 50 3466
1766 52 3789
1753 52 3935
1760 52 4069
1741 65 93
1713 168 314
1687 224 924
1677 191 1675
1683 221 2511
1688 257 3379
1684 281 3792
1697 338 3935
1716 407 4073
1630 475 152
1593 527 267
1527 781 804
1511 770 1504
1534 791 2342
1554 807 3203
1567 819 3786
1584 846 3934
1611 890 4069
1641 849 0
1597 894 119
1510 1063 572
1367 1351 1362
774 1163 2382
732 1148 3130
1137 1301 3781
1280 1362 3925
1432 1440 4069
2134 1162 0
2118 1160 30
2059 1203 153
1764 1552 876
1211 1854 1970
246 1488 3026
290 1470 3828
299 1483 3991
306 1505 4066
2592 1559 0
2559 1556 30
2522 1547 61
2299 1680 247
1708 2606 1438
1173 2430 2649
221 1993 3601
212 1977 3963
219 1995 4068
2746 2922 94
2725 2807 82
2681 2565 66
2703 2050 178
2669 2806 812
1755 3309 1949
970 2912 3343
597 2657 3922
408 2611 4056
3011 3768 322
3015 3767 354
3017 3765 384
2969 3766 444
3005 2929 306
2197 3814 1629
1768 3870 2586
879 3401 3933
613 3121 4013
3123 3902 335
3127 3902 367
3138 3902 400
3066 3914 455
3165 3511 465
2334 3953 1601
1902 4004 2546
1321 3879 4016
831 3454 4070
2617 0 144
2612 0 394
2588 0 1014
2574 30 1734
2548 32 2549
2530 53 3397
2520 59 3790
2509 60 3934
2509 62 4069
2519 38 137
2498 104 330
2476 152 941
2458 167 1636
2451 182 2446
2447 199 3309
2447 230 3784
2448 276 3927
2456 346 4069
2391 384 129
2369 452 272
2314 719 826
2297 765 1494
2284 739 2274
2307 766 3147
2318 792 3784
2324 822 3929
2341 867 4069
2333 868 316
2301 910 405
2194 1074 714
2124 1366 1355
2112 1332 2097
2143 1361 2975
2168 1376 3761
2189 1409 3928
2218 1443 4070
2268 1254 0
2258 1294 74
2236 1346 329
2120 1659 1131
1969 1950 1957
1508 1804 3025
933 1607 3819
839 1593 4005
925 1647 4069
2812 1556 0
2797 1548 30
2771 1544 61
2716 1815 757
2365 2155 1439
1817 2470 2589
404 1974 3669
369 1958 4033
375 1986 4068
3169 1990 0
3199 1967 30
3239 1937 61
3198 1931 168
2912 2344 869
2234 3238 2051
1700 3022 3290
1037 2714 3934
561 2593 4070
3227 3255 64
3230 3299 120
3240 3335 169
3230 3316 232
3226 2421 298
2951 3762 1739
2212 3861 2581
1556 3505 3913
1404 3306 4013
3345 3460 113
3345 3480 157
3349 3501 199
3356 3593 331
3299 2550 303
3214 3884 1768
2312 3998 2555
1900 3943 3980
1543 3604 4069
3421 0 188
3414 0 413
3393 0 1011
3377 36 1693
3359 40 2480
3337 42 3339
3324 60 3791
3299 62 3934
3290 64 4069
3351 33 185
3328 59 358
3301 103 956
3282 173 1625
3274 187 2401
3246 187 3251
3251 209 3787
3243 215 3927
3247 295 4069
3213 334 170
3192 393 310
3139 659 849
3122 710 1510
3105 725 2253
3089 716 3080
3110 744 3779
3112 765 3925
3126 807 4074
3067 782 257
3043 829 363
2998 1005 703
2944 1316 1380
2926 1340 2092
2913 1306 2897
2949 1340 3750
2966 1370 3933
2990 1406 4069
3061 1318 476
3044 1336 560
2998 1376 679
2833 1682 1266
2749 1979 1948
2737 1921 2713
2775 1961 3625
2807 1986 3936
2844 2025 4069
2985 1666 0
2962 1702 49
2935 1733 192
2865 1959 881
2749 2277 1716
2585 2562 2571
2168 2430 3671
1998 2386 4022
2020 2425 4068
3537 1948 0
3529 1946 30
3509 1948 61
3457 2102 413
3373 2457 1359
2975 2779 2033
2432 3114 3231
1413 2752 4003
1299 2751 4069
3365 2614 0
3355 2523 30
3380 2469 61
3488 2387 115
3695 2551 676
3483 2957 1524
2801 3838 2685
2312 3636 3899
2233 3507 4029
3481 2900 0
3480 2873 30
3477 2832 61
3452 2683 124
3711 2623 556
3612 3042 1498
2927 3987 2664
2584 4052 3916
2292 3749 4067
3792 0 208
3803 0 420
3779 0 987
3792 12 1660
3779 44 2409
3779 48 3259
3788 40 3772
3797 55 3933
3800 61 4082
3779 30 206
3784 48 374
3777 60 938
3788 136 1608
3785 192 2345
3779 194 3184
3792 189 3770
3804 199 3923
3807 203 4070
3788 278 201
3788 345 338
3791 596 872
3779 659 1513
3779 725 2244
3791 693 3048
3775 657 3757
3794 711 3932
3797 754 4078
3776 688 210
3763 754 351
3760 934 724
3739 1259 1401
3728 1297 2109
3722 1295 2880
3713 1289 3697
3736 1323 3934
3748 1356 4069
3767 1239 471
3752 1267 547
3720 1314 655
3640 1623 1259
3598 1944 1954
3576 1944 2713
3557 1896 3526
3617 1948 3932
3650 1986 4069
3810 1739 570
3791 1764 654
3758 1793 736
3670 1999 1217
3487 2333 1852
3398 2598 2566
3378 2540 3341
3432 2596 3925
3478 2641 4069
3708 2079 0
3689 2120 47
3659 2155 178
3599 2277 573
3525 2586 1455
3397 2912 2323
3217 3191 3209
2893 3106 4017
2893 3147 4069
3818 2396 0
3833 2385 30
3851 2383 61
3870 2415 111
3878 2751 1030
3871 3090 1940
3623 3412 2670
3063 3747 3875
2989 3689 4046
3707 2595 0
3748 2575 30
3797 2550 61
3864 2511 109
3880 2834 949
3879 3170 1882
3753 3511 2646
3236 4049 3799
3052 3845 4056
3935 0 216
3946 0 467
3933 0 1007
3935 5 1649
3933 45 2388
3933 49 3214
3935 46 3784
3935 41 3925
3945 56 4072
3923 42 214
3932 67 428
3923 110 955
3935 161 1605
3934 194 2333
3935 188 3151
3935 186 3782
3935 187 3923
3948 199 4072
3935 279 209
3935 348 351
3935 601 887
3933 661 1516
3933 729 2231
3935 708 3032
3933 670 3750
3933 650 3904
3953 716 4072
3934 677 214
3933 737 349
3933 926 740
3933 1242 1412
3933 1293 2118
3934 1297 2882
3933 1277 3684
3935 1258 3914
3958 1316 4069
3975 1196 428
3969 1232 519
3961 1285 645
3935 1597 1265
3935 1931 1971
3933 1932 2733
3933 1911 3530
3933 1886 3889
3968 1956 4069
4042 1743 674
4043 1766 752
4043 1791 832
4025 1984 1234
3940 2303 1840
3933 2608 2571
3933 2561 3352
3933 2521 3889
3972 2610 4069
4049 2183 401
4049 2203 486
4052 2225 583
4049 2313 874
4044 2648 1693
3982 2992 2457
3935 3226 3207
3933 3176 3874
3972 3280 4070
4050 2514 0
4049 2544 30
4048 2585 75
4045 2624 201
4036 2915 1102
4032 3240 2020
3994 3553 2937
3872 3848 3856
3861 3885 4069
4044 2590 0
4044 2612 30
4044 2650 61
4043 2711 112
4043 3030 1026
4043 3338 1969
4031 3649 2928
4005 3982 3819
3873 4013 4056
4069 0 223
4082 0 540
4069 0 1051
4071 3 1667
4073 47 2387
4083 50 3198
4082 51 3788
4082 47 3929
4082 43 4062
4069 60 221
4069 139 513
4069 197 1016
4069 245 1631
4076 290 2348
4069 259 3145
4082 216 3786
4082 188 3929
4082 189 4062
4069 310 216
4074 390 380
4069 654 942
4079 710 1553
4071 777 2256
4069 764 3030
4078 724 3752
4075 706 3909
4072 700 4051
4072 694 225
4074 760 369
4069 966 802
4070 1277 1455
4078 1328 2153
4071 1338 2902
4079 1320 3695
4070 1299 3913
4069 1292 4045
4083 1192 414
4083 1238 519
4079 1330 708
4069 1633 1314
4069 1969 2016
4080 1970 2772
4070 1953 3562
4069 1929 3892
4070 1922 4036
4082 1754 676
4076 1779 753
4076 1814 832
4082 2027 1278
4069 2335 1876
4069 2660 2625
4076 2611 3401
4069 2574 3889
4069 2565 4027
4082 2211 450
4082 2230 528
4082 2251 614
4082 2356 926
4073 2693 1739
4070 3042 2503
4070 3290 3269
4070 3243 3880
4070 3232 4020
4082 2554 3
4082 2587 54
4082 2625 147
4082 2669 298
4082 2953 1165
4082 3295 2081
4080 3616 3004
4061 3911 3908
4069 3911 4064
4082 2621 0
4082 2661 30
4082 2707 65
4082 2756 172
4082 3038 1050
4082 3360 1983
4081 3676 2909
4069 3987 3856
4069 4056 4067
