assets/luts/LUTs by IWLTBAP (3DL)/02 - Generic LOG/W-8370-LOG.3dl
# Copyright: (C) Copyright 2010-2020 by IWLTBAP SAS
# Cannot be resold, shared or otherwise redistributed
# Website: https://luts.iwltbap.com
0 256 512 768 1023
25 47 54
134 232 631
6 994 2498
825 2009 3441
1259 2335 3629
467 547 182
200 499 522
8 1089 2103
799 1966 3440
1210 2288 3596
1369 1718 803
1291 1713 883
358 1695 1809
1380 2631 3522
1480 2610 3643
2459 3278 2182
2444 3277 2164
1067 3130 2172
15 3125 3358
1407 3264 3701
2813 3645 2647
2829 3662 2662
2476 3643 2706
1 3575 3299
1092 3508 3751
1474 100 71
852 161 593
5 917 2356
814 1987 3438
1242 2315 3608
965 608 148
733 553 545
128 1089 2022
825 1985 3453
1220 2295 3600
1499 1730 761
1416 1724 859
473 1674 1785
1331 2583 3514
1451 2567 3648
2408 3193 2053
2385 3178 2046
1164 3090 2134
6 3101 3328
1450 3243 3694
2893 3653 2690
2881 3663 2686
2611 3655 2732
13 3582 3259
1098 3515 3758
3767 1103 704
3316 795 1050
2463 924 1939
1855 1830 3478
1811 2127 3669
3451 1347 616
3118 1115 855
2119 927 1649
1544 1962 3448
1577 2190 3620
2401 1849 763
2361 1816 774
1826 1784 1736
1603 2677 3482
1568 2704 3653
2840 3126 1896
2834 3123 1937
2376 3048 2196
641 3035 3215
1537 3212 3691
3092 3639 2716
3088 3656 2737
2938 3657 2779
10 3575 3143
1066 3522 3752
4088 1853 1484
4087 1839 1670
3670 2012 2575
3580 1940 3327
3541 2089 3564
4089 1964 1542
4091 1929 1601
3732 2019 2473
3551 1928 3285
3522 2026 3509
4077 2788 2062
4068 2748 2032
3897 2580 2401
3341 2305 3202
3288 2453 3585
3544 3184 2054
3534 3176 2055
3444 3146 2193
2961 3164 3149
3190 3506 3775
3821 3736 2892
3818 3737 2910
3796 3746 2941
3330 3746 3292
2063 3703 3846
4095 2091 1754
4095 2078 1884
3867 2307 2787
3763 2165 3311
3793 2251 3602
4085 2160 1787
4095 2109 1793
3959 2214 2589
3742 2134 3311
3751 2213 3532
4090 2844 2246
4090 2837 2246
4083 2771 2602
3647 2539 3182
3700 2577 3558
3993 3442 2719
3997 3446 2742
3977 3455 2861
3866 3426 3382
3667 3265 3679
4082 3883 3370
4071 3883 3368
4080 3881 3367
4050 3936 3597
4023 4006 4003
