assets/luts/LUTs by IWLTBAP (3DL)/02 - Generic LOG/W-8370-LOG.3dl
# Copyright: (C) Copyright 2010-2020 by IWLTBAP SAS
# Cannot be resold, shared or otherwise redistributed
# Website: https://luts.iwltbap.com
0 64 128 192 256 320 384 448 512 576 640 704 768 832 896 960 1023
25 47 54
31 48 70
69 80 121
130 134 308
134 232 631
23 342 966
9 504 1402
5 728 1924
6 994 2498
45 1407 3017
516 1822 3338
712 1930 3396
825 2009 3441
938 2088 3487
1046 2169 3533
1153 2252 3581
1259 2335 3629
37 47 55
26 47 56
56 70 111
118 129 266
133 214 556
34 324 902
4 477 1329
4 688 1839
8 952 2424
3 1337 2950
484 1794 3328
702 1915 3392
815 1998 3430
927 2076 3475
1033 2151 3521
1137 2229 3568
1244 2312 3616
41 91 56
43 84 58
49 77 105
116 140 242
131 218 502
57 303 832
1 436 1219
2 631 1703
2 889 2291
7 1255 2856
373 1730 3284
677 1878 3379
791 1959 3434
903 2040 3485
1005 2122 3516
1099 2203 3545
1200 2277 3589
214 296 82
198 291 90
112 276 129
94 257 277
145 356 479
145 477 807
67 591 1179
8 723 1654
8 887 2215
4 1191 2781
296 1676 3251
715 1899 3410
828 1982 3451
947 2068 3493
1055 2150 3532
1148 2222 3567
1240 2295 3602
467 547 182
454 540 198
423 526 219
228 515 330
200 499 522
213 599 769
177 755 1130
78 934 1579
8 1089 2103
5 1249 2660
149 1579 3170
693 1895 3399
799 1966 3440
904 2038 3479
1011 2118 3518
1114 2204 3558
1210 2288 3596
726 828 336
711 828 349
695 825 360
542 818 423
299 783 591
294 780 824
326 906 1138
241 1096 1547
13 1320 2065
2 1514 2599
123 1683 3086
740 1941 3409
854 2014 3453
971 2090 3495
1069 2163 3534
1158 2238 3572
1254 2316 3611
987 1136 498
989 1138 510
982 1136 523
919 1129 571
597 1109 614
365 1046 860
390 1069 1127
395 1229 1503
149 1448 1983
4 1695 2528
316 1925 3018
839 2094 3400
945 2127 3461
1013 2156 3497
1084 2195 3533
1165 2252 3571
1263 2326 3612
1184 1416 638
1185 1414 654
1176 1409 667
1160 1402 679
982 1389 729
582 1351 847
397 1299 1127
424 1345 1433
318 1530 1857
9 1778 2375
185 2051 2922
992 2324 3373
1120 2350 3486
1163 2357 3522
1210 2366 3556
1258 2376 3589
1313 2395 3622
1369 1718 803
1368 1718 816
1369 1716 829
1361 1713 839
1291 1713 883
938 1697 918
542 1648 1151
379 1604 1449
358 1695 1809
40 1927 2299
5 2156 2812
821 2487 3308
1380 2631 3522
1402 2625 3557
1423 2617 3586
1445 2610 3613
1480 2610 3643
1576 2063 1004
1571 2067 1012
1558 2067 1014
1551 2064 1015
1538 2061 1029
1353 2053 1097
775 2004 1152
371 1978 1497
134 1915 1790
30 2036 2190
6 2287 2711
232 2526 3198
1345 2795 3514
1528 2846 3572
1615 2872 3610
1672 2885 3648
1716 2891 3686
1797 2457 1264
1791 2466 1275
1782 2472 1279
1770 2469 1276
1756 2456 1267
1677 2436 1301
1272 2408 1361
511 2369 1525
22 2336 1867
7 2272 2169
8 2410 2590
4 2639 3093
801 2867 3480
1358 2961 3579
1509 2997 3616
1646 3036 3660
1775 3077 3706
2080 2830 1616
2081 2846 1633
2075 2860 1644
2067 2862 1652
2056 2850 1650
2019 2834 1643
1811 2820 1725
1142 2766 1766
248 2788 1951
2 2751 2307
10 2714 2635
5 2808 3014
209 2978 3433
1124 3096 3600
1328 3120 3635
1488 3141 3668
1645 3167 3701
2459 3278 2182
2462 3275 2181
2468 3274 2180
2464 3279 2180
2444 3277 2164
2417 3260 2145
2307 3227 2173
1945 3181 2199
1067 3130 2172
121 3128 2352
11 3062 2658
5 3062 3001
15 3125 3358
542 3202 3596
911 3230 3639
1186 3247 3672
1407 3264 3701
2669 3482 2450
2667 3483 2461
2665 3484 2473
2671 3494 2477
2671 3505 2467
2669 3516 2461
2640 3508 2488
2447 3496 2495
1889 3479 2510
868 3435 2481
8 3411 2708
10 3373 3021
7 3371 3350
35 3349 3597
413 3368 3655
839 3393 3694
1239 3417 3729
2720 3535 2515
2722 3539 2523
2720 3540 2535
2719 3540 2542
2721 3550 2535
2722 3562 2527
2711 3560 2545
2583 3550 2562
2201 3552 2586
1285 3509 2537
47 3499 2679
14 3462 2966
5 3454 3317
2 3402 3562
257 3406 3654
709 3433 3700
1163 3461 3746
2766 3590 2581
2772 3596 2586
2775 3600 2595
2774 3601 2602
2774 3601 2602
2775 3611 2595
2773 3612 2603
2682 3602 2623
2383 3595 2641
1565 3572 2569
345 3543 2657
7 3513 2918
6 3515 3283
0 3450 3542
250 3430 3657
674 3457 3703
1127 3484 3748
2813 3645 2647
2819 3651 2653
2825 3658 2658
2829 3662 2661
2829 3662 2662
2829 3662 2662
2828 3660 2663
2748 3647 2688
2476 3643 2706
1691 3628 2619
443 3588 2688
4 3569 2929
1 3575 3299
0 3493 3553
245 3454 3660
669 3481 3706
1092 3508 3751
26 48 54
26 48 55
53 77 110
131 137 301
133 226 608
36 337 956
1 501 1378
1 713 1897
3 983 2477
32 1388 2999
505 1809 3340
709 1922 3399
825 2010 3442
938 2089 3487
1044 2166 3530
1148 2246 3575
1254 2329 3623
26 48 54
34 48 55
53 66 105
125 135 263
142 216 556
42 318 904
5 474 1325
7 689 1833
4 945 2410
3 1329 2940
485 1797 3334
710 1920 3399
829 1999 3435
942 2077 3480
1042 2155 3526
1142 2235 3573
1249 2318 3621
47 88 56
46 82 60
51 78 94
121 137 234
141 220 494
65 303 823
1 437 1216
3 632 1702
3 884 2283
7 1245 2848
383 1736 3289
688 1890 3390
799 1966 3432
912 2047 3478
1017 2130 3512
1116 2210 3545
1217 2283 3592
242 292 85
215 289 91
140 275 128
110 258 272
161 353 475
160 469 798
68 588 1179
5 719 1647
7 888 2210
6 1188 2774
285 1670 3250
723 1904 3415
838 1988 3456
955 2073 3496
1056 2151 3535
1146 2223 3571
1240 2298 3605
493 541 190
469 536 196
443 521 214
249 511 323
215 497 519
234 597 768
202 755 1129
87 933 1576
7 1085 2100
4 1247 2657
147 1576 3165
709 1904 3409
811 1979 3447
917 2052 3486
1023 2131 3524
1122 2215 3561
1217 2299 3599
759 840 346
744 844 362
728 842 373
583 834 437
325 799 603
315 790 837
347 916 1147
269 1109 1561
16 1328 2067
2 1512 2596
123 1681 3084
743 1942 3415
865 2023 3462
981 2098 3504
1077 2172 3540
1165 2246 3576
1262 2324 3614
1021 1154 505
1007 1156 519
997 1155 536
952 1146 579
628 1129 629
385 1059 868
407 1076 1135
416 1239 1512
169 1456 1988
7 1689 2520
304 1921 3014
832 2094 3401
945 2124 3465
1014 2154 3501
1083 2193 3535
1166 2254 3571
1265 2327 3613
1215 1429 646
1213 1429 658
1205 1425 672
1191 1417 686
1016 1407 743
608 1370 856
417 1314 1138
439 1361 1446
349 1542 1873
12 1782 2379
187 2052 2923
996 2326 3374
1129 2353 3489
1173 2359 3526
1220 2371 3562
1266 2380 3595
1322 2402 3629
1402 1734 808
1397 1738 824
1398 1736 837
1390 1733 850
1319 1730 894
969 1711 932
559 1660 1159
396 1613 1455
373 1704 1817
54 1929 2298
5 2157 2809
820 2486 3311
1375 2628 3523
1397 2620 3559
1417 2610 3588
1440 2603 3615
1476 2604 3645
1592 2067 1006
1588 2074 1019
1578 2076 1021
1571 2075 1023
1554 2069 1033
1380 2062 1107
805 2016 1165
398 1988 1503
146 1924 1796
38 2045 2197
6 2283 2702
229 2525 3194
1351 2793 3514
1536 2846 3575
1616 2869 3611
1666 2878 3647
1710 2884 3685
1812 2455 1262
1805 2462 1278
1795 2467 1280
1784 2465 1279
1772 2453 1271
1693 2437 1303
1309 2413 1368
544 2376 1530
28 2344 1872
11 2284 2178
7 2413 2595
6 2637 3092
789 2864 3477
1374 2958 3578
1521 2996 3618
1655 3036 3664
1780 3077 3709
2082 2832 1615
2085 2848 1630
2080 2862 1641
2071 2864 1648
2057 2851 1641
2027 2836 1641
1833 2823 1727
1172 2773 1776
286 2790 1960
4 2754 2308
9 2717 2638
4 2810 3015
202 2972 3428
1142 3088 3601
1338 3113 3635
1491 3135 3668
1647 3161 3700
2460 3267 2159
2456 3272 2166
2461 3274 2167
2456 3272 2163
2435 3258 2141
2409 3240 2124
2305 3215 2154
1956 3173 2196
1089 3123 2170
136 3127 2347
9 3054 2652
6 3060 2997
11 3122 3351
573 3202 3592
935 3229 3638
1204 3246 3674
1416 3263 3701
2675 3489 2456
2698 3496 2482
2697 3497 2494
2695 3503 2492
2684 3506 2476
2682 3517 2470
2656 3509 2491
2471 3497 2506
1938 3486 2513
931 3445 2499
9 3420 2709
8 3379 3020
14 3374 3351
37 3349 3598
420 3367 3655
842 3391 3693
1241 3416 3728
2734 3538 2523
2747 3545 2537
2746 3546 2549
2737 3546 2553
2727 3551 2540
2728 3563 2532
2730 3564 2551
2615 3561 2573
2240 3557 2596
1333 3521 2550
114 3504 2688
14 3463 2958
4 3462 3312
4 3408 3557
260 3409 3657
712 3436 3703
1166 3464 3749
2787 3590 2590
2793 3596 2596
2796 3601 2604
2787 3601 2608
2776 3601 2603
2777 3611 2596
2791 3612 2609
2703 3604 2633
2421 3604 2642
1617 3581 2590
435 3549 2669
7 3515 2913
7 3517 3277
7 3462 3541
255 3436 3659
679 3463 3708
1132 3490 3754
2834 3645 2656
2840 3651 2662
2846 3658 2668
2841 3662 2667
2830 3662 2663
2830 3662 2663
2845 3661 2671
2771 3650 2700
2514 3653 2710
1742 3636 2641
531 3595 2699
4 3573 2926
4 3575 3293
8 3506 3553
250 3460 3662
673 3487 3711
1097 3514 3756
285 54 115
251 61 106
150 56 104
128 138 291
115 222 577
35 331 933
3 493 1356
4 693 1866
4 969 2444
12 1360 2963
487 1795 3337
703 1906 3406
833 1995 3452
955 2084 3495
1056 2168 3536
1150 2248 3577
1251 2325 3619
246 57 87
204 63 84
119 58 88
131 136 267
125 211 536
51 314 886
6 473 1306
4 673 1807
6 934 2379
9 1308 2916
467 1789 3326
706 1912 3403
828 1990 3446
945 2078 3487
1047 2159 3531
1144 2236 3575
1246 2314 3617
182 111 70
166 103 72
111 85 90
158 148 231
160 227 482
76 312 815
8 436 1220
3 630 1698
1 880 2277
5 1240 2834
390 1737 3293
701 1904 3403
811 1977 3443
931 2056 3479
1041 2137 3514
1137 2216 3557
1231 2292 3603
357 278 88
326 273 101
255 265 144
166 261 262
217 346 477
197 460 778
72 577 1168
5 704 1628
8 872 2190
7 1171 2750
246 1646 3231
727 1904 3414
835 1986 3453
946 2069 3493
1043 2142 3532
1136 2217 3571
1234 2298 3605
507 521 186
481 516 191
447 509 203
268 495 309
230 485 503
253 584 756
230 743 1118
91 917 1556
7 1071 2086
3 1232 2642
145 1565 3153
722 1913 3418
824 1990 3458
936 2068 3503
1040 2147 3540
1135 2225 3568
1230 2305 3602
784 845 350
769 849 366
752 849 379
620 840 440
347 798 599
333 790 837
370 914 1145
303 1109 1560
33 1326 2063
3 1499 2582
111 1668 3072
743 1939 3419
880 2029 3472
990 2107 3514
1086 2181 3550
1173 2256 3582
1269 2333 3616
1044 1158 507
1027 1160 522
1012 1156 537
970 1146 578
658 1132 634
407 1066 870
418 1071 1129
435 1237 1509
203 1448 1978
8 1674 2500
273 1909 3003
822 2087 3401
949 2126 3472
1012 2153 3506
1082 2195 3540
1173 2261 3577
1272 2334 3616
1244 1447 658
1241 1446 671
1234 1442 685
1223 1435 694
1054 1423 756
635 1385 862
435 1324 1146
454 1369 1452
376 1552 1883
18 1783 2380
178 2048 2912
997 2322 3376
1139 2356 3496
1183 2359 3529
1230 2371 3565
1275 2381 3600
1330 2404 3634
1430 1738 804
1424 1741 820
1424 1743 832
1416 1739 844
1342 1736 896
1004 1721 940
579 1667 1161
413 1614 1460
395 1707 1820
81 1928 2296
6 2155 2807
802 2481 3310
1374 2625 3523
1395 2616 3561
1416 2606 3591
1440 2601 3622
1475 2601 3654
1618 2078 1007
1611 2083 1020
1602 2083 1029
1593 2081 1030
1572 2076 1035
1408 2068 1115
833 2022 1174
426 1990 1502
164 1930 1799
52 2046 2196
5 2278 2695
220 2520 3189
1357 2788 3514
1545 2845 3576
1620 2866 3611
1661 2869 3645
1702 2874 3683
1825 2452 1252
1818 2458 1268
1809 2464 1283
1798 2460 1282
1790 2449 1274
1711 2438 1305
1346 2418 1376
581 2379 1533
42 2346 1876
13 2290 2183
6 2416 2596
5 2633 3085
783 2864 3480
1395 2957 3583
1540 2995 3624
1668 3035 3668
1786 3075 3711
2080 2831 1612
2083 2847 1625
2085 2860 1637
2078 2862 1644
2061 2848 1634
2034 2837 1636
1851 2820 1722
1207 2773 1775
321 2789 1960
9 2750 2307
6 2718 2637
2 2807 3013
194 2965 3422
1159 3080 3602
1351 3104 3636
1496 3127 3666
1650 3155 3700
2461 3254 2134
2454 3259 2139
2447 3265 2144
2443 3262 2143
2426 3242 2121
2405 3224 2105
2307 3201 2135
1978 3165 2186
1107 3115 2162
145 3121 2333
6 3052 2648
7 3054 2990
9 3119 3345
611 3200 3591
969 3226 3638
1218 3242 3674
1428 3259 3701
2682 3496 2462
2706 3503 2489
2727 3510 2514
2726 3516 2513
2707 3515 2491
2695 3517 2478
2672 3515 2493
2504 3507 2518
1993 3493 2525
1002 3454 2510
18 3426 2714
7 3385 3017
14 3379 3350
42 3350 3593
447 3372 3661
854 3392 3695
1244 3414 3727
2741 3545 2529
2755 3552 2544
2776 3559 2569
2769 3560 2573
2751 3559 2556
2741 3564 2541
2745 3565 2552
2638 3560 2578
2288 3562 2601
1393 3534 2559
197 3505 2691
12 3469 2949
5 3470 3307
8 3415 3558
260 3410 3657
712 3436 3703
1166 3463 3748
2802 3593 2598
2808 3599 2604
2820 3606 2618
2812 3607 2622
2793 3607 2614
2783 3612 2601
2805 3613 2611
2726 3608 2643
2463 3610 2649
1670 3589 2609
501 3562 2676
6 3528 2915
11 3518 3271
15 3475 3544
258 3439 3657
682 3466 3711
1135 3493 3757
2854 3644 2665
2861 3651 2671
2867 3658 2677
2862 3662 2677
2843 3662 2669
2832 3662 2664
2858 3661 2677
2791 3653 2709
2551 3656 2716
1787 3642 2661
588 3606 2701
3 3583 2930
10 3573 3283
16 3521 3557
255 3466 3658
678 3492 3713
1102 3520 3762
841 75 132
785 70 141
646 75 241
482 82 330
380 143 585
186 285 910
18 467 1311
5 674 1824
2 943 2404
2 1333 2938
467 1780 3329
703 1906 3405
824 1989 3444
948 2074 3485
1057 2159 3529
1153 2240 3572
1246 2320 3614
749 72 133
716 71 139
582 79 201
431 86 296
341 153 536
165 288 859
12 449 1259
5 653 1759
2 910 2338
4 1282 2881
430 1767 3315
701 1907 3401
815 1984 3451
941 2071 3494
1050 2147 3530
1144 2223 3566
