assets/luts/LUTs by IWLTBAP (3DL)/02 - Generic LOG/W-8370-LOG.3dl
# Copyright: (C) Copyright 2010-2020 by IWLTBAP SAS
# Cannot be resold, shared or otherwise redistributed
# Website: https://luts.iwltbap.com
0 128 256 384 512 640 768 896 1023
25 47 54
69 80 121
134 232 631
9 504 1402
6 994 2498
516 1822 3338
825 2009 3441
1046 2169 3533
1259 2335 3629
41 91 56
49 77 105
131 218 502
1 436 1219
2 889 2291
373 1730 3284
791 1959 3434
1005 2122 3516
1200 2277 3589
467 547 182
423 526 219
200 499 522
177 755 1130
8 1089 2103
149 1579 3170
799 1966 3440
1011 2118 3518
1210 2288 3596
987 1136 498
982 1136 523
597 1109 614
390 1069 1127
149 1448 1983
316 1925 3018
945 2127 3461
1084 2195 3533
1263 2326 3612
1369 1718 803
1369 1716 829
1291 1713 883
542 1648 1151
358 1695 1809
5 2156 2812
1380 2631 3522
1423 2617 3586
1480 2610 3643
1797 2457 1264
1782 2472 1279
1756 2456 1267
1272 2408 1361
22 2336 1867
8 2410 2590
801 2867 3480
1509 2997 3616
1775 3077 3706
2459 3278 2182
2468 3274 2180
2444 3277 2164
2307 3227 2173
1067 3130 2172
11 3062 2658
15 3125 3358
911 3230 3639
1407 3264 3701
2720 3535 2515
2720 3540 2535
2721 3550 2535
2711 3560 2545
2201 3552 2586
47 3499 2679
5 3454 3317
257 3406 3654
1163 3461 3746
2813 3645 2647
2825 3658 2658
2829 3662 2662
2828 3660 2663
2476 3643 2706
443 3588 2688
1 3575 3299
245 3454 3660
1092 3508 3751
285 54 115
150 56 104
115 222 577
3 493 1356
4 969 2444
487 1795 3337
833 1995 3452
1056 2168 3536
1251 2325 3619
182 111 70
111 85 90
160 227 482
8 436 1220
1 880 2277
390 1737 3293
811 1977 3443
1041 2137 3514
1231 2292 3603
507 521 186
447 509 203
230 485 503
230 743 1118
7 1071 2086
145 1565 3153
824 1990 3458
1040 2147 3540
1230 2305 3602
1044 1158 507
1012 1156 537
658 1132 634
418 1071 1129
203 1448 1978
273 1909 3003
949 2126 3472
1082 2195 3540
1272 2334 3616
1430 1738 804
1424 1743 832
1342 1736 896
579 1667 1161
395 1707 1820
6 2155 2807
1374 2625 3523
1416 2606 3591
1475 2601 3654
1825 2452 1252
1809 2464 1283
1790 2449 1274
1346 2418 1376
42 2346 1876
6 2416 2596
783 2864 3480
1540 2995 3624
1786 3075 3711
2461 3254 2134
2447 3265 2144
2426 3242 2121
2307 3201 2135
1107 3115 2162
6 3052 2648
9 3119 3345
969 3226 3638
1428 3259 3701
2741 3545 2529
2776 3559 2569
2751 3559 2556
2745 3565 2552
2288 3562 2601
197 3505 2691
5 3470 3307
260 3410 3657
1166 3463 3748
2854 3644 2665
2867 3658 2677
2843 3662 2669
2858 3661 2677
2551 3656 2716
588 3606 2701
10 3573 3283
255 3466 3658
1102 3520 3762
1474 100 71
1235 80 233
852 161 593
522 430 1300
5 917 2356
444 1762 3307
814 1987 3438
1038 2145 3532
1242 2315 3608
1226 198 71
1064 182 150
717 207 496
452 442 1157
4 849 2182
277 1671 3244
807 1980 3436
1025 2137 3527
1208 2291 3603
965 608 148
931 589 187
733 553 545
661 763 1089
128 1089 2022
112 1524 3110
825 1985 3453
1035 2138 3529
1220 2295 3600
1300 1125 442
1272 1113 468
1057 1095 641
602 1053 1099
567 1423 1911
180 1872 2959
927 2101 3469
1081 2189 3548
1264 2331 3622
1499 1730 761
1488 1746 797
1416 1724 859
654 1655 1119
473 1674 1785
6 2116 2760
1331 2583 3514
1388 2570 3589
1451 2567 3648
1819 2416 1222
1818 2436 1263
1795 2425 1257
1420 2397 1361
111 2327 1849
8 2391 2567
738 2846 3472
1583 2998 3637
1807 3073 3717
2408 3193 2053
2411 3202 2072
2385 3178 2046
2277 3151 2063
1164 3090 2134
4 3038 2625
6 3101 3328
1029 3212 3642
1450 3243 3694
2773 3558 2547
2786 3567 2577
2784 3572 2585
2764 3575 2573
2376 3572 2616
377 3523 2687
8 3473 3287
257 3407 3655
1167 3461 3746
2893 3653 2690
2888 3666 2691
2881 3663 2686
2864 3667 2693
2611 3655 2732
729 3614 2698
13 3582 3259
255 3466 3661
1098 3515 3758
2843 573 264
2577 490 448
2036 531 899
1631 503 1191
1233 893 2244
836 1617 3266
898 1884 3424
1046 2078 3513
1240 2275 3600
2597 585 196
2433 522 299
1921 461 762
1504 474 1093
1105 842 2091
616 1538 3178
819 1913 3435
997 2096 3517
1194 2280 3585
2303 1044 268
2220 1006 307
1835 761 619
1364 687 1029
1005 1019 1898
553 1610 3036
797 1973 3433
1016 2132 3517
1226 2291 3597
1722 1211 438
1690 1189 443
1603 1135 557
1335 1131 1106
1122 1402 1790
834 1912 2889
963 2175 3460
1084 2217 3532
1253 2327 3610
1945 1695 719
1937 1701 738
1902 1688 747
1500 1665 1113
923 1638 1712
853 2145 2706
1293 2555 3490
1368 2549 3574
1440 2563 3635
2107 2393 1129
2111 2418 1173
2084 2412 1188
1827 2370 1367
623 2303 1766
277 2344 2502
654 2798 3432
1611 2985 3636
1826 3057 3722
2381 3091 1910
2400 3118 1961
2393 3121 1975
2323 3103 1994
1386 3039 2110
8 2987 2558
7 3050 3280
1075 3195 3633
1484 3222 3695
2794 3561 2551
2802 3568 2582
2802 3573 2596
2785 3580 2590
2477 3571 2638
588 3521 2645
5 3472 3240
254 3412 3657
1169 3466 3748
2910 3655 2702
2909 3668 2704
2901 3669 2700
2894 3663 2697
2669 3657 2742
967 3610 2681
7 3585 3211
167 3465 3666
1088 3518 3757
3767 1103 704
3645 1040 738
3316 795 1050
2770 1013 1575
2463 924 1939
2085 1540 3202
1855 1830 3478
1799 1980 3581
1811 2127 3669
3654 1057 641
3562 1008 637
3212 793 955
2652 952 1467
2323 862 1798
1951 1466 3096
1687 1836 3462
1685 1973 3554
1701 2112 3635
3451 1347 616
3381 1304 629
3118 1115 855
2504 982 1325
2119 927 1649
1737 1487 2939
1544 1962 3448
1547 2073 3534
1577 2190 3620
3129 1823 724
3080 1782 729
2967 1714 800
2454 1374 1197
1914 1235 1601
1552 1784 2785
1585 2357 3476
1596 2430 3555
1614 2512 3637
2401 1849 763
2382 1832 772
2361 1816 774
2174 1736 1053
1826 1784 1736
1625 2230 2693
1603 2677 3482
1546 2683 3577
1568 2704 3653
2609 2447 1158
2602 2460 1175
2595 2451 1190
2518 2425 1312
1943 2374 1772
1195 2352 2466
1335 2837 3395
1611 2936 3620
1794 2998 3718
2840 3126 1896
2846 3128 1934
2834 3123 1937
2778 3102 1945
2376 3048 2196
669 2956 2472
641 3035 3215
1124 3172 3637
1537 3212 3691
3021 3551 2573
3029 3572 2598
3020 3577 2611
3005 3575 2621
2823 3570 2669
1402 3536 2656
10 3460 3169
237 3428 3653
1136 3475 3747
3092 3639 2716
3100 3656 2739
3088 3656 2737
3074 3652 2746
2938 3657 2779
1690 3636 2732
10 3575 3143
62 3464 3638
1066 3522 3752
4091 1681 1287
4087 1634 1254
4073 1605 1543
3834 1595 1992
3458 1674 2348
3287 1573 2952
3219 1689 3307
3187 1818 3463
3144 1970 3577
4091 1634 1206
4091 1578 1179
4047 1552 1416
3806 1460 1826
3378 1581 2232
3178 1467 2812
3102 1683 3315
3051 1815 3455
3013 1991 3600
4063 1717 1147
4040 1679 1118
3990 1629 1263
3743 1386 1619
3244 1519 2095
3005 1386 2593
2863 1773 3382
2804 1932 3520
2725 2095 3644
3905 2093 1217
3883 2059 1208
3843 2019 1243
3612 1846 1592
3074 1667 2011
2777 1540 2431
2502 2149 3462
2439 2300 3594
2445 2433 3702
3577 2449 1345
3564 2430 1336
3544 2410 1325
3417 2384 1597
3028 2149 1998
2518 1910 2373
2302 2572 3466
2316 2749 3657
2355 2833 3742
3036 2564 1265
3030 2554 1267
3004 2533 1257
2941 2493 1352
2737 2450 1726
2374 2520 2499
2425 2971 3387
2369 3143 3709
2296 3158 3784
3222 3154 1930
3221 3150 1933
3211 3142 1926
3185 3125 1916
3077 3091 2107
2484 3022 2528
1714 3069 3214
1679 3238 3669
1643 3213 3717
3507 3597 2611
3507 3605 2626
3497 3605 2635
3482 3597 2634
3385 3584 2715
2937 3583 2881
998 3523 3140
596 3471 3654
1138 3490 3750
3548 3670 2776
3551 3671 2781
3533 3674 2783
3518 3677 2782
3430 3673 2849
3040 3673 2970
983 3642 3139
248 3518 3637
1052 3552 3753
4088 1853 1484
4092 1822 1466
4087 1839 1670
4061 1799 2076
3670 2012 2575
3530 1834 2884
3580 1940 3327
3569 2002 3427
3541 2089 3564
4086 1866 1496
4085 1828 1457
4089 1835 1626
4072 1775 1994
3675 1999 2534
3532 1828 2792
3560 1928 3314
3553 1996 3424
3533 2066 3542
4089 1964 1542
4090 1930 1520
4091 1929 1601
4086 1884 1952
3732 2019 2473
3529 1880 2665
3551 1928 3285
3536 1969 3386
3522 2026 3509
4094 2313 1747
4092 2301 1741
4093 2292 1749
4088 2273 2014
3892 2136 2367
3528 2119 2683
3509 2102 3293
3487 2148 3437
3479 2198 3556
4077 2788 2062
4070 2765 2043
4068 2748 2032
4027 2733 2158
3897 2580 2401
3442 2381 2721
3341 2305 3202
3313 2384 3478
3288 2453 3585
3852 3028 2135
3851 3018 2129
3837 3003 2113
3821 2994 2154
3733 3034 2476
3505 2852 2773
3059 2605 3085
3035 2890 3566
3055 2981 3663
3544 3184 2054
3546 3183 2064
3534 3176 2055
3514 3161 2046
3444 3146 2193
3290 3138 2516
2961 3164 3149
3175 3481 3710
3190 3506 3775
3775 3676 2752
3779 3665 2757
3776 3655 2754
3766 3656 2753
3739 3660 2781
3665 3658 2959
3184 3636 3222
2506 3633 3773
2296 3647 3863
3821 3736 2892
3821 3736 2900
3818 3737 2910
3810 3741 2914
3796 3746 2941
3748 3745 3066
3330 3746 3292
2053 3679 3722
2063 3703 3846
4095 1953 1604
4092 1921 1580
4092 1956 1761
4095 1921 2145
3760 2160 2678
3618 1975 2886
3664 2038 3328
3666 2094 3461
3669 2173 3579
4088 1966 1620
4095 1925 1583
4092 1947 1712
4094 1918 2082
3779 2141 2625
3623 1979 2811
3661 2026 3318
3651 2079 3444
3647 2149 3552
4084 2045 1659
4091 2009 1639
4091 2000 1674
4091 1972 2002
3844 2089 2512
3615 2006 2718
3646 1987 3291
3649 2048 3417
3645 2115 3520
4094 2355 1838
4088 2345 1835
4089 2327 1830
4091 2326 2067
4002 2208 2407
3645 2247 2777
3624 2175 3277
3641 2237 3458
3630 2279 3542
4094 2806 2153
4089 2790 2148
4090 2783 2151
4086 2779 2257
4044 2686 2517
3690 2541 2850
3563 2445 3171
3608 2488 3474
3597 2521 3577
4037 3161 2441
4041 3161 2450
4048 3168 2469
4043 3173 2502
3991 3198 2739
3899 3001 2891
3548 2807 3136
3563 2774 3494
3559 2806 3604
3930 3383 2571
3930 3391 2599
3929 3391 2608
3942 3389 2618
3913 3411 2761
3896 3458 3049
3776 3389 3349
3546 3222 3568
3550 3257 3664
3983 3752 3081
3977 3747 3068
3982 3732 3055
3979 3722 3039
3956 3724 3032
3921 3718 3132
3860 3716 3313
3689 3768 3758
3773 3857 3876
4047 3838 3279
4054 3847 3287
4051 3842 3282
4049 3839 3276
4034 3852 3282
4022 3856 3349
3990 3884 3509
3858 3920 3823
3847 3958 3933
4095 2091 1754
4085 2042 1703
4095 2078 1884
4095 2070 2243
3867 2307 2787
3731 2146 2952
3763 2165 3311
3767 2195 3441
3793 2251 3602
4095 2103 1779
4095 2054 1715
4095 2072 1854
4091 2077 2201
3887 2290 2740
3723 2145 2892
3749 2164 3315
3760 2189 3434
3770 2227 3575
4085 2160 1787
4093 2120 1776
4095 2109 1793
4089 2118 2122
3959 2214 2589
3728 2169 2825
3742 2134 3311
3746 2153 3421
3751 2213 3532
4095 2447 1968
4088 2429 1961
4092 2412 1953
4090 2425 2174
4073 2323 2495
3739 2384 2884
3713 2285 3281
3743 2303 3451
3740 2342 3559
4090 2844 2246
4090 2837 2239
4090 2837 2246
4091 2837 2350
4083 2771 2602
3798 2639 2937
3647 2539 3182
3696 2535 3462
3700 2577 3558
4086 3224 2564
4085 3214 2563
4083 3219 2573
4080 3220 2606
4035 3238 2802
3978 3046 2949
3642 2873 3186
3654 2815 3499
3663 2849 3588
3993 3442 2719
3994 3445 2737
3997 3446 2742
4006 3445 2749
3977 3455 2861
3957 3499 3113
3866 3426 3382
3643 3253 3591
3667 3265 3679
4032 3755 3149
4029 3752 3153
4027 3748 3147
4023 3741 3134
4018 3737 3127
3993 3749 3229
3956 3777 3429
3888 3870 3820
3850 3844 3879
4082 3883 3370
4063 3882 3366
4071 3883 3368
4083 3883 3371
4080 3881 3367
4062 3891 3431
4050 3936 3597
4028 4004 3916
4023 4006 4003
