assets/luts/LUTs by IWLTBAP (3DL)/02 - Generic LOG/X-6500-LOG.3dl
# Copyright: (C) Copyright 2010-2020 by IWLTBAP SAS
# Cannot be resold, shared or otherwise redistributed
# Website: https://luts.iwltbap.com
0 256 512 768 1023
198 260 267
308 369 584
809 911 1468
1026 1155 1831
1048 1180 1868
342 566 451
374 628 680
823 985 1493
1111 1287 1977
1131 1309 2009
861 1431 1012
876 1461 1064
1071 1741 1910
1428 1920 2529
1434 1910 2539
1495 2456 1751
1491 2453 1761
1563 2645 2224
1739 2840 3055
1785 2836 3142
1598 2624 1883
1603 2636 1905
1660 2777 2212
1785 3058 3080
1878 3099 3289
766 522 538
740 490 615
825 882 1436
1034 1157 1830
1054 1184 1869
542 508 423
529 611 626
809 946 1438
1116 1288 1979
1135 1309 2011
828 1373 973
832 1385 999
1027 1674 1833
1408 1873 2494
1414 1863 2505
1470 2415 1719
1467 2413 1729
1537 2597 2164
1717 2802 3017
1774 2800 3122
1600 2627 1886
1606 2639 1908
1658 2769 2186
1779 3057 3059
1881 3104 3293
1910 1290 1317
1886 1285 1326
2011 1333 1780
1903 1386 2233
1865 1390 2257
1773 1206 1214
1768 1218 1232
1853 1264 1655
1694 1394 2251
1658 1400 2272
1557 1333 1108
1538 1322 1098
1654 1811 1842
1595 1889 2547
1577 1870 2554
1451 2334 1648
1448 2333 1657
1527 2510 2018
1707 2772 2961
1781 2771 3113
1620 2648 1896
1624 2660 1918
1666 2764 2130
1783 3074 3021
1897 3136 3315
2215 1506 1533
2220 1518 1551
2330 1591 1825
2485 1639 2349
2495 1641 2393
2244 1531 1548
2250 1541 1560
2334 1620 1786
2511 1667 2388
2517 1666 2427
2416 1767 1677
2415 1767 1678
2546 1965 1951
2668 1970 2641
2641 1926 2704
2467 2276 1777
2458 2274 1776
2499 2424 1929
2744 3046 3151
2559 2958 3367
2103 2624 1807
2088 2636 1819
2080 2713 1926
2188 3167 2945
2138 3277 3416
2231 1517 1544
2236 1528 1560
2340 1601 1808
2507 1656 2349
2519 1659 2393
2254 1537 1556
2258 1544 1565
2336 1619 1762
2524 1674 2374
2532 1672 2413
2430 1761 1684
2431 1762 1687
2551 1927 1909
2711 1960 2574
2714 1911 2674
2745 2296 1941
2746 2296 1943
2807 2399 2036
3179 3054 3104
3187 2989 3408
2882 2643 2066
2885 2651 2072
2902 2686 2096
3176 3213 2875
3273 3631 3787
