assets/luts/LUTs by IWLTBAP (3DL)/02 - Generic LOG/X-6500-LOG.3dl
# Copyright: (C) Copyright 2010-2020 by IWLTBAP SAS
# Cannot be resold, shared or otherwise redistributed
# Website: https://luts.iwltbap.com
0 128 256 384 512 640 768 896 1023
198 260 267
221 275 347
308 369 584
531 607 994
809 911 1468
1011 1138 1806
1026 1155 1831
1037 1168 1849
1048 1180 1868
220 342 304
222 355 367
304 406 576
517 606 968
788 895 1431
1025 1160 1829
1043 1181 1861
1053 1191 1876
1063 1203 1893
342 566 451
342 568 459
374 628 680
561 745 1046
823 985 1493
1061 1230 1891
1111 1287 1977
1121 1297 1992
1131 1309 2009
560 931 683
558 930 687
588 1008 821
677 1122 1234
925 1262 1672
1163 1461 2075
1232 1502 2187
1235 1501 2191
1241 1505 2202
861 1431 1012
861 1432 1017
876 1461 1064
952 1641 1420
1071 1741 1910
1301 1848 2309
1428 1920 2529
1429 1911 2531
1434 1910 2539
1193 1967 1386
1193 1968 1392
1189 1961 1392
1243 2087 1621
1303 2251 2085
1437 2331 2537
1604 2380 2828
1617 2372 2848
1622 2370 2857
1495 2456 1751
1495 2456 1758
1491 2453 1761
1509 2499 1862
1563 2645 2224
1611 2781 2693
1739 2840 3055
1780 2839 3133
1785 2836 3142
1580 2595 1860
1583 2601 1871
1585 2607 1882
1593 2624 1915
1650 2765 2228
1702 2925 2678
1785 3037 3095
1862 3069 3263
1868 3071 3273
1598 2624 1883
1600 2630 1894
1603 2636 1905
1606 2642 1917
1660 2777 2212
1714 2937 2652
1785 3058 3080
1873 3097 3278
1878 3099 3289
352 291 290
351 291 353
343 358 587
524 590 967
794 893 1438
1013 1140 1808
1030 1159 1836
1041 1173 1855
1052 1186 1874
303 332 290
288 350 360
327 405 571
508 590 946
778 882 1412
1020 1154 1821
1041 1177 1856
1050 1187 1872
1061 1199 1889
335 550 439
333 550 443
361 609 655
544 721 1014
807 964 1465
1048 1214 1871
1108 1281 1971
1118 1292 1987
1128 1304 2005
547 909 669
546 909 674
573 982 797
661 1097 1204
909 1240 1646
1150 1442 2053
1226 1490 2176
1229 1489 2181
1236 1494 2192
850 1411 999
850 1413 1004
862 1438 1044
939 1618 1395
1059 1722 1888
1290 1830 2291
1422 1906 2519
1424 1897 2521
1428 1896 2529
1183 1950 1374
1183 1951 1380
1179 1945 1380
1232 2066 1598
1293 2233 2063
1427 2314 2518
1597 2365 2815
1612 2358 2839
1617 2356 2848
1487 2441 1740
1486 2442 1746
1483 2439 1750
1499 2482 1843
1554 2628 2203
1602 2765 2674
1731 2826 3042
1777 2827 3127
1781 2823 3135
1581 2596 1861
1584 2602 1873
1587 2608 1884
1592 2622 1910
1649 2762 2217
1702 2922 2665
1782 3038 3087
1864 3071 3265
1869 3073 3275
1599 2625 1884
1602 2631 1895
1604 2637 1907
1607 2643 1918
1659 2774 2201
1714 2934 2638
1783 3058 3072
1874 3100 3280
1879 3101 3291
766 522 538
748 516 542
740 490 615
708 615 1055
825 882 1436
1015 1131 1793
1034 1157 1830
1044 1170 1849
1054 1184 1869
674 477 481
660 479 489
659 467 574
630 582 988
785 856 1376
1007 1130 1786
1035 1165 1839
1047 1179 1860
1059 1194 1881
542 508 423
538 510 425
529 611 626
599 748 1022
809 946 1438
1047 1206 1856
1116 1288 1979
1125 1298 1994
1135 1309 2011
522 858 627
522 859 632
555 937 745
637 1065 1149
892 1216 1610
1136 1420 2025
1223 1479 2167
1226 1478 2173
1234 1485 2185
828 1373 973
828 1374 978
832 1385 999
911 1566 1338
1027 1674 1833
1263 1786 2244
1408 1873 2494
1409 1864 2497
1414 1863 2505
1161 1913 1348
1161 1915 1354
1157 1910 1355
1206 2021 1552
1270 2192 2014
1404 2277 2477
1582 2334 2788
1602 2329 2821
1607 2327 2830
1470 2415 1719
1470 2415 1725
1467 2413 1729
1481 2449 1808
1537 2597 2164
1586 2738 2640
1717 2802 3017
1769 2803 3114
1774 2800 3122
1583 2598 1863
1585 2604 1874
1588 2610 1885
1591 2618 1900
1647 2757 2199
1702 2918 2645
1778 3037 3074
1865 3074 3266
1871 3076 3277
1600 2627 1886
1603 2633 1897
1606 2639 1908
1608 2645 1919
1658 2769 2186
1714 2929 2619
1779 3057 3059
1876 3102 3282
1881 3104 3293
1400 939 962
1376 926 950
1372 925 982
1419 938 1192
1343 1003 1653
1249 1178 1976
1227 1202 1999
1219 1212 2004
1217 1223 2011
1296 870 888
1283 863 882
1274 863 911
1308 866 1094
1232 944 1565
1180 1156 1924
1174 1202 1959
1172 1213 1964
1174 1225 1973
1165 807 797
1156 802 792
1170 854 862
1201 879 1074
1121 974 1559
1171 1221 1922
1201 1312 2023
1200 1319 2031
1203 1330 2044
999 846 719
992 843 715
982 874 737
1016 1120 1138
1070 1289 1667
1200 1427 2030
1274 1502 2196
1274 1501 2201
1278 1506 2213
813 1287 906
814 1290 912
810 1287 914
911 1502 1232
1045 1678 1786
1287 1803 2244
1424 1872 2498
1424 1860 2501
1427 1857 2507
1143 1875 1317
1143 1876 1322
1139 1872 1323
1186 1970 1484
1262 2159 1949
1393 2260 2441
1577 2318 2772
1602 2313 2815
1607 2310 2823
1453 2384 1694
1452 2385 1700
1449 2381 1703
1458 2406 1759
1517 2557 2108
1566 2701 2590
1697 2768 2981
1759 2770 3096
1763 2767 3104
1584 2600 1864
1587 2606 1875
1589 2612 1886
1592 2618 1897
1643 2746 2170
1700 2908 2611
1771 3034 3051
1866 3077 3268
1872 3078 3279
1602 2629 1887
1604 2635 1898
1607 2641 1909
1609 2647 1921
1654 2759 2158
1712 2920 2586
1773 3053 3035
1877 3105 3284
1882 3106 3295
1910 1290 1317
1901 1286 1314
1886 1285 1326
1917 1299 1437
2011 1333 1780
1958 1375 2184
1903 1386 2233
1881 1387 2244
1865 1390 2257
1848 1248 1274
1842 1244 1270
1825 1243 1280
1849 1254 1375
1941 1288 1707
1881 1338 2135
1807 1361 2212
1786 1363 2222
1770 1367 2234
1773 1206 1214
1767 1203 1210
1768 1218 1232
1783 1249 1344
1853 1264 1655
1789 1334 2102
1694 1394 2251
1672 1395 2259
1658 1400 2272
1711 1220 1175
1705 1218 1172
1696 1224 1177
1752 1358 1361
1806 1439 1741
1694 1477 2179
1604 1550 2379
1585 1548 2379
1576 1552 2386
1557 1333 1108
1551 1331 1106
1538 1322 1098
1575 1485 1243
1654 1811 1842
1636 1900 2341
1595 1889 2547
1581 1874 2550
1577 1870 2554
1228 1793 1224
1227 1794 1229
1220 1789 1231
1280 1879 1368
1407 2124 1841
1519 2299 2422
1644 2333 2779
1660 2318 2833
1662 2313 2840
1451 2334 1648
1451 2335 1654
1448 2333 1657
1452 2345 1687
1527 2510 2018
1588 2687 2526
1707 2772 2961
1777 2775 3104
1781 2771 3113
1604 2619 1872
1607 2625 1883
1609 2631 1893
1611 2636 1904
1658 2751 2137
1719 2921 2579
1782 3060 3041
1885 3111 3292
1890 3113 3303
1620 2648 1896
1622 2654 1907
1624 2660 1918
1626 2665 1929
1666 2764 2130
1727 2930 2555
1783 3074 3021
1890 3134 3300
1897 3136 3315
2187 1485 1513
2186 1485 1513
2186 1496 1532
2215 1520 1608
2297 1560 1842
2401 1589 2237
2413 1590 2346
2411 1588 2367
2411 1587 2388
2173 1476 1503
2171 1475 1502
2170 1483 1517
2189 1503 1581
2263 1541 1798
2365 1569 2191
2378 1572 2348
2374 1570 2368
2372 1570 2389
2156 1470 1485
2154 1469 1485
2156 1479 1498
2165 1510 1569
2228 1543 1772
2321 1563 2153
2316 1571 2380
2304 1568 2395
2297 1568 2412
2152 1505 1479
2150 1505 1479
2148 1508 1483
2184 1579 1582
2231 1653 1819
2300 1651 2189
2240 1655 2478
2219 1649 2489
2207 1649 2503
2149 1617 1497
2147 1617 1497
2139 1611 1493
2178 1704 1581
2284 1917 1919
2354 2022 2398
2171 1924 2690
2124 1899 2708
2107 1892 2715
2027 1837 1463
2024 1838 1464
2016 1834 1462
2024 1894 1513
2132 2151 1852
2263 2484 2548
2108 2442 2914
2017 2363 2947
2001 2349 2948
1714 2269 1562
1712 2271 1567
1706 2269 1570
1697 2268 1578
1787 2448 1889
1882 2703 2455
1907 2831 2975
1915 2808 3147
1914 2801 3155
1678 2601 1833
1680 2607 1844
1682 2613 1856
1681 2620 1868
1733 2724 2059
1799 2918 2492
1842 3093 3007
1928 3159 3320
1932 3158 3330
1678 2633 1866
1681 2639 1877
1683 2645 1888
1683 2652 1900
1724 2740 2058
1789 2925 2472
1833 3101 2983
1922 3177 3315
1933 3181 3342
2215 1506 1533
2216 1507 1533
2220 1518 1551
2250 1547 1619
2330 1591 1825
2447 1630 2198
2485 1639 2349
2490 1640 2371
2495 1641 2393
2218 1508 1534
2219 1509 1535
2223 1519 1550
2246 1548 1609
2322 1591 1796
2438 1631 2156
2490 1644 2355
2495 1645 2377
2500 1646 2400
2244 1531 1548
2244 1531 1549
2250 1541 1560
2269 1576 1620
2334 1620 1786
2441 1656 2114
2511 1667 2388
2513 1666 2407
2517 1666 2427
2315 1608 1592
2316 1609 1594
2316 1609 1595
2358 1668 1668
2408 1746 1851
2505 1776 2156
2579 1759 2492
2578 1753 2514
2580 1751 2533
2416 1767 1677
2417 1769 1678
2415 1767 1678
2457 1828 1738
2546 1965 1951
2633 2063 2308
2668 1970 2641
2647 1935 2691
2641 1926 2704
2505 1984 1760
2504 1985 1761
2500 1983 1760
2514 2014 1785
2619 2203 1995
2783 2502 2513
2826 2533 2966
2703 2390 3046
2684 2371 3051
2467 2276 1777
2464 2276 1777
2458 2274 1776
2446 2267 1771
2499 2424 1929
2662 2744 2440
2744 3046 3151
2579 2974 3363
2559 2958 3367
2185 2595 1805
2179 2601 1810
2169 2607 1815
2151 2613 1818
2159 2701 1934
2229 2918 2361
2272 3178 2996
2206 3260 3399
2199 3255 3418
2103 2624 1807
2096 2630 1813
2088 2636 1819
2072 2642 1825
2080 2713 1926
2151 2917 2338
2188 3167 2945
2143 3274 3370
2138 3277 3416
2223 1512 1538
2224 1512 1539
2228 1523 1555
2255 1552 1618
2333 1595 1813
2450 1636 2176
2496 1647 2349
2502 1649 2371
2507 1650 2393
2226 1514 1540
2227 1515 1541
2230 1524 1553
2252 1552 1609
2326 1595 1786
2441 1637 2134
2500 1652 2355
2506 1653 2378
2511 1655 2400
2248 1533 1551
2248 1534 1552
2252 1540 1561
2269 1573 1614
2332 1616 1766
2436 1654 2081
2515 1668 2378
2518 1667 2396
2522 1667 2417
2315 1604 1592
2316 1605 1594
2315 1604 1594
2352 1654 1656
2400 1729 1823
2497 1766 2117
2584 1757 2469
2589 1752 2502
2592 1750 2521
2425 1762 1681
2427 1763 1683
2426 1762 1683
2463 1812 1732
2550 1936 1919
2635 2033 2249
2705 1962 2589
2705 1922 2666
2703 1914 2681
2573 1998 1803
2575 2000 1806
2575 2000 1807
2588 2019 1824
2695 2182 1997
2843 2426 2420
2953 2484 2862
2906 2323 2965
2896 2304 2971
2734 2301 1934
2735 2302 1936
2735 2302 1937
2733 2297 1937
2799 2410 2036
2960 2695 2420
3171 3072 3128
3177 3029 3420
3167 3009 3426
2850 2618 2044
2850 2621 2046
2847 2621 2045
2842 2620 2043
2858 2665 2077
2942 2865 2313
3141 3240 2990
3160 3517 3661
3139 3520 3712
2817 2638 2029
2815 2642 2030
2810 2646 2029
2804 2650 2028
2809 2688 2053
2869 2876 2271
3040 3234 2912
3033 3525 3598
2991 3547 3696
2231 1517 1544
2232 1518 1545
2236 1528 1560
2262 1557 1620
2340 1601 1808
2456 1643 2165
2507 1656 2349
2513 1657 2371
2519 1659 2393
2234 1520 1545
2235 1521 1546
2238 1529 1558
2260 1558 1612
2333 1601 1783
2447 1644 2125
2511 1660 2355
2517 1662 2377
2523 1663 2400
2254 1537 1556
2254 1538 1557
2258 1544 1565
2275 1575 1615
2336 1619 1762
2439 1658 2070
2524 1674 2374
2527 1672 2392
2532 1672 2413
2321 1606 1596
2322 1607 1598
2321 1606 1598
2356 1653 1656
2404 1728 1818
2501 1767 2106
2593 1761 2462
2599 1756 2498
2602 1754 2517
2430 1761 1684
2432 1763 1686
2431 1762 1687
2466 1808 1732
2551 1927 1909
2635 2024 2232
2711 1960 2574
2714 1919 2658
2714 1911 2674
2580 1996 1807
2581 1998 1809
2581 1998 1810
2592 2014 1825
2697 2171 1991
2842 2407 2399
2954 2469 2838
2916 2306 2951
2909 2287 2957
2745 2296 1941
2746 2297 1942
2746 2296 1943
2744 2292 1943
2807 2399 2036
2968 2678 2406
3179 3054 3104
3196 3009 3403
3187 2989 3408
2872 2615 2057
2873 2616 2058
2874 2616 2060
2874 2615 2061
2895 2654 2092
2989 2846 2310
3201 3220 2966
3290 3534 3674
3286 3548 3746
2882 2643 2066
2884 2647 2069
2885 2651 2072
2887 2655 2074
2902 2686 2096
2982 2859 2277
3176 3213 2875
3286 3575 3640
3273 3631 3787
