assets/luts/LUTs by IWLTBAP (3DL)/02 - Generic LOG/X-6500-LOG.3dl
# Copyright: (C) Copyright 2010-2020 by IWLTBAP SAS
# Cannot be resold, shared or otherwise redistributed
# Website: https://luts.iwltbap.com
0 64 128 192 256 320 384 448 512 576 640 704 768 832 896 960 1023
198 260 267
204 262 289
221 275 347
245 304 443
308 369 584
411 478 780
531 607 994
671 757 1232
809 911 1468
937 1053 1682
1011 1138 1806
1020 1148 1821
1026 1155 1831
1031 1161 1840
1037 1168 1849
1043 1174 1859
1048 1180 1868
201 280 276
201 284 290
221 290 345
247 316 438
299 364 565
400 468 758
514 590 966
654 739 1202
794 895 1442
924 1038 1659
1012 1140 1808
1023 1152 1826
1028 1158 1835
1034 1165 1844
1039 1171 1854
1045 1178 1863
1050 1184 1872
220 342 304
219 341 307
222 355 367
263 380 460
304 406 576
402 492 759
517 606 968
651 745 1198
788 895 1431
919 1040 1652
1025 1160 1829
1040 1177 1854
1043 1181 1861
1048 1186 1869
1053 1191 1876
1057 1196 1884
1063 1203 1893
271 440 364
271 440 367
268 448 400
284 473 503
329 489 611
414 552 781
536 658 998
661 780 1216
790 911 1435
920 1053 1654
1041 1191 1859
1070 1223 1906
1074 1227 1913
1079 1233 1921
1084 1238 1929
1089 1244 1937
1094 1250 1947
342 566 451
343 567 454
342 568 459
344 597 542
374 628 680
450 656 833
561 745 1046
701 876 1288
823 985 1493
942 1102 1693
1061 1230 1891
1108 1284 1971
1111 1287 1977
1116 1292 1984
1121 1297 1992
1125 1302 2000
1131 1309 2009
435 721 552
435 723 555
434 723 557
446 761 615
459 808 740
509 848 925
606 884 1113
739 992 1354
875 1115 1588
998 1223 1792
1093 1303 1950
1157 1368 2056
1159 1368 2059
1163 1371 2065
1166 1375 2071
1171 1379 2078
1176 1385 2087
560 931 683
560 932 686
558 930 687
563 946 711
588 1008 821
617 1090 1015
677 1122 1234
788 1159 1431
925 1262 1672
1058 1379 1901
1163 1461 2075
1233 1509 2189
1232 1502 2187
1233 1500 2188
1235 1501 2191
1237 1501 2195
1241 1505 2202
705 1172 840
705 1173 843
704 1172 845
702 1169 845
726 1227 932
763 1314 1101
795 1400 1342
874 1430 1573
988 1465 1775
1117 1554 1998
1233 1645 2198
1319 1703 2343
1329 1701 2359
1329 1696 2358
1330 1693 2360
1331 1691 2362
1334 1692 2367
861 1431 1012
862 1432 1015
861 1432 1017
859 1429 1017
876 1461 1064
913 1544 1207
952 1641 1420
986 1716 1683
1071 1741 1910
1185 1780 2112
1301 1848 2309
1396 1907 2473
1428 1920 2529
1428 1913 2528
1429 1911 2531
1431 1908 2534
1434 1910 2539
1029 1701 1199
1029 1702 1202
1029 1702 1204
1027 1699 1204
1024 1696 1205
1063 1777 1329
1101 1868 1514
1133 1958 1758
1174 2017 2014
1262 2045 2234
1368 2082 2426
1467 2127 2593
1522 2147 2685
1524 2141 2690
1526 2138 2693
1528 2135 2696
1531 2137 2702
1193 1967 1386
1194 1967 1389
1193 1968 1392
1192 1966 1393
1189 1961 1392
1209 2006 1464
1243 2087 1621
1276 2173 1834
1303 2251 2085
1351 2300 2328
1437 2331 2537
1533 2360 2708
1604 2380 2828
1615 2376 2845
1617 2372 2848
1619 2369 2851
1622 2370 2857
1350 2219 1571
1349 2219 1574
1349 2219 1577
1348 2218 1578
1345 2215 1579
1349 2225 1601
1379 2296 1737
1410 2376 1922
1437 2457 2151
1462 2524 2397
1516 2570 2626
1598 2597 2814
1675 2614 2952
1700 2613 2994
1702 2609 2996
1703 2605 2999
1706 2606 3004
1495 2456 1751
1495 2456 1755
1495 2456 1758
1494 2456 1760
1491 2453 1761
1488 2449 1761
1509 2499 1862
1536 2569 2021
1563 2645 2224
1585 2720 2459
1611 2781 2693
1668 2820 2899
1739 2840 3055
1779 2844 3131
1780 2839 3133
1782 2835 3136
1785 2836 3142
1571 2580 1848
1572 2583 1854
1574 2586 1859
1575 2589 1865
1576 2591 1870
1576 2593 1874
1587 2619 1927
1615 2688 2076
1644 2764 2262
1670 2843 2483
1691 2916 2718
1725 2974 2937
1786 3010 3113
1840 3027 3226
1847 3026 3239
1849 3026 3244
1852 3026 3249
1580 2595 1860
1581 2598 1866
1583 2601 1871
1584 2604 1877
1585 2607 1882
1587 2610 1888
1593 2624 1915
1619 2689 2050
1650 2765 2228
1679 2846 2443
1702 2925 2678
1731 2991 2904
1785 3037 3095
1847 3064 3232
1862 3069 3263
1865 3070 3268
1868 3071 3273
1589 2609 1871
1590 2612 1877
1592 2615 1883
1593 2618 1888
1594 2621 1894
1596 2624 1899
1597 2628 1907
1622 2690 2033
1652 2764 2203
1682 2845 2412
1706 2925 2645
1732 2994 2875
1780 3045 3074
1844 3075 3222
1868 3083 3271
1870 3084 3276
1873 3085 3281
1598 2624 1883
1599 2627 1889
1600 2630 1894
1602 2633 1900
1603 2636 1905
1604 2639 1911
1606 2642 1917
1631 2704 2043
1660 2777 2212
1690 2857 2420
1714 2937 2652
1739 3007 2881
1785 3058 3080
1849 3088 3229
1873 3097 3278
1876 3098 3284
1878 3099 3289
243 264 267
237 266 289
247 275 352
260 304 442
308 364 576
407 472 770
525 600 983
666 751 1222
804 906 1460
933 1048 1674
1011 1138 1806
1021 1149 1822
1026 1155 1832
1032 1162 1841
1037 1168 1850
1043 1175 1860
1049 1181 1869
221 278 270
217 280 285
229 286 341
250 312 432
296 358 557
393 460 747
509 584 956
650 734 1195
790 890 1435
920 1034 1653
1012 1140 1807
1023 1152 1826
1029 1159 1836
1034 1166 1845
1040 1172 1855
1046 1178 1864
1051 1185 1873
222 337 301
221 337 304
223 350 361
262 375 453
302 401 569
397 486 749
512 599 958
646 738 1188
783 889 1422
914 1034 1644
1023 1158 1826
1038 1175 1852
1042 1179 1859
1047 1185 1867
1052 1190 1875
1057 1195 1883
1062 1201 1892
269 433 359
268 433 362
266 442 393
281 467 494
326 484 604
409 545 772
530 651 987
655 773 1206
785 905 1426
915 1048 1647
1039 1188 1855
1070 1222 1905
1074 1226 1912
1078 1232 1920
1083 1237 1928
1088 1242 1936
1094 1249 1946
340 561 447
340 562 450
339 561 452
341 591 536
370 623 673
445 650 825
556 738 1036
696 869 1278
818 979 1484
938 1096 1686
1057 1225 1885
1108 1283 1970
1111 1286 1975
1115 1290 1983
1120 1296 1991
1125 1301 1999
1130 1308 2008
431 715 548
432 717 551
431 717 553
442 754 608
454 799 731
504 841 916
601 876 1104
733 984 1344
870 1108 1579
993 1216 1784
1089 1297 1942
1156 1366 2054
1158 1366 2057
1161 1369 2063
1165 1373 2069
1170 1377 2076
1175 1383 2085
555 923 678
555 924 681
554 923 682
558 937 704
583 999 813
612 1081 1004
671 1113 1223
783 1151 1421
919 1254 1662
1053 1372 1893
1158 1455 2067
1230 1504 2184
1230 1498 2183
1231 1496 2184
1233 1497 2188
1235 1497 2192
1239 1501 2198
700 1164 835
700 1165 838
700 1165 840
697 1162 840
721 1218 924
758 1303 1091
790 1390 1331
868 1421 1563
982 1456 1764
1112 1546 1989
1229 1638 2191
1315 1696 2336
1326 1695 2354
1326 1690 2354
1327 1687 2355
1328 1684 2357
1332 1686 2362
857 1423 1007
857 1424 1010
857 1424 1012
854 1421 1011
870 1451 1055
907 1534 1197
947 1632 1410
980 1706 1672
1066 1733 1900
1180 1772 2103
1296 1840 2301
1391 1901 2466
1426 1914 2524
1425 1908 2524
1427 1905 2527
1428 1902 2529
1432 1904 2535
1024 1694 1193
1024 1694 1196
1024 1694 1198
1022 1691 1198
1019 1687 1198
1057 1767 1320
1095 1858 1503
1128 1949 1747
1169 2009 2004
1256 2037 2224
1364 2075 2418
1463 2120 2586
1518 2141 2680
1522 2135 2686
1524 2132 2689
1525 2129 2692
1529 2131 2698
1189 1959 1381
1189 1960 1384
1189 1960 1387
1187 1958 1387
1184 1954 1387
1204 1997 1455
1238 2078 1611
1271 2165 1824
1299 2243 2075
1347 2293 2319
1433 2324 2528
1529 2353 2701
1601 2373 2822
1613 2370 2841
1615 2366 2844
1617 2363 2847
1620 2365 2853
1345 2212 1565
1345 2213 1569
1345 2213 1572
1344 2212 1573
1341 2209 1574
1344 2216 1593
1375 2288 1729
1406 2368 1912
1433 2449 2141
1458 2517 2388
1511 2563 2617
1594 2590 2807
1672 2607 2946
1698 2607 2990
1700 2602 2993
1701 2599 2996
1705 2600 3001
1491 2449 1746
1491 2450 1750
1491 2450 1753
1490 2449 1755
1487 2446 1756
1485 2443 1756
1505 2492 1854
1532 2561 2012
1559 2638 2215
1581 2713 2449
1607 2774 2685
1664 2814 2891
1736 2834 3049
1777 2838 3127
1779 2834 3131
1780 2830 3134
1783 2831 3139
1572 2580 1849
1573 2583 1854
1574 2586 1860
1575 2589 1866
1576 2592 1870
1577 2593 1875
1587 2618 1925
1614 2687 2072
1644 2762 2257
1670 2841 2478
1691 2915 2713
1724 2973 2932
1785 3009 3110
1840 3026 3225
1847 3025 3239
1849 3025 3244
1852 3026 3249
1581 2596 1861
1582 2599 1866
1583 2602 1872
1585 2604 1877
1586 2608 1883
1587 2611 1889
1593 2623 1913
1619 2688 2046
1649 2764 2223
1679 2845 2437
1702 2924 2672
1730 2991 2899
1784 3038 3092
1847 3065 3231
1863 3070 3264
1866 3071 3269
1869 3072 3274
1590 2610 1872
1591 2613 1878
1592 2616 1883
1594 2619 1889
1595 2622 1895
1596 2625 1900
1597 2628 1906
1622 2689 2028
1652 2763 2198
1682 2844 2407
1706 2923 2639
1731 2994 2870
1779 3045 3070
1843 3075 3220
1868 3084 3271
1871 3085 3277
1874 3086 3282
1598 2625 1884
1600 2628 1889
1601 2631 1895
1602 2633 1900
1604 2636 1906
1605 2639 1912
1606 2642 1917
1630 2702 2039
1660 2776 2208
1690 2856 2415
1714 2936 2646
1738 3006 2876
1784 3058 3077
1848 3089 3227
1874 3098 3279
1876 3099 3285
1879 3100 3290
352 291 290
344 293 300
351 291 353
344 303 455
343 358 587
412 463 752
524 590 967
658 741 1205
794 893 1438
927 1042 1664
1013 1140 1808
1024 1153 1827
1030 1159 1836
1035 1166 1846
1041 1173 1855
1047 1179 1865
1052 1186 1874
331 291 283
327 291 288
324 292 344
322 302 443
327 352 562
397 453 730
507 574 940
643 726 1180
781 880 1418
915 1029 1644
1013 1141 1809
1026 1156 1831
1032 1163 1840
1037 1169 1850
1043 1176 1859
1049 1182 1869
1054 1189 1878
303 332 290
301 332 293
288 350 360
293 370 442
327 405 571
402 483 744
508 590 946
639 729 1173
778 882 1412
909 1029 1635
1020 1154 1821
1037 1174 1851
1041 1177 1856
1046 1182 1864
1050 1187 1872
1055 1193 1880
1061 1199 1889
280 421 349
279 421 352
273 427 375
281 457 473
326 482 593
405 536 758
521 638 970
645 758 1187
776 893 1410
907 1036 1632
1033 1180 1845
1067 1219 1901
1071 1223 1908
1076 1228 1916
1081 1233 1924
1086 1239 1932
1092 1245 1942
335 550 439
335 551 442
333 550 443
334 577 521
361 609 655
434 635 805
544 721 1014
684 852 1257
807 964 1465
928 1083 1669
1048 1214 1871
1105 1278 1966
1108 1281 1971
1113 1287 1979
1118 1292 1987
1123 1297 1995
1128 1304 2005
424 702 539
424 704 543
423 705 546
434 738 595
444 782 714
494 824 897
589 859 1083
722 967 1324
859 1092 1560
983 1202 1767
1081 1286 1928
1153 1361 2049
1155 1361 2052
1159 1364 2058
1163 1368 2065
1167 1373 2072
1173 1379 2081
547 909 669
547 910 672
546 909 674
549 920 691
573 982 797
602 1063 986
661 1097 1204
773 1137 1404
909 1240 1646
1045 1360 1878
1150 1442 2053
1224 1494 2174
1226 1490 2176
1227 1489 2178
1229 1489 2181
1232 1490 2185
1236 1494 2192
693 1151 827
693 1153 830
692 1152 831
690 1150 832
712 1202 911
749 1288 1075
781 1376 1314
859 1407 1546
973 1442 1748
1104 1534 1976
1221 1627 2178
1309 1686 2326
1323 1687 2348
1322 1681 2347
1324 1679 2349
1325 1677 2351
1328 1679 2356
850 1411 999
850 1412 1002
850 1413 1004
848 1410 1004
862 1438 1044
899 1521 1184
939 1618 1395
973 1695 1658
1059 1722 1888
1173 1761 2091
1290 1830 2291
1386 1892 2457
1422 1906 2519
1422 1900 2519
1424 1897 2521
1425 1894 2524
1428 1896 2529
1018 1683 1186
1018 1684 1189
1018 1684 1191
1016 1681 1191
1013 1677 1191
1050 1754 1307
1088 1846 1489
1122 1938 1733
1162 1998 1991
1250 2027 2213
1358 2064 2407
1457 2110 2576
1514 2132 2673
1519 2127 2681
1520 2124 2683
1522 2121 2686
1526 2123 2692
1183 1950 1374
1183 1950 1377
1183 1951 1380
1182 1949 1381
1179 1945 1380
1197 1985 1444
1232 2066 1598
1265 2154 1811
1293 2233 2063
1340 2283 2306
1427 2314 2518
1523 2343 2691
1597 2365 2815
1610 2362 2836
1612 2358 2839
1614 2355 2842
1617 2356 2848
1340 2203 1559
1340 2204 1562
1340 2204 1565
1338 2203 1567
1336 2200 1567
1338 2206 1582
1369 2278 1717
1400 2357 1900
1427 2439 2129
1453 2508 2377
1505 2553 2606
1589 2581 2797
1667 2599 2939
1696 2599 2986
1697 2595 2988
1699 2591 2991
1702 2592 2997
1487 2441 1740
1487 2442 1744
1486 2442 1746
1485 2441 1749
1483 2439 1750
1480 2435 1750
1499 2482 1843
1526 2552 2000
1554 2628 2203
1576 2703 2438
1602 2765 2674
1659 2806 2882
1731 2826 3042
1775 2831 3123
1777 2827 3127
1778 2822 3129
1781 2823 3135
1572 2581 1849
1574 2584 1855
1575 2587 1861
1576 2590 1866
1577 2592 1871
1577 2594 1875
1587 2617 1922
1614 2685 2068
1643 2760 2252
1669 2839 2471
1690 2913 2706
1723 2971 2926
1783 3008 3106
1840 3025 3224
1847 3025 3239
1849 3024 3243
1852 3025 3248
1581 2596 1861
1583 2599 1867
1584 2602 1873
1585 2605 1878
1587 2608 1884
1588 2611 1889
1592 2622 1910
1618 2686 2041
1649 2762 2217
1679 2843 2430
1702 2922 2665
1730 2990 2893
1782 3038 3087
1847 3065 3230
1864 3071 3265
1867 3072 3270
1869 3073 3275
1590 2611 1873
1592 2614 1878
1593 2617 1884
1594 2620 1890
1595 2623 1895
1597 2626 1901
1598 2629 1907
1622 2687 2024
1651 2761 2192
1682 2842 2399
1706 2922 2631
1731 2993 2864
1777 3045 3065
1842 3076 3217
1869 3085 3272
1872 3086 3278
1874 3087 3283
1599 2625 1884
1600 2628 1890
1602 2631 1895
1603 2634 1901
1604 2637 1907
1606 2640 1912
1607 2643 1918
1630 2701 2034
1659 2774 2201
1690 2854 2407
1714 2934 2638
1738 3005 2870
1783 3058 3072
1846 3090 3223
1874 3100 3280
1877 3100 3286
1879 3101 3291
514 373 384
510 374 386
506 371 403
504 357 438
494 374 595
488 461 793
552 589 979
667 735 1193
789 878 1416
916 1027 1639
1008 1134 1797
1023 1151 1822
1029 1158 1833
1035 1165 1843
1041 1173 1854
1047 1180 1864
1053 1187 1874
482 357 365
479 356 364
475 358 385
474 345 421
467 365 575
461 447 763
533 573 948
650 720 1168
775 865 1394
904 1015 1621
1009 1136 1800
1026 1156 1828
1032 1163 1839
1038 1170 1850
1044 1178 1860
1050 1185 1870
