assets/luts/LUTs by IWLTBAP (3DL)/02 - Generic LOG/X-9400-LOG.3dl
# Copyright: (C) Copyright 2010-2020 by IWLTBAP SAS
# Cannot be resold, shared or otherwise redistributed
# Website: https://luts.iwltbap.com
0 256 512 768 1023
113 102 320
120 145 615
180 340 1757
352 541 2868
924 957 3382
114 326 380
58 469 693
0 1074 1448
328 1592 2554
780 2076 3637
146 1277 586
141 1401 1104
298 1827 1863
574 2276 2779
981 2804 3590
558 2244 1103
593 2337 1423
676 2531 2320
866 2872 3162
1415 3346 3764
789 3050 1994
845 3092 2277
1078 3262 2825
1451 3566 3590
2096 3775 3932
630 142 350
504 169 629
435 356 1649
1026 514 2626
1872 868 3417
700 358 396
452 549 792
428 572 1916
942 1050 2863
1676 1600 3610
625 1445 484
417 1623 1129
467 1913 2059
808 2428 2892
1554 2899 3635
842 2505 942
740 2410 1606
876 2688 2333
1184 3038 3229
1762 3426 3806
1158 3116 2082
1241 3212 2498
1432 3406 2958
1827 3646 3624
2427 3831 3961
1631 243 429
1498 230 549
1446 458 1351
1778 676 2669
2605 950 3714
1592 491 477
1775 486 678
1683 693 1878
1873 1054 3034
2739 1239 3889
1958 1490 542
2159 1794 729
1910 2082 2178
1878 2016 3441
2634 2637 3902
2355 2473 564
2119 2863 940
1897 2954 2624
1853 3270 3509
2452 3565 3922
2701 3254 1269
2399 3316 2352
2149 3536 3186
2455 3771 3733
2850 3934 4033
2482 373 466
2829 390 529
2449 681 1291
2820 911 2606
3329 1148 3727
2548 837 512
2865 774 585
2708 1023 1445
3029 1326 2771
3468 1636 3849
2870 1745 530
3353 2004 692
3207 2033 2140
3297 1990 3406
3610 2283 3960
3403 2572 560
3547 2813 922
3334 3036 2310
3225 3368 3541
3451 3534 3946
3667 3276 936
3544 3360 1454
3372 3626 2722
3329 3888 3764
3559 3994 4035
3432 529 391
3465 602 543
3272 954 1529
3563 1177 2852
3842 1889 3898
3629 1289 435
3622 1237 663
3553 1460 1866
3637 1517 3115
3903 2571 3861
3778 2111 486
3734 2054 1124
3787 2234 2257
3815 2429 3151
3951 3099 3873
3895 2634 707
3832 2862 1291
3916 3100 2799
3977 3384 3658
4026 3587 3993
4015 3279 1028
3889 3494 1997
4004 3715 3076
4057 3906 3806
4083 4023 4065
