assets/luts/LUTs by IWLTBAP (3DL)/02 - Generic LOG/X-9400-LOG.3dl
# Copyright: (C) Copyright 2010-2020 by IWLTBAP SAS
# Cannot be resold, shared or otherwise redistributed
# Website: https://luts.iwltbap.com
0 64 128 192 256 320 384 448 512 576 640 704 768 832 896 960 1023
113 102 320
138 109 351
162 119 389
153 127 453
120 145 615
105 234 884
115 343 1144
146 350 1444
180 340 1757
210 362 2040
233 412 2322
286 477 2615
352 541 2868
426 594 3043
526 656 3163
695 779 3263
924 957 3382
143 132 327
149 136 356
150 147 392
130 165 442
116 193 554
110 253 766
99 382 1009
130 456 1268
161 454 1584
198 467 1891
228 542 2174
264 672 2434
309 847 2679
349 1030 2889
417 1194 3068
584 1318 3278
841 1444 3471
164 166 336
148 171 364
120 181 399
117 204 449
116 249 549
115 324 742
82 474 971
103 608 1195
151 653 1486
179 673 1814
204 772 2092
209 901 2348
228 1092 2574
298 1285 2818
423 1440 3098
601 1559 3343
839 1667 3553
131 216 347
123 222 374
116 236 415
116 272 481
114 333 604
54 444 800
3 618 996
0 789 1183
19 896 1422
128 942 1708
168 1052 1982
205 1188 2251
254 1333 2546
352 1464 2907
482 1569 3251
626 1682 3467
823 1834 3617
114 326 380
115 333 410
115 350 457
114 383 546
58 469 693
4 600 875
0 762 1048
0 934 1231
0 1074 1448
5 1194 1713
147 1331 1985
278 1466 2253
328 1592 2554
383 1678 2908
491 1732 3267
621 1854 3495
780 2076 3637
101 520 439
101 520 472
102 533 522
105 555 630
56 644 779
0 764 972
0 913 1146
0 1074 1332
0 1224 1553
4 1383 1805
104 1554 2054
273 1708 2301
368 1844 2574
427 1914 2907
538 1956 3249
659 2088 3480
799 2306 3608
87 765 481
88 757 522
88 764 583
90 792 706
80 866 878
20 967 1078
0 1086 1266
0 1240 1455
17 1408 1660
141 1586 1880
286 1754 2108
367 1899 2352
426 2023 2618
494 2091 2933
594 2146 3255
706 2283 3463
839 2491 3582
106 1027 518
106 1030 566
107 1050 642
109 1084 778
90 1126 1003
102 1191 1195
113 1299 1378
151 1444 1562
214 1614 1756
287 1785 1963
363 1926 2193
430 2048 2439
493 2156 2695
569 2223 2992
668 2289 3287
769 2432 3476
904 2646 3584
146 1277 586
149 1289 640
154 1326 735
155 1372 876
141 1401 1104
158 1441 1314
200 1552 1488
244 1687 1668
298 1827 1863
370 1963 2068
444 2081 2289
511 2181 2533
574 2276 2779
651 2357 3056
737 2437 3323
833 2588 3491
981 2804 3590
199 1562 693
197 1557 748
202 1595 844
203 1649 996
209 1697 1184
231 1728 1414
269 1804 1603
322 1909 1785
394 2016 1978
470 2121 2179
541 2217 2395
600 2309 2624
655 2409 2862
726 2511 3117
801 2592 3361
911 2759 3506
1073 2953 3618
296 1831 824
296 1830 881
300 1848 971
318 1890 1101
349 1934 1260
365 1973 1485
387 2016 1716
446 2089 1906
515 2179 2089
578 2268 2286
626 2357 2503
669 2454 2726
724 2566 2954
791 2673 3178
875 2760 3396
1007 2929 3538
1173 3085 3667
444 2032 984
447 2032 1037
459 2047 1110
482 2081 1202
506 2122 1339
530 2167 1532
540 2202 1802
571 2262 2017
614 2345 2204
653 2432 2398
687 2519 2617
733 2615 2840
792 2722 3056
862 2829 3251
964 2940 3433
1109 3087 3586
1285 3217 3713
558 2244 1103
560 2237 1170
567 2254 1236
578 2290 1310
593 2337 1423
612 2389 1594
630 2427 1849
648 2467 2110
676 2531 2320
710 2604 2534
755 2685 2752
805 2775 2965
866 2872 3162
955 2980 3340
1077 3103 3507
1227 3232 3649
1415 3346 3764
599 2524 1205
601 2510 1270
606 2511 1357
614 2541 1444
624 2588 1544
641 2638 1700
662 2679 1919
693 2694 2204
738 2730 2448
785 2782 2678
836 2849 2887
890 2933 3086
962 3028 3273
1073 3139 3442
1208 3265 3594
1369 3376 3715
1552 3466 3814
637 2747 1387
641 2744 1453
650 2748 1548
662 2764 1677
676 2797 1796
696 2838 1925
723 2874 2103
770 2895 2333
823 2916 2582
869 2954 2806
929 3017 3012
1004 3103 3209
1092 3202 3390
1205 3314 3546
1355 3420 3673
1525 3504 3774
1688 3574 3861
708 2909 1702
709 2909 1765
716 2918 1846
729 2935 1945
750 2959 2059
777 2989 2172
818 3024 2295
876 3054 2461
931 3082 2703
986 3129 2936
1056 3205 3148
1149 3304 3331
1253 3396 3498
1371 3477 3634
1521 3550 3740
1670 3616 3826
1820 3681 3904
789 3050 1994
793 3052 2042
803 3059 2105
820 3073 2185
845 3092 2277
889 3119 2379
949 3154 2486
1018 3206 2619
1078 3262 2825
1137 3325 3075
1215 3411 3281
1321 3498 3446
1451 3566 3590
1572 3620 3706
1689 3673 3798
1847 3728 3875
2096 3775 3932
176 110 327
183 114 356
204 122 395
198 128 470
195 156 648
174 254 910
177 348 1160
217 354 1447
262 345 1752
315 366 2018
349 414 2292
374 473 2596
418 532 2871
523 579 3050
681 621 3170
912 658 3260
1187 714 3338
194 138 329
192 141 360
201 150 397
208 164 454
179 185 621
134 264 884
139 367 1147
171 375 1462
210 369 1773
253 396 2054
297 452 2324
356 520 2595
423 594 2838
514 670 3021
658 775 3156
866 923 3295
1099 1079 3458
218 171 339
213 174 368
180 187 403
153 211 457
141 250 577
125 324 810
126 441 1050
157 505 1305
188 502 1622
226 527 1919
271 644 2182
314 813 2421
341 995 2632
391 1169 2835
514 1332 3049
761 1462 3293
1051 1583 3518
197 220 347
169 226 377
142 252 416
139 287 485
137 337 625
76 450 837
39 613 1032
56 736 1247
163 771 1521
190 802 1830
207 913 2093
229 1072 2322
297 1250 2566
410 1405 2876
556 1523 3189
771 1632 3430
1028 1770 3600
139 353 382
137 351 412
136 380 455
137 411 547
72 488 710
25 607 913
23 775 1075
23 924 1253
30 1019 1488
102 1103 1755
216 1218 2025
275 1355 2304
355 1496 2608
460 1592 2973
587 1664 3305
760 1788 3504
980 1993 3653
123 585 435
123 573 472
122 591 516
123 606 617
56 665 809
23 779 1000
23 923 1162
23 1069 1342
23 1203 1571
27 1347 1830
153 1505 2085
328 1651 2340
390 1782 2628
476 1866 2959
595 1908 3290
738 2047 3508
930 2273 3631
117 863 461
113 833 510
113 840 563
113 855 678
102 892 887
29 967 1108
23 1086 1281
23 1232 1470
31 1396 1681
139 1567 1907
290 1740 2136
376 1887 2381
446 2010 2648
533 2084 2964
645 2141 3278
773 2285 3476
940 2502 3592
144 1104 492
137 1086 551
138 1101 621
139 1127 753
121 1159 983
120 1195 1209
120 1297 1394
149 1442 1578
209 1610 1773
307 1783 1978
391 1934 2199
460 2057 2445
525 2168 2700
610 2257 2988
708 2323 3279
823 2461 3471
983 2671 3582
175 1294 554
180 1322 620
186 1354 702
189 1402 846
169 1444 1070
185 1465 1307
224 1555 1496
269 1688 1678
323 1829 1871
398 1969 2073
476 2089 2292
543 2190 2534
611 2295 2780
693 2397 3042
779 2475 3308
891 2626 3483
1065 2830 3590
225 1568 663
223 1569 722
231 1606 810
242 1671 960
244 1730 1145
267 1770 1371
299 1821 1595
350 1917 1786
422 2022 1982
500 2128 2181
572 2225 2396
632 2319 2626
694 2428 2867
764 2541 3108
844 2628 3348
973 2793 3501
1154 2972 3623
327 1844 781
321 1834 854
330 1852 935
355 1895 1063
396 1948 1220
427 1995 1414
439 2034 1679
480 2098 1896
544 2185 2088
607 2276 2286
656 2368 2507
704 2468 2730
763 2581 2955
832 2694 3173
925 2793 3387
1074 2957 3538
1250 3103 3670
481 2062 915
472 2038 1015
485 2048 1090
509 2083 1173
541 2134 1300
567 2188 1471
583 2231 1728
605 2279 1989
643 2357 2192
683 2445 2396
723 2534 2620
773 2631 2843
833 2737 3053
911 2848 3249
1023 2971 3431
1181 3111 3590
1362 3234 3717
585 2277 1060
587 2265 1136
593 2271 1218
603 2302 1303
615 2354 1405
633 2414 1550
653 2467 1771
677 2497 2062
709 2552 2297
751 2624 2525
796 2703 2746
849 2792 2957
916 2892 3156
1015 3004 3341
1144 3132 3513
1300 3254 3652
1488 3360 3768
628 2545 1198
630 2528 1268
636 2528 1363
645 2550 1471
656 2595 1575
673 2649 1713
697 2697 1907
728 2723 2166
781 2750 2427
831 2800 2659
881 2867 2874
944 2954 3076
1027 3052 3271
1140 3168 3445
1279 3289 3597
1441 3390 3716
1618 3476 3817
681 2743 1440
685 2739 1511
694 2743 1613
707 2763 1732
720 2796 1852
739 2837 1976
767 2878 2124
811 2911 2308
872 2933 2551
924 2970 2786
987 3037 3003
1074 3131 3203
1170 3235 3390
1281 3339 3549
1431 3435 3676
1594 3513 3778
1747 3582 3866
751 2904 1730
754 2908 1801
762 2916 1885
778 2934 1985
801 2958 2102
831 2988 2219
875 3025 2331
933 3064 2468
1000 3110 2669
1062 3157 2915
1131 3235 3141
1230 3332 3331
1346 3422 3493
1462 3494 3632
1595 3562 3742
1733 3625 3833
1960 3685 3907
835 3043 1994
844 3053 2070
856 3060 2135
879 3075 2218
909 3096 2313
960 3123 2421
1017 3166 2529
1082 3225 2649
1155 3293 2809
1218 3359 3049
1303 3440 3268
1412 3515 3442
1539 3580 3585
1653 3634 3705
1760 3685 3802
1980 3734 3877
2175 3782 3936
263 121 335
266 124 365
283 129 402
271 131 475
285 157 634
273 245 887
244 351 1145
276 359 1425
321 348 1723
386 366 1982
451 409 2227
490 467 2529
557 531 2823
697 584 3028
915 627 3167
1190 679 3267
1439 757 3354
273 148 336
267 152 366
268 159 405
275 168 485
246 200 704
207 312 970
212 374 1231
248 374 1511
297 370 1800
351 398 2066
392 448 2337
434 508 2625
506 568 2875
645 622 3046
866 676 3169
1161 744 3268
1404 828 3359
297 180 339
294 185 369
269 195 414
235 219 482
235 252 646
191 339 930
184 409 1199
215 407 1514
266 406 1830
327 445 2089
378 511 2341
438 588 2593
517 678 2821
644 791 3008
833 934 3167
1079 1086 3353
1307 1240 3527
309 228 350
278 236 386
243 262 427
181 325 499
152 382 652
118 469 894
136 578 1121
190 593 1394
222 595 1700
264 656 1977
306 821 2195
343 992 2397
395 1157 2610
501 1315 2858
700 1451 3135
984 1571 3394
1272 1696 3584
228 379 389
199 389 422
174 415 464
159 476 551
90 539 739
45 650 959
45 800 1126
66 891 1326
134 923 1592
205 984 1865
244 1119 2110
317 1280 2352
418 1424 2637
552 1528 2987
724 1612 3301
962 1736 3501
1233 1922 3656
175 644 436
157 644 472
140 663 515
136 693 591
107 731 815
45 823 1044
45 949 1204
45 1068 1384
46 1185 1619
127 1293 1877
296 1434 2135
376 1589 2401
466 1714 2696
574 1776 3037
717 1821 3340
919 1976 3540
1166 2212 3661
182 957 449
165 951 494
145 950 555
144 971 644
135 979 872
53 999 1152
45 1108 1317
45 1234 1509
51 1392 1727
132 1553 1960
297 1720 2189
407 1870 2439
496 2002 2705
603 2071 3021
723 2127 3317
889 2275 3508
1114 2487 3619
228 1214 467
216 1199 527
189 1194 608
187 1223 720
175 1245 945
141 1232 1235
109 1307 1438
125 1450 1624
202 1616 1820
333 1787 2019
421 1943 2238
489 2068 2483
569 2190 2737
665 2280 3021
768 2351 3296
918 2490 3483
1122 2699 3592
234 1370 522
242 1391 599
229 1416 691
228 1463 825
208 1506 1050
222 1531 1298
256 1585 1521
297 1706 1708
354 1843 1902
431 1984 2098
514 2106 2313
583 2211 2552
660 2327 2799
743 2442 3047
832 2528 3304
974 2675 3480
1172 2867 3593
265 1591 608
255 1592 693
272 1648 788
285 1712 922
293 1778 1116
323 1827 1330
345 1865 1589
388 1938 1802
460 2039 1999
539 2145 2196
612 2244 2412
675 2344 2644
743 2460 2881
813 2582 3109
906 2683 3339
1061 2845 3498
1258 3001 3633
384 1882 705
356 1855 826
366 1874 909
404 1914 1031
451 1973 1190
489 2028 1370
508 2074 1627
530 2124 1889
584 2204 2097
644 2295 2300
694 2391 2524
749 2495 2750
810 2608 2967
883 2727 3179
992 2842 3384
1158 3000 3542
1346 3130 3678
538 2106 849
514 2068 973
518 2061 1073
543 2093 1157
578 2154 1271
608 2219 1433
634 2276 1653
649 2316 1954
681 2385 2187
720 2470 2410
766 2559 2641
819 2655 2860
882 2762 3064
970 2878 3258
1098 3013 3443
1267 3143 3601
1449 3256 3725
625 2314 1030
620 2297 1106
623 2295 1202
630 2318 1298
642 2373 1400
660 2445 1539
685 2508 1747
711 2547 2022
750 2585 2293
797 2654 2529
843 2729 2755
900 2817 2966
978 2920 3166
1087 3039 3353
1224 3170 3526
1385 3282 3662
1572 3378 3775
669 2557 1244
671 2543 1317
676 2545 1413
683 2571 1513
694 2613 1628
716 2665 1774
743 2716 1949
779 2755 2164
829 2782 2414
884 2828 2650
936 2896 2870
1011 2987 3075
1108 3092 3277
1224 3209 3456
1363 3321 3606
1526 3410 3723
1694 3491 3825
730 2741 1514
734 2741 1590
744 2749 1684
757 2769 1794
768 2804 1910
786 2843 2036
818 2885 2170
865 2926 2326
928 2962 2529
991 3000 2772
1061 3072 2999
1156 3171 3207
1262 3282 3392
1377 3376 3552
1520 3458 3682
1674 3530 3785
1823 3597 3875
801 2903 1765
808 2913 1855
817 2921 1937
836 2938 2039
864 2964 2157
896 2996 2269
941 3033 2383
1002 3081 2507
1077 3141 2666
1144 3197 2902
1221 3276 3138
1321 3367 3335
1444 3453 3493
1563 3520 3632
1683 3582 3749
1822 3641 3839
2072 3694 3910
902 3044 2009
913 3059 2111
930 3069 2186
957 3085 2270
997 3108 2367
1047 3146 2476
1102 3195 2587
1163 3254 2702
1234 3326 2840
1307 3401 3038
1402 3471 3266
1511 3536 3445
1627 3598 3593
1735 3652 3713
1876 3700 3810
2098 3744 3878
2246 3793 3944
399 129 341
400 132 371
407 140 410
396 143 483
372 160 637
360 229 852
306 345 1113
320 363 1386
371 351 1672
446 364 1933
561 402 2152
664 454 2404
782 520 2711
960 581 2955
1226 654 3142
1488 745 3280
1673 815 3370
388 158 342
390 162 372
399 170 412
409 178 482
346 204 704
294 320 976
288 379 1254
323 378 1520
377 375 1788
452 400 2037
522 448 2290
603 508 2571
743 574 2831
924 633 3026
1161 689 3170
1409 768 3280
