assets/luts/LUTs by IWLTBAP (3DL)/02 - Generic LOG/X-9400-LOG.3dl
# Copyright: (C) Copyright 2010-2020 by IWLTBAP SAS
# Cannot be resold, shared or otherwise redistributed
# Website: https://luts.iwltbap.com
0 128 256 384 512 640 768 896 1023
113 102 320
162 119 389
120 145 615
115 343 1144
180 340 1757
233 412 2322
352 541 2868
526 656 3163
924 957 3382
164 166 336
120 181 399
116 249 549
82 474 971
151 653 1486
204 772 2092
228 1092 2574
423 1440 3098
839 1667 3553
114 326 380
115 350 457
58 469 693
0 762 1048
0 1074 1448
147 1331 1985
328 1592 2554
491 1732 3267
780 2076 3637
87 765 481
88 764 583
80 866 878
0 1086 1266
17 1408 1660
286 1754 2108
426 2023 2618
594 2146 3255
839 2491 3582
146 1277 586
154 1326 735
141 1401 1104
200 1552 1488
298 1827 1863
444 2081 2289
574 2276 2779
737 2437 3323
981 2804 3590
296 1831 824
300 1848 971
349 1934 1260
387 2016 1716
515 2179 2089
626 2357 2503
724 2566 2954
875 2760 3396
1173 3085 3667
558 2244 1103
567 2254 1236
593 2337 1423
630 2427 1849
676 2531 2320
755 2685 2752
866 2872 3162
1077 3103 3507
1415 3346 3764
637 2747 1387
650 2748 1548
676 2797 1796
723 2874 2103
823 2916 2582
929 3017 3012
1092 3202 3390
1355 3420 3673
1688 3574 3861
789 3050 1994
803 3059 2105
845 3092 2277
949 3154 2486
1078 3262 2825
1215 3411 3281
1451 3566 3590
1689 3673 3798
2096 3775 3932
263 121 335
283 129 402
285 157 634
244 351 1145
321 348 1723
451 409 2227
557 531 2823
915 627 3167
1439 757 3354
297 180 339
269 195 414
235 252 646
184 409 1199
266 406 1830
378 511 2341
517 678 2821
833 934 3167
1307 1240 3527
228 379 389
174 415 464
90 539 739
45 800 1126
134 923 1592
244 1119 2110
418 1424 2637
724 1612 3301
1233 1922 3656
182 957 449
145 950 555
135 979 872
45 1108 1317
51 1392 1727
297 1720 2189
496 2002 2705
723 2127 3317
1114 2487 3619
234 1370 522
229 1416 691
208 1506 1050
256 1585 1521
354 1843 1902
514 2106 2313
660 2327 2799
832 2528 3304
1172 2867 3593
384 1882 705
366 1874 909
451 1973 1190
508 2074 1627
584 2204 2097
694 2391 2524
810 2608 2967
992 2842 3384
1346 3130 3678
625 2314 1030
623 2295 1202
642 2373 1400
685 2508 1747
750 2585 2293
843 2729 2755
978 2920 3166
1224 3170 3526
1572 3378 3775
730 2741 1514
744 2749 1684
768 2804 1910
818 2885 2170
928 2962 2529
1061 3072 2999
1262 3282 3392
1520 3458 3682
1823 3597 3875
902 3044 2009
930 3069 2186
997 3108 2367
1102 3195 2587
1234 3326 2840
1402 3471 3266
1627 3598 3593
1876 3700 3810
2246 3793 3944
630 142 350
618 153 418
504 169 629
404 337 1084
435 356 1649
684 407 2138
1026 514 2626
1472 704 3130
1872 868 3417
621 208 355
630 222 424
580 260 679
345 408 1392
466 409 1904
724 501 2346
992 630 2848
1415 795 3188
1801 981 3411
700 358 396
706 406 470
452 549 792
287 715 1357
428 572 1916
686 790 2370
942 1050 2863
1336 1329 3326
1676 1600 3610
551 956 453
412 1049 531
323 1097 818
91 1216 1464
189 1388 1897
506 1701 2333
758 1895 2872
1185 1984 3447
1625 2400 3689
625 1445 484
554 1570 611
417 1623 1129
399 1755 1596
467 1913 2059
636 2196 2444
808 2428 2892
1123 2619 3362
1554 2899 3635
733 2007 538
512 1915 999
535 2045 1436
651 2190 1723
712 2308 2178
823 2500 2609
956 2718 3031
1247 2974 3418
1608 3189 3709
842 2505 942
726 2329 1434
740 2410 1606
805 2575 1930
876 2688 2333
986 2824 2803
1184 3038 3229
1458 3254 3570
1762 3426 3806
952 2828 1462
900 2787 1864
923 2832 2083
973 2918 2316
1122 3051 2608
1272 3192 3034
1498 3376 3424
1740 3520 3711
2104 3636 3896
1158 3116 2082
1176 3158 2315
1241 3212 2498
1319 3295 2709
1432 3406 2958
1595 3535 3285
1827 3646 3624
2190 3736 3821
2427 3831 3961
1123 174 391
1156 181 450
997 182 541
826 315 983
680 374 1615
1034 423 2135
1379 568 2631
1801 802 3190
2147 930 3620
1116 237 397
1175 243 457
1157 275 627
793 435 1288
843 435 1869
1127 508 2264
1398 661 2738
1829 917 3256
2153 1027 3663
1196 444 453
1278 438 507
1308 520 678
1114 649 1316
937 559 2107
1263 726 2519
1535 944 2975
1862 1118 3386
2181 1251 3818
1363 906 493
1431 961 543
1431 1094 713
894 1275 1499
914 1363 2075
1152 1376 2536
1487 1569 3106
1769 1741 3512
2022 2051 3817
1483 1428 532
1312 1686 590
1083 1688 941
846 1794 1651
808 2064 2243
952 2294 2628
1257 2471 3061
1656 2611 3497
1950 2889 3758
1685 1890 555
1264 2164 598
1170 2251 1178
957 2371 1981
985 2527 2362
1134 2674 2767
1357 2870 3140
1632 3063 3520
1899 3249 3791
1602 2550 576
1307 2716 823
987 2555 1822
1133 2749 2247
1236 2889 2580
1322 3003 2943
1570 3175 3330
1769 3350 3641
2043 3498 3866
1844 3040 853
1521 2984 1681
1324 3004 2200
1276 3057 2498
1422 3195 2808
1557 3326 3142
1751 3464 3511
2075 3583 3764
2351 3691 3929
1910 3195 1776
1759 3260 2134
1602 3321 2576
1622 3386 2840
1674 3483 3081
1880 3601 3378
2175 3697 3666
2408 3787 3856
2634 3880 3992
1631 243 429
1683 252 482
1498 230 549
1417 287 842
1446 458 1351
1574 490 2062
1778 676 2669
2079 881 3391
2605 950 3714
1505 292 426
1606 295 483
1610 326 608
1506 406 909
1549 526 1573
1542 562 2153
1720 763 2747
2135 988 3486
2654 1080 3791
1592 491 477
1729 436 519
1775 486 678
1864 763 1094
1683 693 1878
1686 845 2459
1873 1054 3034
2214 1139 3638
2739 1239 3889
1777 994 516
1924 1057 568
1951 1159 754
2003 1311 1367
1922 1397 2022
1692 1362 2755
1962 1494 3336
2334 1482 3792
2737 1655 3960
1958 1490 542
2088 1671 613
2159 1794 729
2221 1894 1379
1910 2082 2178
1764 2206 2809
1878 2016 3441
2217 2344 3807
2634 2637 3902
2127 1964 566
2267 2235 606
2147 2497 792
1984 2401 1676
1780 2546 2325
1565 2781 2964
1737 2950 3354
2113 3123 3663
2521 3267 3852
2355 2473 564
2473 2620 638
2119 2863 940
2077 2806 1930
1897 2954 2624
1744 3114 3126
1853 3270 3509
2142 3438 3747
2452 3565 3922
2561 2912 695
2393 3059 967
2225 3023 1710
1952 3085 2436
2079 3241 2903
2019 3408 3338
2166 3541 3624
2404 3654 3828
2621 3760 3973
2701 3254 1269
2588 3280 1759
2399 3316 2352
2277 3407 2799
2149 3536 3186
2287 3667 3508
2455 3771 3733
2641 3851 3905
2850 3934 4033
2080 320 464
2276 328 501
2357 350 567
1900 388 864
2010 588 1256
2122 584 1913
2386 717 2598
2663 916 3367
3014 998 3689
2024 404 477
2208 379 507
2241 407 599
1959 455 866
2049 663 1290
2117 657 1933
2388 855 2682
2735 1075 3461
3055 1204 3797
2012 624 514
2219 533 543
2221 567 706
2301 789 1072
2266 905 1479
2319 1021 2258
2509 1149 2879
2789 1256 3558
3134 1408 3844
2176 1071 535
2463 1051 565
2476 1117 787
2530 1269 1390
2550 1539 1993
2512 1502 2601
2728 1482 3250
2958 1517 3671
3236 1676 3900
2461 1580 541
2719 1813 585
2773 1997 728
2742 2015 1497
2775 2096 2061
2766 2126 2704
2687 1783 3665
3006 2081 3878
3249 2320 3972
2581 2085 557
2866 2318 585
3001 2480 675
2911 2464 1478
2890 2570 2132
2661 2763 2871
2639 2926 3440
2846 2988 3771
3085 3157 3900
2808 2531 564
2994 2641 619
3017 2832 797
2842 2917 1760
2701 2941 2408
2651 3101 3002
2494 3344 3646
2689 3493 3838
2884 3613 3971
3066 2911 651
3075 2927 734
3116 3090 1138
2850 3150 1956
2853 3279 2655
2706 3465 3308
2568 3618 3762
2737 3727 3914
2916 3828 4027
3265 3261 1015
3116 3298 1457
3036 3347 1909
2913 3428 2469
2785 3551 3126
2725 3721 3583
2774 3836 3843
2908 3917 3971
3157 3972 4053
2482 373 466
2707 381 482
2829 390 529
2458 476 856
2449 681 1291
2572 708 1891
2820 911 2606
3130 1046 3230
3329 1148 3727
2560 538 489
2709 481 494
2901 510 540
2778 644 855
2445 774 1334
2606 865 1977
2894 1126 2671
3170 1258 3309
3382 1380 3816
2548 837 512
2800 753 513
2865 774 585
2844 915 1073
2708 1023 1445
2800 1159 2180
3029 1326 2771
3228 1425 3409
3468 1636 3849
2656 1228 526
3009 1249 525
3090 1319 688
2976 1385 1455
3085 1529 1996
3030 1603 2443
3184 1567 3103
3333 1600 3587
3524 1870 3917
2870 1745 530
3222 1911 544
3353 2004 692
3135 1984 1626
3207 2033 2140
3253 2194 2651
3297 1990 3406
3479 2104 3799
3610 2283 3960
3106 2233 517
3361 2322 558
3465 2499 727
3305 2472 1643
3272 2594 2257
3320 2771 2761
3328 2870 3353
3480 2814 3772
3617 2970 3897
3403 2572 560
3466 2607 633
3547 2813 922
3334 2952 1729
3334 3036 2310
3354 3193 2864
3225 3368 3541
3345 3493 3796
3451 3534 3946
3510 2950 745
3485 2953 829
3543 3080 1105
3377 3284 1777
3316 3414 2544
3285 3508 3133
3214 3644 3629
3223 3772 3931
3342 3866 4029
3667 3276 936
3637 3293 1101
3544 3360 1454
3497 3488 1919
3372 3626 2722
3384 3762 3342
3329 3888 3764
3344 3955 3972
3559 3994 4035
2951 455 434
3039 417 466
3087 431 519
3030 507 710
2848 803 1463
2995 859 2105
3250 1072 2685
3458 1199 3196
3627 1475 3708
2984 778 447
3066 623 474
3190 664 529
3130 808 812
2942 980 1430
3040 1091 2229
3287 1277 2764
3508 1399 3357
3678 1684 3817
3095 1103 459
3298 1093 480
3384 1097 568
3367 1184 1051
3301 1336 1779
3192 1359 2351
3352 1445 2875
3553 1551 3511
3728 1885 3888
3177 1484 488
3528 1491 511
3573 1493 715
3408 1552 1408
3441 1655 2005
3369 1668 2394
3451 1634 3073
3593 1765 3642
3769 2109 3935
3436 1945 486
3636 2016 533
3624 2061 858
3472 2037 1683
3518 2054 2217
3586 2189 2657
3570 2160 3211
3703 2265 3752
3831 2482 3923
3669 2309 513
3690 2334 580
3677 2502 914
3568 2413 1777
3614 2506 2364
3679 2653 2845
3691 2893 3297
3757 2920 3731
3885 3033 3893
3761 2574 626
3742 2606 721
3694 2867 1150
3672 2879 1858
3685 3050 2461
3706 3186 3012
3750 3336 3430
3768 3400 3809
3879 3381 3952
3798 2948 853
3767 2981 1008
3710 3137 1364
3687 3258 1911
3718 3426 2515
3742 3539 3075
3774 3660 3501
3707 3771 3891
3789 3846 4009
3851 3310 956
3826 3312 1111
3777 3393 1448
3714 3548 1966
3760 3698 2593
3741 3828 3275
3736 3911 3720
3781 3980 3924
3850 4012 4043
3432 529 391
3459 558 449
3465 602 543
3427 714 834
3272 954 1529
3386 952 2302
3563 1177 2852
3724 1407 3377
3842 1889 3898
3438 921 408
3466 871 460
3497 881 555
3449 958 875
3326 1153 1555
3423 1235 2396
3588 1331 2949
3771 1605 3586
3872 2190 3893
3629 1289 435
3640 1241 498
3622 1237 663
3561 1330 1214
3553 1460 1866
3566 1498 2357
3637 1517 3115
3791 1793 3683
3903 2571 3861
3708 1732 463
3734 1702 567
3707 1692 973
3638 1749 1550
3718 1857 2054
3784 2070 2541
3710 1927 3174
3829 2048 3752
3922 2867 3831
3778 2111 486
3772 2089 583
3734 2054 1124
3716 2124 1758
3787 2234 2257
3833 2476 2789
3815 2429 3151
3888 2589 3725
3951 3099 3873
3835 2366 561
3814 2385 651
3775 2426 1214
3781 2525 1887
3855 2684 2555
3878 2867 3096
3915 3075 3500
3944 3149 3739
3992 3363 3939
3895 2634 707
3868 2726 846
3832 2862 1291
3870 2920 2092
3916 3100 2799
3944 3242 3319
3977 3384 3658
4006 3497 3851
4026 3587 3993
3963 2927 871
3927 3040 1105
3883 3135 1513
3975 3251 2266
3973 3448 2873
3995 3581 3347
4021 3661 3704
4043 3758 3908
4058 3828 4033
4015 3279 1028
3947 3358 1439
3889 3494 1997
3949 3593 2446
4004 3715 3076
4033 3826 3522
4057 3906 3806
4074 3985 3964
4083 4023 4065
