assets/luts/LUTs by IWLTBAP (COSTYLE)/Windows/IWLTBAP Cinematic LUTs/25%/C-8120-STD-25.costyle
<?xml version="1.0"?>
<!--
Generated by IWLTBAP for the LUTs Color Grading Packs
Cannot be resold, shared or otherwise redistributed
Copyright (C) 2010-2020 IWLTBAP SAS
-->
<SL Engine="1000">
	<E K="ICCProfile" V="C-8120-STD-25.icc" />
	<E K="Name" V="C-8120-STD-25" />
	<E K="UUID" V="3BA18C10-3232-4DEF-A253-64B99AD9C2AF" />
</SL>
