assets/luts/LUTs by IWLTBAP (COSTYLE)/Windows/IWLTBAP Cinematic LUTs/25%/F-8700-STD-25.costyle
<?xml version="1.0"?>
<!--
Generated by IWLTBAP for the LUTs Color Grading Packs
Cannot be resold, shared or otherwise redistributed
Copyright (C) 2010-2020 IWLTBAP SAS
-->
<SL Engine="1000">
	<E K="ICCProfile" V="F-8700-STD-25.icc" />
	<E K="Name" V="F-8700-STD-25" />
	<E K="UUID" V="958C686E-1FDE-42B6-9093-AB04E4E02D43" />
</SL>
