assets/luts/LUTs by IWLTBAP (COSTYLE)/Windows/IWLTBAP Cinematic LUTs/25%/F-8700-V2-STD-25.costyle
<?xml version="1.0"?>
<!--
Generated by IWLTBAP for the LUTs Color Grading Packs
Cannot be resold, shared or otherwise redistributed
Copyright (C) 2010-2020 IWLTBAP SAS
-->
<SL Engine="1000">
	<E K="ICCProfile" V="F-8700-V2-STD-25.icc" />
	<E K="Name" V="F-8700-V2-STD-25" />
	<E K="UUID" V="CB6CC072-A197-457A-B0C4-BF3E47356506" />
</SL>
