assets/luts/LUTs by IWLTBAP (COSTYLE)/Windows/IWLTBAP Cinematic LUTs/25%/H-9110-STD-25.costyle
<?xml version="1.0"?>
<!--
Generated by IWLTBAP for the LUTs Color Grading Packs
Cannot be resold, shared or otherwise redistributed
Copyright (C) 2010-2020 IWLTBAP SAS
-->
<SL Engine="1000">
	<E K="ICCProfile" V="H-9110-STD-25.icc" />
	<E K="Name" V="H-9110-STD-25" />
	<E K="UUID" V="649F01CE-1B93-477A-A539-C02908DD9AB6" />
</SL>
