assets/luts/LUTs by IWLTBAP (COSTYLE)/Windows/IWLTBAP Cinematic LUTs/25%/X-6500-STD-25.costyle
<?xml version="1.0"?>
<SL Engine="1000">
	<E K="ICCProfile" V="X-6500-STD-25.icc" />
	<E K="Name" V="X-6500-STD-25" />
	<E K="UUID" V="F668C67B-CEB9-4558-AB60-0841D6F8D42A" />
</SL>
