assets/luts/LUTs by IWLTBAP (3DL)/07 - Utility/Panasonic V-Log to Rec.709/U-PANASONIC-V-LOG-V2-BIS-LTR (Corrected by Michael Tivikoff).3dl
# Copyright: (C) Copyright 2010-2020 by IWLTBAP SAS
# Cannot be resold, shared or otherwise redistributed
# Website: https://luts.iwltbap.com
0 64 128 192 256 320 384 448 512 576 640 704 768 832 896 960 1023
16 16 16
16 16 378
16 16 745
32 29 1093
44 32 1425
48 32 1725
64 48 1999
64 48 2275
80 56 2537
80 64 2799
96 64 3037
96 64 3269
100 80 3501
112 80 3735
112 80 3938
112 96 4032
128 96 4063
63 362 63
63 362 362
63 348 713
64 362 1045
64 362 1362
64 362 1656
49 362 1920
49 362 2180
49 370 2442
49 378 2688
49 378 2932
49 378 3158
49 379 3389
49 394 3624
49 394 3845
49 395 4000
49 395 4047
50 697 50
48 683 362
48 682 699
34 682 1032
32 682 1345
32 682 1629
32 682 1887
32 682 2148
32 682 2402
32 697 2655
32 697 2893
46 699 3119
48 699 3342
62 699 3576
64 713 3798
78 713 3969
78 715 4031
48 1000 48
48 1000 379
48 1000 710
61 1000 1016
61 1000 1329
63 998 1613
77 999 1871
77 1000 2131
79 1000 2385
80 1000 2631
80 1000 2868
84 1000 3088
93 1000 3324
93 1000 3558
96 1000 3778
96 1003 3952
83 1016 4031
96 1313 96
96 1297 395
96 1297 714
96 1297 1032
80 1297 1329
80 1297 1613
80 1297 1861
80 1297 2124
80 1297 2371
75 1297 2616
68 1297 2853
68 1297 3071
68 1297 3296
64 1297 3530
64 1297 3748
65 1297 3937
76 1297 4031
96 1570 85
81 1565 411
80 1565 730
80 1556 1032
80 1554 1329
75 1554 1613
75 1554 1861
75 1551 2115
75 1549 2363
75 1549 2607
91 1551 2844
91 1554 3060
91 1554 3292
98 1554 3526
107 1554 3737
107 1554 3921
112 1554 4031
106 1813 96
106 1807 438
106 1807 746
106 1797 1048
106 1797 1345
112 1797 1613
112 1797 1861
118 1797 2115
122 1797 2361
122 1793 2607
122 1794 2838
122 1797 3055
124 1795 3276
128 1797 3510
126 1797 3732
112 1797 3921
112 1797 4015
145 2060 145
145 2051 460
145 2051 762
138 2051 1057
128 2043 1345
128 2037 1616
128 2034 1861
128 2034 2115
128 2034 2361
119 2034 2607
112 2034 2828
112 2034 3055
112 2034 3276
112 2034 3510
112 2034 3716
112 2034 3905
121 2034 4015
161 2296 145
153 2288 476
145 2288 778
145 2282 1064
137 2280 1361
137 2272 1629
137 2272 1871
137 2272 2119
137 2272 2365
137 2272 2607
137 2272 2828
137 2272 3055
139 2272 3276
146 2272 3500
153 2272 3716
153 2272 3905
153 2272 4023
177 2526 168
168 2526 499
168 2510 795
168 2510 1080
168 2510 1377
168 2510 1634
168 2510 1877
168 2510 2131
168 2494 2369
168 2494 2607
168 2494 2828
168 2494 3055
168 2494 3276
168 2494 3494
168 2494 3716
168 2494 3905
161 2494 4015
209 2748 199
199 2748 524
199 2732 811
193 2732 1096
193 2732 1386
193 2732 1645
193 2732 1887
193 2732 2131
183 2716 2377
177 2716 2607
177 2716 2844
177 2716 3055
177 2716 3276
177 2716 3494
177 2716 3716
177 2716 3905
177 2716 4031
225 2959 225
225 2943 545
214 2943 827
209 2943 1112
209 2943 1394
209 2939 1653
209 2938 1893
198 2927 2142
198 2927 2385
198 2927 2609
198 2927 2844
198 2927 3055
198 2927 3276
198 2927 3494
198 2927 3716
209 2927 3905
209 2922 4031
245 3164 241
241 3164 572
241 3164 844
229 3160 1128
229 3148 1409
229 3148 1666
229 3148 1909
225 3148 2147
225 3146 2385
225 3144 2623
225 3144 2844
225 3131 3055
225 3131 3276
225 3131 3507
225 3131 3716
225 3131 3905
225 3131 4031
273 3381 273
273 3381 588
260 3381 862
257 3378 1144
257 3365 1425
257 3365 1678
257 3365 1919
257 3365 2163
244 3365 2401
244 3362 2623
244 3362 2844
241 3358 3055
241 3349 3276
241 3349 3510
241 3349 3716
241 3349 3905
241 3349 4031
291 3587 305
289 3587 607
289 3585 891
278 3571 1161
274 3571 1441
273 3571 1693
273 3571 1925
273 3571 2164
273 3569 2401
273 3563 2639
259 3555 2860
259 3555 3071
259 3555 3276
259 3555 3510
259 3555 3716
259 3555 3905
259 3553 4031
306 3777 321
306 3777 636
305 3762 907
305 3762 1176
294 3762 1457
290 3761 1699
290 3761 1941
289 3752 2179
289 3746 2409
289 3746 2639
289 3746 2860
289 3745 3071
289 3745 3288
289 3745 3510
289 3745 3716
289 3745 3905
289 3730 4031
337 3950 337
337 3934 652
321 3934 923
321 3934 1192
321 3934 1461
321 3934 1714
321 3934 1941
305 3934 2179
305 3934 2417
305 3934 2639
305 3934 2860
305 3934 3071
305 3934 3292
305 3934 3510
305 3934 3716
305 3918 3905
305 3918 4031
393 16 31
393 31 378
394 32 744
407 32 1080
411 43 1421
411 48 1709
426 48 1983
427 48 2252
427 48 2506
427 56 2759
442 64 3005
443 64 3232
443 64 3469
443 64 3703
459 64 3906
459 65 4032
459 65 4063
362 346 48
348 330 332
346 330 683
346 330 1017
347 330 1341
357 341 1630
361 346 1888
362 346 2157
363 346 2410
363 347 2663
378 362 2910
378 362 3136
379 363 3363
383 378 3607
394 378 3827
394 379 3986
396 394 4047
362 680 32
362 666 346
362 666 682
360 666 1013
362 666 1326
362 666 1613
362 666 1863
362 667 2131
363 674 2386
363 681 2631
368 681 2877
378 682 3094
379 682 3324
379 683 3560
379 697 3782
380 699 3953
394 699 4031
392 985 60
379 984 363
378 984 697
376 984 1013
376 984 1316
376 984 1597
363 984 1855
376 984 2115
378 984 2369
378 984 2608
378 984 2852
379 984 3071
379 984 3299
379 985 3542
379 1000 3752
392 1000 3937
394 1000 4031
407 1297 81
395 1281 380
391 1281 699
391 1281 1016
382 1281 1322
379 1281 1597
379 1281 1848
379 1281 2108
379 1281 2361
391 1281 2607
391 1281 2837
391 1281 3055
395 1281 3284
395 1281 3526
395 1281 3736
395 1285 3925
395 1285 4031
422 1554 65
411 1549 406
411 1549 715
406 1549 1025
406 1549 1329
406 1538 1597
395 1538 1845
395 1538 2108
401 1538 2353
406 1538 2591
406 1538 2828
407 1538 3055
407 1541 3276
412 1549 3510
412 1549 3732
412 1549 3920
412 1549 4030
443 1797 106
428 1797 428
428 1791 731
428 1791 1032
422 1784 1329
422 1781 1597
422 1781 1855
422 1781 2108
412 1781 2353
417 1781 2590
412 1781 2828
422 1781 3040
422 1781 3267
422 1781 3499
422 1781 3716
422 1781 3906
428 1781 4015
460 2044 129
445 2044 444
444 2034 747
444 2034 1048
444 2034 1345
437 2034 1613
437 2028 1855
437 2028 2108
428 2027 2353
428 2027 2590
428 2024 2828
429 2025 3039
429 2025 3260
437 2027 3494
437 2027 3716
437 2027 3905
437 2028 4024
476 2288 129
468 2280 468
461 2272 763
460 2272 1064
460 2272 1353
455 2272 1615
452 2265 1861
452 2264 2115
452 2264 2353
452 2257 2590
452 2257 2828
452 2257 3039
452 2256 3260
452 2257 3494
452 2256 3707
452 2256 3905
452 2256 4015
492 2510 168
492 2510 492
483 2510 779
477 2500 1073
476 2494 1361
476 2494 1629
476 2494 1871
476 2494 2115
467 2494 2361
467 2494 2594
467 2494 2828
467 2494 3039
467 2494 3260
467 2494 3494
466 2494 3700
461 2494 3899
467 2494 4030
509 2732 193
508 2732 515
508 2732 801
494 2732 1088
493 2717 1377
492 2716 1638
492 2716 1877
492 2716 2127
492 2716 2369
482 2716 2607
482 2716 2828
482 2716 3039
482 2716 3260
482 2716 3494
482 2716 3700
482 2716 3905
482 2716 4031
530 2943 209
524 2943 540
524 2943 818
514 2930 1103
509 2927 1393
509 2927 1647
509 2927 1889
508 2927 2131
508 2927 2372
504 2927 2607
498 2927 2829
498 2922 3045
498 2911 3260
498 2911 3494
493 2911 3700
493 2911 3905
493 2911 4031
545 3160 241
541 3148 560
540 3148 843
529 3148 1119
526 3148 1409
525 3144 1661
525 3144 1896
525 3132 2147
524 3131 2385
513 3131 2608
513 3131 2844
513 3131 3055
513 3131 3272
513 3131 3494
509 3131 3704
509 3131 3905
509 3131 4031
560 3381 261
557 3367 588
557 3365 859
556 3365 1144
544 3365 1416
541 3365 1677
541 3363 1909
541 3362 2149
541 3350 2386
541 3349 2623
540 3349 2844
528 3349 3055
528 3349 3276
528 3349 3494
528 3349 3714
528 3349 3905
525 3349 4031
588 3585 289
573 3572 605
573 3571 875
573 3571 1160
559 3571 1431
558 3569 1684
557 3569 1925
557 3555 2163
557 3555 2401
557 3555 2623
557 3555 2845
553 3555 3055
543 3555 3276
543 3555 3507
543 3553 3716
541 3553 3905
541 3553 4031
604 3762 306
589 3762 622
589 3762 891
589 3761 1165
574 3761 1442
573 3747 1698
573 3746 1926
573 3746 2172
573 3746 2401
573 3745 2639
573 3745 2860
559 3745 3071
558 3745 3276
558 3745 3510
558 3730 3716
557 3730 3905
557 3730 4031
621 3934 337
605 3934 638
605 3934 909
605 3934 1180
590 3934 1457
589 3934 1709
589 3934 1941
589 3934 2179
589 3934 2417
589 3934 2639
589 3934 2860
574 3934 3071
574 3934 3288
573 3919 3510
573 3918 3716
573 3918 3905
573 3918 4031
777 32 48
762 32 394
761 48 745
761 48 1080
763 48 1409
777 48 1709
777 48 1967
777 48 2236
777 48 2497
777 48 2751
777 48 2989
779 49 3216
779 50 3453
779 50 3687
779 50 3891
779 50 4016
779 50 4047
713 346 49
699 330 331
698 330 683
697 330 1017
697 330 1331
697 330 1629
697 341 1887
698 346 2148
699 346 2410
699 346 2656
700 353 2894
713 362 3120
713 362 3357
713 363 3591
715 378 3813
715 379 3970
715 381 4032
713 666 32
697 666 347
697 665 680
682 664 1000
682 664 1313
682 666 1597
682 666 1856
682 666 2124
682 666 2377
682 666 2623
682 680 2861
683 680 3087
684 682 3311
697 682 3558
697 684 3768
697 697 3952
699 699 4031
713 984 64
699 984 363
697 969 682
682 968 1000
682 968 1313
682 968 1597
682 968 1845
682 968 2108
682 969 2361
682 984 2607
682 984 2844
682 984 3063
682 984 3292
682 984 3526
682 984 3748
682 989 3936
682 1000 4031
715 1281 80
709 1281 378
699 1281 698
697 1278 1015
693 1266 1313
682 1265 1587
682 1265 1841
682 1265 2099
682 1265 2353
682 1266 2590
682 1270 2828
682 1281 3055
682 1281 3276
682 1281 3510
682 1281 3732
682 1281 3921
682 1281 4031
730 1549 64
715 1549 406
714 1539 714
699 1538 1016
699 1534 1314
699 1533 1597
699 1533 1845
699 1533 2099
699 1533 2345
699 1533 2590
699 1533 2828
699 1533 3039
699 1538 3265
699 1538 3499
699 1538 3716
699 1539 3905
699 1549 4031
739 1797 112
731 1791 427
715 1781 730
715 1781 1032
715 1781 1329
709 1781 1597
699 1781 1845
699 1781 2099
699 1775 2345
699 1775 2590
699 1775 2819
699 1777 3039
699 1781 3260
699 1781 3494
699 1781 3716
699 1781 3905
699 1781 4015
747 2034 128
740 2034 444
731 2034 746
731 2027 1043
718 2021 1332
715 2018 1602
715 2018 1851
715 2018 2099
715 2018 2345
715 2018 2590
715 2018 2813
715 2018 3039
715 2018 3260
715 2018 3494
715 2018 3700
715 2018 3905
715 2018 4031
763 2272 120
747 2272 468
747 2272 763
739 2264 1056
731 2264 1345
731 2257 1613
731 2256 1858
731 2256 2108
727 2256 2353
724 2256 2590
724 2256 2813
723 2256 3039
723 2256 3260
716 2256 3492
716 2256 3700
716 2256 3898
716 2256 4022
779 2510 168
763 2495 492
756 2494 779
748 2494 1065
747 2494 1361
747 2494 1623
747 2494 1861
739 2494 2115
739 2494 2353
732 2491 2590
732 2479 2828
732 2480 3039
732 2478 3260
731 2478 3491
731 2478 3700
731 2479 3889
731 2486 4031
795 2732 193
779 2732 508
770 2716 795
763 2716 1081
763 2716 1377
763 2716 1631
754 2716 1877
749 2716 2119
747 2716 2361
747 2716 2594
747 2716 2828
747 2702 3039
747 2702 3260
747 2701 3494
747 2700 3700
747 2700 3889
747 2700 4031
796 2943 198
795 2929 530
779 2927 812
779 2927 1097
772 2927 1385
769 2927 1645
763 2927 1881
763 2924 2131
763 2917 2369
763 2911 2607
763 2911 2828
763 2911 3039
753 2911 3260
753 2911 3494
753 2911 3700
753 2911 3889
753 2911 4031
811 3148 229
800 3148 556
795 3148 831
795 3144 1113
784 3133 1394
781 3131 1653
779 3131 1893
779 3131 2134
779 3131 2377
779 3131 2607
768 3131 2829
768 3131 3040
765 3131 3260
765 3127 3494
765 3127 3700
763 3127 3890
763 3127 4031
827 3365 257
813 3365 576
811 3365 859
811 3365 1129
797 3363 1410
796 3362 1666
795 3349 1909
795 3349 2147
795 3349 2385
783 3349 2616
781 3349 2844
781 3349 3055
781 3349 3263
779 3349 3494
779 3349 3700
779 3347 3905
779 3346 4031
843 3571 277
827 3571 604
827 3571 875
815 3569 1147
813 3569 1426
811 3555 1682
811 3555 1919
811 3555 2163
799 3555 2394
797 3555 2623
797 3555 2844
797 3554 3055
795 3553 3276
795 3553 3494
795 3553 3714
795 3553 3905
795 3541 4033
845 3761 305
843 3761 620
830 3761 891
829 3750 1163
827 3746 1441
827 3746 1694
819 3746 1925
814 3745 2163
813 3745 2401
813 3745 2624
811 3745 2847
811 3745 3055
811 3730 3276
811 3730 3495
811 3730 3716
811 3730 3905
798 3730 4031
861 3934 321
859 3934 637
845 3934 907
845 3934 1179
843 3934 1457
843 3934 1709
829 3934 1941
829 3934 2179
829 3934 2409
827 3934 2639
827 3934 2860
827 3920 3071
827 3918 3276
824 3918 3510
813 3918 3716
813 3918 3905
813 3918 4031
1125 48 77
1112 48 410
1109 48 761
1109 48 1093
1109 48 1409
1096 48 1693
1096 48 1967
1096 48 2227
1096 48 2489
1096 48 2735
1096 48 2974
1096 48 3200
1096 48 3437
1096 48 3670
1096 48 3876
1096 48 4016
1096 48 4047
1048 346 49
1033 345 346
1033 330 683
1029 340 1017
1029 340 1330
1017 346 1614
1017 346 1878
1017 346 2147
1017 346 2402
1017 347 2648
1017 362 2894
1017 362 3120
1017 363 3341
1017 378 3591
1017 378 3797
1017 379 3969
