assets/luts/LUTs by IWLTBAP (3DL)/07 - Utility/Panasonic V-Log to Rec.709/U-PANASONIC-V-LOG-V2-BIS-LTR (Corrected by Michael Tivikoff).3dl
# Copyright: (C) Copyright 2010-2020 by IWLTBAP SAS
# Cannot be resold, shared or otherwise redistributed
# Website: https://luts.iwltbap.com
0 256 512 768 1023
16 16 16
44 32 1425
80 56 2537
100 80 3501
128 96 4063
96 1313 96
80 1297 1329
80 1297 2371
68 1297 3296
76 1297 4031
161 2296 145
137 2280 1361
137 2272 2365
139 2272 3276
153 2272 4023
245 3164 241
229 3148 1409
225 3146 2385
225 3131 3276
225 3131 4031
337 3950 337
321 3934 1461
305 3934 2417
305 3934 3292
305 3918 4031
1453 64 92
1425 48 1409
1409 42 2481
1393 32 3421
1381 48 4047
1329 1281 64
1297 1265 1313
1276 1265 2345
1265 1281 3264
1253 1281 4031
1339 2266 137
1301 2256 1345
1272 2256 2345
1265 2256 3244
1253 2256 4031
1377 3144 225
1329 3131 1393
1297 3127 2369
1285 3115 3260
1282 3115 4031
1397 3934 321
1346 3934 1445
1329 3918 2401
1317 3918 3276
1317 3918 4047
2497 64 96
2457 48 1409
2441 60 2465
2433 80 3404
2417 112 4039
2337 1291 100
2316 1281 1329
2301 1281 2346
2288 1281 3260
2272 1297 4031
2321 2256 153
2298 2256 1345
2276 2254 2341
2256 2256 3244
2240 2256 4031
2321 3131 225
2304 3127 1393
2281 3115 2369
2256 3115 3244
2232 3115 4031
2337 3934 321
2321 3934 1445
2288 3934 2401
2254 3924 3260
2224 3918 4047
3404 112 132
3372 112 1441
3354 128 2473
3333 128 3404
3308 128 4031
3232 1313 128
3215 1298 1345
3199 1298 2361
3193 1313 3276
3180 1313 4031
3196 2272 171
3180 2257 1361
3164 2256 2353
3148 2256 3244
3131 2258 4031
3192 3131 248
3176 3129 1402
3148 3127 2369
3131 3115 3247
3115 3115 4031
3192 3934 337
3167 3934 1457
3148 3934 2401
3131 3934 3272
3115 3918 4047
4047 177 209
4047 161 1473
4031 161 2481
4031 161 3404
4015 177 4031
4015 1333 157
4015 1329 1377
3999 1329 2385
3999 1329 3292
3987 1333 4047
3999 2272 217
3983 2272 1393
3979 2272 2369
3967 2272 3260
3967 2272 4047
3999 3131 277
3983 3131 1425
3967 3131 2385
3950 3131 3260
3934 3131 4047
3983 3934 353
3967 3934 1461
3958 3934 2409
3950 3934 3276
3934 3934 4047
