assets/luts/LUTs by IWLTBAP (3DL)/07 - Utility/Panasonic V-Log to Rec.709/U-PANASONIC-V-LOG-V2-BIS-LTR (Corrected by Michael Tivikoff).3dl
# Copyright: (C) Copyright 2010-2020 by IWLTBAP SAS
# Cannot be resold, shared or otherwise redistributed
# Website: https://luts.iwltbap.com
0 128 256 384 512 640 768 896 1023
16 16 16
16 16 745
44 32 1425
64 48 1999
80 56 2537
96 64 3037
100 80 3501
112 80 3938
128 96 4063
50 697 50
48 682 699
32 682 1345
32 682 1887
32 682 2402
32 697 2893
48 699 3342
64 713 3798
78 715 4031
96 1313 96
96 1297 714
80 1297 1329
80 1297 1861
80 1297 2371
68 1297 2853
68 1297 3296
64 1297 3748
76 1297 4031
106 1813 96
106 1807 746
106 1797 1345
112 1797 1861
122 1797 2361
122 1794 2838
124 1795 3276
126 1797 3732
112 1797 4015
161 2296 145
145 2288 778
137 2280 1361
137 2272 1871
137 2272 2365
137 2272 2828
139 2272 3276
153 2272 3716
153 2272 4023
209 2748 199
199 2732 811
193 2732 1386
193 2732 1887
183 2716 2377
177 2716 2844
177 2716 3276
177 2716 3716
177 2716 4031
245 3164 241
241 3164 844
229 3148 1409
229 3148 1909
225 3146 2385
225 3144 2844
225 3131 3276
225 3131 3716
225 3131 4031
291 3587 305
289 3585 891
274 3571 1441
273 3571 1925
273 3569 2401
259 3555 2860
259 3555 3276
259 3555 3716
259 3553 4031
337 3950 337
321 3934 923
321 3934 1461
321 3934 1941
305 3934 2417
305 3934 2860
305 3934 3292
305 3934 3716
305 3918 4031
777 32 48
761 48 745
763 48 1409
777 48 1967
777 48 2497
777 48 2989
779 50 3453
779 50 3891
779 50 4047
713 666 32
697 665 680
682 664 1313
682 666 1856
682 666 2377
682 680 2861
684 682 3311
697 684 3768
699 699 4031
715 1281 80
699 1281 698
693 1266 1313
682 1265 1841
682 1265 2353
682 1270 2828
682 1281 3276
682 1281 3732
682 1281 4031
739 1797 112
715 1781 730
715 1781 1329
699 1781 1845
699 1775 2345
699 1775 2819
699 1781 3260
699 1781 3716
699 1781 4015
763 2272 120
747 2272 763
731 2264 1345
731 2256 1858
727 2256 2353
724 2256 2813
723 2256 3260
716 2256 3700
716 2256 4022
795 2732 193
770 2716 795
763 2716 1377
754 2716 1877
747 2716 2361
747 2716 2828
747 2702 3260
747 2700 3700
747 2700 4031
811 3148 229
795 3148 831
784 3133 1394
779 3131 1893
779 3131 2377
768 3131 2829
765 3131 3260
765 3127 3700
763 3127 4031
843 3571 277
827 3571 875
813 3569 1426
811 3555 1919
799 3555 2394
797 3555 2844
795 3553 3276
795 3553 3714
795 3541 4033
861 3934 321
845 3934 907
843 3934 1457
829 3934 1941
829 3934 2409
827 3934 2860
827 3918 3276
813 3918 3716
813 3918 4031
1453 64 92
1425 48 761
1425 48 1409
1421 48 1957
1409 42 2481
1409 32 2973
1393 32 3421
1393 32 3864
1381 48 4047
1341 680 46
1329 666 682
1313 666 1314
1309 666 1855
1298 666 2370
1297 681 2852
1293 682 3308
1283 697 3764
1281 699 4031
1329 1281 64
1313 1269 699
1297 1265 1313
1281 1265 1839
1276 1265 2345
1265 1265 2821
1265 1281 3264
1265 1281 3716
1253 1281 4031
1329 1781 112
1313 1781 730
1297 1775 1329
1281 1775 1839
1265 1769 2337
1265 1775 2812
1262 1775 3260
1253 1775 3700
1249 1781 4031
1339 2266 137
1329 2256 755
1301 2256 1345
1286 2256 1850
1272 2256 2345
1265 2252 2812
1265 2256 3244
1259 2256 3699
1253 2256 4031
1361 2716 177
1338 2716 795
1313 2716 1362
1297 2700 1871
1283 2700 2353
1281 2700 2812
1269 2700 3244
1269 2700 3698
1269 2700 4031
1377 3144 225
1347 3131 827
1329 3131 1393
1307 3131 1888
1297 3127 2369
1285 3115 2828
1285 3115 3260
1285 3115 3700
1282 3115 4031
1393 3569 273
1361 3555 863
1333 3555 1425
1317 3555 1909
1313 3553 2385
1301 3549 2844
1301 3539 3260
1301 3539 3700
1301 3539 4047
1397 3934 321
1377 3934 897
1346 3934 1445
1333 3934 1928
1329 3918 2401
1317 3918 2848
1317 3918 3276
1317 3918 3714
1317 3918 4047
1989 64 112
1967 48 777
1957 48 1409
1945 32 1951
1938 32 2468
1935 32 2957
1925 48 3404
1919 64 3858
1909 80 4047
1871 691 80
1856 682 699
1846 682 1329
1839 682 1861
1839 682 2370
1830 682 2852
1823 698 3308
1807 699 3750
1798 715 4031
1839 1281 72
1829 1281 711
1823 1269 1313
1813 1269 1839
1807 1269 2345
1792 1281 2821
1782 1281 3260
1764 1281 3716
1758 1285 4031
1829 1781 102
1823 1781 731
1813 1775 1329
1807 1775 1839
1791 1771 2337
1781 1775 2812
1764 1775 3244
1748 1781 3700
1736 1781 4031
1834 2256 145
1829 2256 762
1813 2256 1345
1803 2256 1850
1791 2248 2341
1775 2248 2812
1756 2248 3244
1742 2256 3683
1732 2256 4031
1845 2716 180
1833 2716 795
1823 2700 1362
1807 2700 1865
1791 2700 2353
1764 2700 2812
1751 2700 3244
1742 2700 3683
1732 2700 4031
1861 3131 225
1845 3131 827
1829 3131 1393
1813 3127 1887
1794 3115 2369
1764 3115 2828
1758 3115 3247
1748 3115 3683
1732 3115 4031
1872 3555 273
1861 3555 859
1840 3555 1425
1823 3553 1909
1794 3539 2385
1775 3539 2829
1764 3539 3260
1748 3539 3700
1748 3539 4031
1877 3934 321
1861 3934 891
1840 3934 1445
1816 3934 1925
1791 3934 2401
1781 3934 2844
1764 3934 3273
1764 3918 3700
1748 3918 4047
2497 64 96
2473 48 779
2457 48 1409
2449 48 1951
2441 60 2465
2433 72 2957
2433 80 3404
2424 96 3844
2417 112 4039
2370 706 96
2362 699 715
2354 699 1336
2346 699 1871
2338 699 2377
2334 699 2860
2329 714 3308
2321 715 3750
2313 731 4031
2337 1291 100
2323 1281 715
2316 1281 1329
2306 1281 1845
2301 1281 2346
2296 1281 2825
2288 1281 3260
2280 1291 3716
2272 1297 4031
2321 1781 101
2312 1781 742
2304 1781 1329
2293 1775 1845
2288 1775 2337
2275 1775 2812
2272 1781 3244
2259 1781 3700
2248 1781 4031
2321 2256 153
2304 2256 763
2298 2256 1345
2288 2256 1855
2276 2254 2341
2272 2255 2812
2256 2256 3244
2248 2256 3683
2240 2256 4031
2321 2716 193
2312 2712 795
2304 2700 1370
2288 2700 1868
2276 2700 2353
2269 2700 2812
2256 2700 3244
2247 2700 3683
2232 2700 4031
2321 3131 225
2321 3131 827
2304 3127 1393
2288 3115 1887
2281 3115 2369
2272 3115 2816
2256 3115 3244
2240 3115 3683
2232 3115 4031
2337 3555 275
2321 3555 861
2307 3553 1425
2304 3544 1909
2288 3539 2385
2272 3539 2828
2256 3539 3260
2240 3539 3699
2232 3539 4033
2337 3934 321
2330 3934 891
2321 3934 1445
2304 3934 1925
2288 3934 2401
2272 3934 2844
2254 3924 3260
2239 3918 3700
2224 3918 4047
2957 70 80
2941 70 795
2931 80 1425
2925 86 1957
2912 96 2473
2909 106 2957
2897 112 3404
2893 113 3844
2877 128 4031
2846 729 96
2831 715 737
2828 715 1347
2814 715 1877
2812 715 2385
2804 717 2861
2798 731 3308
2796 731 3754
2787 747 4031
2798 1297 117
2796 1297 731
2781 1291 1330
2780 1285 1855
2766 1289 2353
2764 1297 2828
2755 1297 3264
2748 1297 3716
2748 1301 4031
2780 1791 128
2780 1782 747
2764 1781 1345
2755 1781 1855
2748 1781 2345
2742 1781 2812
2732 1781 3244
2732 1781 3700
2718 1791 4031
2764 2264 161
2764 2256 779
2751 2256 1355
2748 2256 1861
2732 2256 2346
2732 2256 2812
2716 2256 3244
2716 2256 3683
2711 2256 4031
2764 2716 209
2764 2716 801
2748 2700 1377
2748 2700 1873
2732 2700 2353
2724 2700 2812
2716 2700 3244
2711 2700 3683
2700 2700 4031
2764 3131 241
2764 3131 831
2748 3127 1394
2748 3115 1888
2732 3115 2369
2716 3115 2828
2716 3115 3244
2700 3115 3683
2700 3115 4031
2780 3555 289
2764 3555 862
2752 3553 1425
2748 3550 1909
2732 3539 2385
2726 3539 2828
2716 3539 3260
2700 3539 3698
2700 3539 4047
2780 3934 321
2764 3934 893
2764 3934 1445
2748 3934 1925
2732 3934 2401
2722 3925 2844
2716 3918 3260
2700 3918 3700
2700 3918 4047
3404 112 132
3388 112 825
3372 112 1441
3356 116 1967
3354 128 2473
3340 128 2957
3333 128 3404
3324 128 3842
3308 128 4031
3292 747 96
3276 731 761
3262 731 1363
3260 731 1889
3246 731 2393
3244 735 2868
3230 747 3309
3228 747 3764
3228 752 4031
3232 1313 128
3228 1301 749
3215 1298 1345
3212 1298 1861
3199 1298 2361
3196 1301 2830
3193 1313 3276
3183 1313 3720
3180 1313 4031
3212 1797 155
3200 1797 763
3196 1792 1346
3180 1791 1861
3180 1791 2353
3168 1791 2816
3164 1792 3260
3164 1797 3700
3152 1797 4031
3196 2272 171
3194 2264 786
3180 2257 1361
3172 2256 1862
3164 2256 2353
3154 2256 2812
3148 2256 3244
3148 2256 3692
3131 2258 4031
3196 2716 209
3180 2716 811
3177 2716 1379
3164 2701 1877
3154 2700 2361
3148 2700 2812
3144 2700 3244
3131 2700 3683
3131 2700 4031
3192 3131 248
3180 3131 843
3176 3129 1402
3164 3127 1893
3148 3127 2369
3148 3115 2828
3131 3115 3247
3131 3115 3683
3115 3115 4031
3192 3555 290
3180 3555 875
3176 3553 1426
3164 3553 1909
3148 3548 2385
3146 3539 2829
3131 3539 3260
3131 3539 3698
3115 3539 4047
3192 3934 337
3180 3934 907
3167 3934 1457
3164 3934 1935
3148 3934 2401
3144 3934 2844
3131 3934 3272
3127 3918 3700
3115 3918 4047
3844 145 177
3828 145 843
3812 145 1457
3796 145 1974
3780 145 2481
3778 145 2957
3764 130 3388
3748 145 3842
3748 145 4031
3732 763 127
3717 749 779
3705 747 1381
3700 747 1904
3685 749 2402
3683 763 2877
3679 763 3324
3669 763 3766
3667 779 4047
3671 1318 132
3667 1317 777
3655 1313 1361
3651 1313 1877
3639 1313 2371
3635 1315 2844
3631 1317 3277
3623 1329 3732
3619 1329 4035
3651 1807 177
3635 1798 779
3634 1797 1361
3619 1797 1872
3618 1797 2361
3603 1797 2828
3603 1797 3260
3602 1807 3706
3587 1807 4047
3633 2272 193
3619 2272 795
3618 2272 1377
3603 2272 1877
3598 2272 2361
3587 2265 2828
3587 2272 3260
3577 2272 3700
3571 2272 4047
3619 2716 225
3617 2716 827
3603 2716 1393
3590 2716 1887
3587 2716 2369
3571 2716 2828
3571 2716 3256
3569 2716 3685
3555 2716 4037
3619 3131 262
3603 3131 847
3602 3131 1410
3587 3131 1896
3583 3128 2371
3571 3127 2828
3569 3127 3260
3555 3127 3698
3555 3127 4047
3617 3555 305
3603 3555 877
3591 3555 1432
3587 3555 1920
3571 3553 2385
3571 3553 2844
3555 3548 3260
3555 3539 3700
3539 3539 4047
3617 3934 337
3603 3934 907
3587 3934 1457
3586 3934 1941
3571 3934 2401
3569 3934 2846
3555 3934 3276
3553 3934 3700
3539 3934 4047
4047 177 209
4047 177 859
4047 161 1473
4031 161 1983
4031 161 2481
4031 161 2957
4031 161 3404
4031 161 3844
4015 177 4031
4031 779 161
4031 779 809
4031 765 1409
4015 765 1920
4015 779 2417
4015 779 2893
4015 779 3324
4015 779 3780
4015 795 4047
4015 1333 157
4015 1329 795
4015 1329 1377
4007 1329 1893
3999 1329 2385
3999 1329 2848
3999 1329 3292
3999 1333 3732
3987 1333 4047
3999 1813 177
3999 1813 795
3999 1813 1377
3999 1813 1887
3983 1813 2369
3983 1813 2828
3983 1813 3273
3983 1813 3716
3983 1813 4047
3999 2272 217
3999 2272 811
3983 2272 1393
3983 2272 1887
3979 2272 2369
3967 2272 2828
3967 2272 3260
3967 2272 3700
3967 2272 4047
3999 2716 241
3993 2716 827
3983 2716 1397
3977 2716 1893
3967 2716 2369
3967 2716 2828
3950 2716 3260
3950 2716 3700
3950 2716 4047
3999 3131 277
3988 3131 859
3983 3131 1425
3967 3131 1909
3967 3131 2385
3950 3131 2828
3950 3131 3260
3934 3131 3700
3934 3131 4047
3983 3555 321
3983 3555 891
3983 3555 1441
3967 3555 1925
3967 3555 2394
3950 3554 2844
3950 3553 3260
3934 3553 3700
3934 3553 4047
3983 3934 353
3983 3934 923
3967 3934 1461
3967 3934 1941
3958 3934 2409
3950 3934 2860
3950 3934 3276
3934 3934 3700
3934 3934 4047
